; Generated with MatterSlice 1.0
; filamentDiameter = 1.75
; extrusionWidth = 0.5
; firstLayerExtrusionWidth = 0.4
; layerThickness = 0.2
; firstLayerThickness = 0.3
; automatic settings before start_gcode
G21 ; set units to millimeters
M107 ; fan off
T0 ; set the active extruder to 0
; settings from start_gcode
M104 S190
M190 S60
M109 S190
G28
; automatic settings after start_gcode
T0 ; set the active extruder to 0
G90 ; use absolute coordinates
G92 E0 ; reset the expected extruder position
M82 ; use absolute distance for extrusion
; Layer count: 38
; LAYER:0
M107
G0 F18000 X41.39 Y-39.772 Z0.3
; TYPE:SKIRT
G1 Z0.3
G1 F6600 E0
G1 F720 X43.468 Y-38.372 E0.12501
G1 X44.856 Y-36.287 E0.24997
G1 X46.247 Y-29.264 E0.60715
G1 X43.265 Y-29.249 E0.75588
G1 X43.265 Y29.23 E3.67341
G1 X46.23 Y29.23 E3.82133
G1 X44.858 Y36.299 E4.18058
G1 X43.428 Y38.414 E4.30792
G1 X41.332 Y39.794 E4.43308
G1 X34.305 Y41.148 E4.79006
G1 X34.305 Y38.189 E4.93763
G1 X-34.303 Y38.189 E8.36045
G1 X-34.303 Y41.18 E8.50967
G1 X-41.377 Y39.776 E8.86942
G1 X-43.469 Y38.372 E8.99505
G1 X-44.864 Y36.268 E9.12092
G1 X-46.225 Y29.23 E9.4785
G1 X-43.262 Y29.23 E9.62632
G1 X-43.262 Y-29.228 E12.54275
G1 X-46.225 Y-29.228 E12.69053
G1 X-44.86 Y-36.283 E13.04898
G1 X-43.426 Y-38.413 E13.17705
G1 X-41.324 Y-39.795 E13.30252
G1 X-34.303 Y-41.136 E13.65912
G1 X-34.303 Y-38.187 E13.80625
G1 X34.305 Y-38.187 E17.22912
G1 X34.305 Y-41.172 E17.37799
G1 X41.39 Y-39.772 E17.7383
G0 F18000 X41.233 Y-39.395
G1 F720 X43.179 Y-38.084 E17.85536
G1 X44.479 Y-36.131 E17.97241
G1 X45.76 Y-29.661 E18.30146
G1 X42.865 Y-29.647 E18.44585
G1 X42.865 Y29.63 E21.40319
G1 X45.745 Y29.63 E21.54687
G1 X44.481 Y36.142 E21.87781
G1 X43.141 Y38.123 E21.9971
G1 X41.178 Y39.416 E22.11433
G1 X34.705 Y40.664 E22.44317
G1 X34.705 Y37.789 E22.58655
G1 X-34.703 Y37.789 E26.04928
G1 X-34.703 Y40.692 E26.19412
G1 X-41.22 Y39.399 E26.52553
G1 X-43.18 Y38.084 E26.64321
G1 X-44.486 Y36.113 E26.76111
G1 X-45.74 Y29.63 E27.09048
G1 X-42.862 Y29.63 E27.23406
G1 X-42.862 Y-29.628 E30.19041
G1 X-45.74 Y-29.628 E30.33394
G1 X-44.483 Y-36.127 E30.66414
G1 X-43.139 Y-38.123 E30.78415
G1 X-41.171 Y-39.417 E30.90163
G1 X-34.703 Y-40.652 E31.23014
G1 X-34.703 Y-37.787 E31.37307
G1 X34.705 Y-37.787 E34.83585
G1 X34.705 Y-40.685 E34.98038
G1 X41.233 Y-39.395 E35.31237
G1 F6600 E28.51237
G1 Z0.6
G0 F18000 X-38.703 Y33.63
; TYPE:WALL-OUTER
G1 Z0.3
G1 F6600 E35.41237
G1 F720 X-39.462 Y33.63 E35.45018
G1 X-39.462 Y-33.628 E38.80565
G1 X-38.703 Y-33.628 E38.84351
G1 X-38.703 Y-34.387 E38.88133
G1 X38.705 Y-34.387 E42.74323
G1 X38.705 Y-33.628 E42.7811
G1 X39.465 Y-33.628 E42.81902
G1 X39.465 Y33.63 E46.17453
G1 X38.705 Y33.63 E46.2124
G1 X38.705 Y34.389 E46.25026
G1 X-38.703 Y34.389 E50.11211
G1 X-38.703 Y33.63 E50.14993
G0 F18000 X-38.303 Y33.989
; TYPE:WALL-INNER
G1 F720 X-38.303 Y33.23 E50.18775
G1 X-39.062 Y33.23 E50.22557
G1 X-39.062 Y-33.228 E53.54112
G1 X-38.303 Y-33.228 E53.57899
G1 X-38.303 Y-33.987 E53.6168
G1 X38.305 Y-33.987 E57.43879
G1 X38.305 Y-33.228 E57.47666
G1 X39.065 Y-33.228 E57.51457
G1 X39.065 Y33.23 E60.83018
G1 X38.305 Y33.23 E60.86804
G1 X38.305 Y33.989 E60.90591
G1 X-38.303 Y33.989 E64.72785
G1 F6600 E57.92785
G1 Z0.6
G0 F18000 X-11.81 Y2.362
G0 X-11.949 Y1.886
G0 X-12.052 Y1.048
G0 X-12.096 Y0.205
G0 X-12.081 Y-0.637
G0 X-12.006 Y-1.479
G0 X-11.874 Y-2.313
G0 X-11.684 Y-3.135
G0 X-11.436 Y-3.943
G0 X-11.133 Y-4.732
G0 X-10.776 Y-5.496
G0 X-10.366 Y-6.235
G0 X-9.905 Y-6.943
G0 X-9.397 Y-7.617
G0 X-8.843 Y-8.254
G0 X-8.256 Y-8.842
G0 X-7.619 Y-9.395
G0 X-6.945 Y-9.904
G0 X-6.237 Y-10.365
G0 X-5.498 Y-10.775
G0 X-4.734 Y-11.132
G0 X-3.946 Y-11.435
G0 X-3.137 Y-11.683
G0 X-2.316 Y-11.874
G0 X-1.481 Y-12.006
G0 X-0.639 Y-12.081
G0 X0.202 Y-12.096
G0 X0.263 Y-12.052
G0 X0.214 Y-11.994
G0 X0.214 Y-11.994
G0 X0.195 Y-11.696
; TYPE:WALL-OUTER
G1 Z0.3
G1 F6600 E64.82785
G1 F720 X-0.619 Y-11.682 E64.86842
G1 X-1.433 Y-11.61 E64.90914
G1 X-2.239 Y-11.481 E64.94981
G1 X-3.034 Y-11.297 E64.99047
G1 X-3.815 Y-11.057 E65.03119
G1 X-4.577 Y-10.764 E65.07187
G1 X-5.317 Y-10.418 E65.11258
G1 X-6.031 Y-10.022 E65.15327
G1 X-6.716 Y-9.577 E65.19398
G1 X-7.368 Y-9.084 E65.23472
G1 X-7.984 Y-8.549 E65.27539
G1 X-8.55 Y-7.981 E65.31536
G1 X-9.086 Y-7.366 E65.35603
G1 X-9.578 Y-6.714 E65.39675
G1 X-10.023 Y-6.029 E65.43747
G1 X-10.419 Y-5.315 E65.47818
G1 X-10.765 Y-4.575 E65.51892
G1 X-11.058 Y-3.813 E65.55963
G1 X-11.297 Y-3.032 E65.60036
G1 X-11.481 Y-2.236 E65.64111
G1 X-11.61 Y-1.431 E65.68178
G1 X-11.682 Y-0.617 E65.72254
G1 X-11.696 Y0.198 E65.76321
G1 X-11.653 Y1.013 E65.80392
G1 X-11.555 Y1.824 E65.84468
G1 X-11.399 Y2.626 E65.88544
G1 X-11.192 Y3.4 E65.92541
G1 X-10.923 Y4.186 E65.96686
G1 X-10.604 Y4.939 E66.00766
G1 X-10.234 Y5.667 E66.0484
G1 X-9.814 Y6.367 E66.08913
G1 X-9.346 Y7.036 E66.12986
G1 X-8.832 Y7.671 E66.17062
G1 X-8.264 Y8.279 E66.21213
G1 X-7.666 Y8.836 E66.2529
G1 X-7.031 Y9.35 E66.29366
G1 X-6.362 Y9.817 E66.33436
G1 X-5.662 Y10.237 E66.37509
G1 X-4.933 Y10.607 E66.41588
G1 X-4.183 Y10.926 E66.45654
G1 X-3.41 Y11.191 E66.49731
G1 X-2.621 Y11.402 E66.53805
G1 X-1.819 Y11.557 E66.5788
G1 X-1.008 Y11.656 E66.61957
G1 X-0.193 Y11.698 E66.66028
G1 X0.622 Y11.684 E66.70095
G1 X1.436 Y11.612 E66.74171
G1 X2.242 Y11.483 E66.78243
G1 X3.037 Y11.299 E66.82313
G1 X3.818 Y11.059 E66.86387
G1 X4.58 Y10.766 E66.90459
G1 X5.32 Y10.42 E66.94532
G1 X6.034 Y10.024 E66.98603
G1 X6.718 Y9.579 E67.02671
G1 X7.371 Y9.087 E67.06747
G1 X7.987 Y8.551 E67.10818
G1 X8.553 Y7.983 E67.14815
G1 X9.089 Y7.368 E67.18881
G1 X9.581 Y6.716 E67.22952
G1 X10.026 Y6.031 E67.27023
G1 X10.422 Y5.317 E67.31092
G1 X10.768 Y4.577 E67.35163
G1 X11.061 Y3.815 E67.39232
G1 X11.3 Y3.034 E67.43302
G1 X11.484 Y2.238 E67.47373
G1 X11.613 Y1.432 E67.5144
G1 X11.684 Y0.619 E67.55507
G1 X11.699 Y-0.196 E67.59568
G1 X11.656 Y-1.011 E67.63635
G1 X11.558 Y-1.822 E67.67705
G1 X11.402 Y-2.624 E67.71775
G1 X11.191 Y-3.412 E67.75839
G1 X10.926 Y-4.186 E67.79914
G1 X10.606 Y-4.938 E67.83985
G1 X10.236 Y-5.665 E67.88048
G1 X9.816 Y-6.365 E67.92114
G1 X9.348 Y-7.034 E67.9618
G1 X8.834 Y-7.669 E68.00249
G1 X8.266 Y-8.277 E68.04393
G1 X7.669 Y-8.834 E68.08459
G1 X7.034 Y-9.348 E68.12528
G1 X6.365 Y-9.815 E68.16592
G1 X5.665 Y-10.235 E68.20658
G1 X4.936 Y-10.605 E68.24729
G1 X4.185 Y-10.924 E68.28794
G1 X3.412 Y-11.189 E68.32864
G1 X2.623 Y-11.4 E68.36933
G1 X1.821 Y-11.555 E68.41002
G1 X1.011 Y-11.654 E68.45068
G1 X0.195 Y-11.696 E68.49139
G0 F18000 X0.202 Y-12.096
; TYPE:WALL-INNER
G1 F720 X-0.64 Y-12.082 E68.53335
G1 X-1.482 Y-12.007 E68.57548
G1 X-2.316 Y-11.874 E68.61756
G1 X-3.138 Y-11.684 E68.6596
G1 X-3.946 Y-11.435 E68.70174
G1 X-4.734 Y-11.132 E68.74381
G1 X-5.499 Y-10.775 E68.78588
G1 X-6.237 Y-10.365 E68.82796
G1 X-6.946 Y-9.904 E68.87011
G1 X-7.62 Y-9.395 E68.91221
G1 X-8.257 Y-8.842 E68.95425
G1 X-8.843 Y-8.254 E68.99564
G1 X-9.397 Y-7.618 E69.03768
G1 X-9.906 Y-6.944 E69.07979
G1 X-10.366 Y-6.235 E69.12193
G1 X-10.776 Y-5.497 E69.16402
G1 X-11.133 Y-4.732 E69.20612
G1 X-11.437 Y-3.944 E69.24824
G1 X-11.684 Y-3.136 E69.29038
G1 X-11.874 Y-2.313 E69.33251
G1 X-12.007 Y-1.48 E69.37458
G1 X-12.082 Y-0.638 E69.41675
G1 X-12.096 Y0.205 E69.45881
G1 X-12.052 Y1.048 E69.50093
G1 X-11.95 Y1.887 E69.5431
G1 X-11.789 Y2.716 E69.58523
G1 X-11.575 Y3.517 E69.62659
G1 X-11.297 Y4.329 E69.66941
G1 X-10.967 Y5.108 E69.71162
G1 X-10.584 Y5.861 E69.75377
G1 X-10.15 Y6.585 E69.79588
G1 X-9.666 Y7.277 E69.83801
G1 X-9.134 Y7.934 E69.88019
G1 X-8.547 Y8.562 E69.92307
G1 X-7.929 Y9.138 E69.96522
G1 X-7.272 Y9.67 E70.0074
G1 X-6.579 Y10.153 E70.04954
G1 X-5.856 Y10.587 E70.09161
G1 X-5.102 Y10.97 E70.1338
G1 X-4.326 Y11.3 E70.17587
G1 X-3.527 Y11.574 E70.21801
G1 X-2.71 Y11.792 E70.2602
G1 X-1.882 Y11.952 E70.30227
G1 X-1.043 Y12.055 E70.34444
G1 X-0.2 Y12.098 E70.38656
G1 X0.643 Y12.084 E70.42862
G1 X1.485 Y12.009 E70.47079
G1 X2.319 Y11.876 E70.51291
G1 X3.141 Y11.686 E70.55499
G1 X3.949 Y11.437 E70.59716
G1 X4.737 Y11.134 E70.63926
G1 X5.502 Y10.777 E70.68136
G1 X6.241 Y10.367 E70.7235
G1 X6.948 Y9.906 E70.76558
G1 X7.623 Y9.398 E70.8077
G1 X8.26 Y8.844 E70.84978
G1 X8.846 Y8.256 E70.89116
G1 X9.4 Y7.62 E70.93321
G1 X9.909 Y6.946 E70.9753
G1 X10.369 Y6.237 E71.01743
G1 X10.779 Y5.499 E71.0595
G1 X11.136 Y4.734 E71.10157
G1 X11.44 Y3.946 E71.14366
G1 X11.687 Y3.138 E71.18577
G1 X11.877 Y2.315 E71.22786
G1 X12.01 Y1.481 E71.26995
G1 X12.084 Y0.64 E71.31202
G1 X12.099 Y-0.203 E71.35403
G1 X12.055 Y-1.046 E71.39609
G1 X11.953 Y-1.885 E71.4382
G1 X11.792 Y-2.714 E71.48028
G1 X11.574 Y-3.529 E71.5223
G1 X11.3 Y-4.329 E71.56443
G1 X10.969 Y-5.107 E71.60655
G1 X10.586 Y-5.859 E71.64858
G1 X10.152 Y-6.583 E71.69063
G1 X9.668 Y-7.275 E71.73269
G1 X9.136 Y-7.932 E71.77479
G1 X8.549 Y-8.56 E71.81761
G1 X7.932 Y-9.136 E71.85965
G1 X7.275 Y-9.668 E71.90176
G1 X6.582 Y-10.151 E71.94383
G1 X5.859 Y-10.585 E71.98583
G1 X5.105 Y-10.968 E72.02796
G1 X4.328 Y-11.298 E72.07001
G1 X3.529 Y-11.572 E72.11209
G1 X2.712 Y-11.79 E72.15421
G1 X1.884 Y-11.95 E72.19623
G1 X1.046 Y-12.053 E72.23829
G1 X0.202 Y-12.096 E72.2804
G0 F18000 X20.405 Y-12.628
G0 X20.405 Y-12.628
G0 X20.705 Y-12.628
; TYPE:WALL-OUTER
G1 F720 X34.105 Y-12.628 E72.94893
G1 X34.105 Y-29.028 E73.76708
G1 X20.705 Y-29.028 E74.43556
G1 X20.705 Y-12.628 E75.25376
G0 F18000 X20.305 Y-12.228
; TYPE:WALL-INNER
G1 F720 X34.505 Y-12.228 E75.9622
G1 X34.505 Y-29.428 E76.82026
G1 X20.305 Y-29.428 E77.52865
G1 X20.305 Y-12.228 E78.38676
G0 F18000 X19.965 Y-12.4
; TYPE:BOTTOM-FILL
G1 F720 X0.915 Y-12.4 E79.33712
G0 F18000 X-0.9 Y-12.4
G1 F720 X-38.722 Y-12.399 E81.22402
G0 F18000 X-38.722 Y-12.799
G1 F720 X19.965 Y-12.8 E84.15193
G0 F18000 X19.965 Y-13.2
G1 F720 X-38.722 Y-13.199 E87.07978
G0 F18000 X-38.722 Y-13.599
G1 F720 X19.965 Y-13.6 E90.00769
G0 F18000 X19.965 Y-14
G1 F720 X-38.722 Y-13.999 E92.93554
G0 F18000 X-38.722 Y-14.399
G1 F720 X19.965 Y-14.4 E95.86345
G0 F18000 X19.965 Y-14.8
G1 F720 X-38.722 Y-14.799 E98.79131
G0 F18000 X-38.722 Y-15.199
G1 F720 X19.965 Y-15.2 E101.71921
G0 F18000 X19.965 Y-15.6
G1 F720 X-38.722 Y-15.599 E104.64707
G0 F18000 X-38.722 Y-15.999
G1 F720 X19.965 Y-16 E107.57498
G0 F18000 X19.965 Y-16.4
G1 F720 X-38.722 Y-16.399 E110.50283
G0 F18000 X-38.722 Y-16.799
G1 F720 X19.965 Y-16.8 E113.43074
G0 F18000 X19.965 Y-17.2
G1 F720 X-38.722 Y-17.199 E116.3586
G0 F18000 X-38.722 Y-17.599
G1 F720 X19.965 Y-17.6 E119.2865
G0 F18000 X19.965 Y-18
G1 F720 X-38.722 Y-17.999 E122.21436
G0 F18000 X-38.722 Y-18.399
G1 F720 X19.965 Y-18.4 E125.14226
G0 F18000 X19.965 Y-18.8
G1 F720 X-38.722 Y-18.799 E128.07012
G0 F18000 X-38.722 Y-19.199
G1 F720 X19.965 Y-19.2 E130.99803
G0 F18000 X19.965 Y-19.6
G1 F720 X-38.722 Y-19.599 E133.92588
G0 F18000 X-38.722 Y-19.999
G1 F720 X19.965 Y-20 E136.85379
G0 F18000 X19.965 Y-20.4
G1 F720 X-38.722 Y-20.399 E139.78165
G0 F18000 X-38.722 Y-20.799
G1 F720 X19.965 Y-20.8 E142.70955
G0 F18000 X19.965 Y-21.2
G1 F720 X-38.722 Y-21.199 E145.63741
G0 F18000 X-38.722 Y-21.599
G1 F720 X19.965 Y-21.6 E148.56532
G0 F18000 X19.965 Y-22
G1 F720 X-38.722 Y-21.999 E151.49317
G0 F18000 X-38.722 Y-22.399
G1 F720 X19.965 Y-22.4 E154.42108
G0 F18000 X19.965 Y-22.8
G1 F720 X-38.722 Y-22.799 E157.34893
G0 F18000 X-38.722 Y-23.199
G1 F720 X19.965 Y-23.2 E160.27684
G0 F18000 X19.965 Y-23.6
G1 F720 X-38.722 Y-23.599 E163.2047
G0 F18000 X-38.722 Y-23.999
G1 F720 X19.965 Y-24 E166.1326
G0 F18000 X19.965 Y-24.4
G1 F720 X-38.722 Y-24.399 E169.06046
G0 F18000 X-38.722 Y-24.799
G1 F720 X19.965 Y-24.8 E171.98837
G0 F18000 X19.965 Y-25.2
G1 F720 X-38.722 Y-25.199 E174.91622
G0 F18000 X-38.722 Y-25.599
G1 F720 X19.965 Y-25.6 E177.84413
G0 F18000 X19.965 Y-26
G1 F720 X-38.722 Y-25.999 E180.77199
G0 F18000 X-38.722 Y-26.399
G1 F720 X19.965 Y-26.4 E183.69989
G0 F18000 X19.965 Y-26.8
G1 F720 X-38.722 Y-26.799 E186.62775
G0 F18000 X-38.722 Y-27.199
G1 F720 X19.965 Y-27.2 E189.55565
G0 F18000 X19.965 Y-27.6
G1 F720 X-38.722 Y-27.599 E192.48351
G0 F18000 X-38.722 Y-27.999
G1 F720 X19.965 Y-28 E195.41142
G0 F18000 X19.965 Y-28.4
G1 F720 X-38.722 Y-28.399 E198.33927
G0 F18000 X-38.722 Y-28.799
G1 F720 X19.965 Y-28.8 E201.26718
G0 F18000 X19.965 Y-29.2
G1 F720 X-38.722 Y-29.199 E204.19504
G0 F18000 X-38.722 Y-29.599
G1 F720 X19.965 Y-29.6 E207.12294
G0 F18000 X34.845 Y-29.6
G1 F720 X38.725 Y-29.6 E207.31652
G0 F18000 X38.725 Y-30
G1 F720 X-38.722 Y-29.999 E211.18031
G0 F18000 X-38.722 Y-30.399
G1 F720 X38.725 Y-30.4 E215.04416
G0 F18000 X38.725 Y-30.8
G1 F720 X-38.722 Y-30.799 E218.90796
G0 F18000 X-38.722 Y-31.199
G1 F720 X38.725 Y-31.2 E222.7718
G0 F18000 X38.725 Y-31.6
G1 F720 X-38.722 Y-31.599 E226.6356
G0 F18000 X-38.722 Y-31.999
G1 F720 X38.725 Y-32 E230.49945
G0 F18000 X38.725 Y-32.4
G1 F720 X-38.722 Y-32.399 E234.36324
G0 F18000 X-38.722 Y-32.8
G1 F720 X38.725 Y-32.8 E238.22709
G0 F18000 X37.965 Y-33.2
G1 F720 X-37.963 Y-33.2 E242.0151
G0 F18000 X-37.963 Y-33.6
G1 F720 X37.965 Y-33.6 E245.80317
G0 F18000 X38.725 Y-29.2
G0 X38.725 Y-29.2
G1 F720 X34.845 Y-29.2 E245.99669
G0 F18000 X34.845 Y-28.8
G1 F720 X38.725 Y-28.8 E246.19026
G0 F18000 X38.725 Y-28.4
G1 F720 X34.845 Y-28.4 E246.38379
G0 F18000 X34.845 Y-28
G1 F720 X38.725 Y-28 E246.57736
G0 F18000 X38.725 Y-27.6
G1 F720 X34.845 Y-27.6 E246.77089
G0 F18000 X34.845 Y-27.2
G1 F720 X38.725 Y-27.2 E246.96446
G0 F18000 X38.725 Y-26.8
G1 F720 X34.845 Y-26.8 E247.15798
G0 F18000 X34.845 Y-26.4
G1 F720 X38.725 Y-26.4 E247.35156
G0 F18000 X38.725 Y-26
G1 F720 X34.845 Y-26 E247.54508
G0 F18000 X34.845 Y-25.6
G1 F720 X38.725 Y-25.6 E247.73866
G0 F18000 X38.725 Y-25.2
G1 F720 X34.845 Y-25.2 E247.93218
G0 F18000 X34.845 Y-24.8
G1 F720 X38.725 Y-24.8 E248.12575
G0 F18000 X38.725 Y-24.4
G1 F720 X34.845 Y-24.4 E248.31928
G0 F18000 X34.845 Y-24
G1 F720 X38.725 Y-24 E248.51285
G0 F18000 X38.725 Y-23.6
G1 F720 X34.845 Y-23.6 E248.70638
G0 F18000 X34.845 Y-23.2
G1 F720 X38.725 Y-23.2 E248.89995
G0 F18000 X38.725 Y-22.8
G1 F720 X34.845 Y-22.8 E249.09348
G0 F18000 X34.845 Y-22.4
G1 F720 X38.725 Y-22.4 E249.28705
G0 F18000 X38.725 Y-22
G1 F720 X34.845 Y-22 E249.48057
G0 F18000 X34.845 Y-21.6
G1 F720 X38.725 Y-21.6 E249.67415
G0 F18000 X38.725 Y-21.2
G1 F720 X34.845 Y-21.2 E249.86767
G0 F18000 X34.845 Y-20.8
G1 F720 X38.725 Y-20.8 E250.06125
G0 F18000 X38.725 Y-20.4
G1 F720 X34.845 Y-20.4 E250.25477
G0 F18000 X34.845 Y-20
G1 F720 X38.725 Y-20 E250.44834
G0 F18000 X38.725 Y-19.6
G1 F720 X34.845 Y-19.6 E250.64187
G0 F18000 X34.845 Y-19.2
G1 F720 X38.725 Y-19.2 E250.83544
G0 F18000 X38.725 Y-18.8
G1 F720 X34.845 Y-18.8 E251.02897
G0 F18000 X34.845 Y-18.4
G1 F720 X38.725 Y-18.4 E251.22254
G0 F18000 X38.725 Y-18
G1 F720 X34.845 Y-18 E251.41606
G0 F18000 X34.845 Y-17.6
G1 F720 X38.725 Y-17.6 E251.60964
G0 F18000 X38.725 Y-17.2
G1 F720 X34.845 Y-17.2 E251.80316
G0 F18000 X34.845 Y-16.8
G1 F720 X38.725 Y-16.8 E251.99674
G0 F18000 X38.725 Y-16.4
G1 F720 X34.845 Y-16.4 E252.19026
G0 F18000 X34.845 Y-16
G1 F720 X38.725 Y-16 E252.38383
G0 F18000 X38.725 Y-15.6
G1 F720 X34.845 Y-15.6 E252.57736
G0 F18000 X34.845 Y-15.2
G1 F720 X38.725 Y-15.2 E252.77093
G0 F18000 X38.725 Y-14.8
G1 F720 X34.845 Y-14.8 E252.96446
G0 F18000 X34.845 Y-14.4
G1 F720 X38.725 Y-14.4 E253.15803
G0 F18000 X38.725 Y-14
G1 F720 X34.845 Y-14 E253.35155
G0 F18000 X34.845 Y-13.6
G1 F720 X38.725 Y-13.6 E253.54513
G0 F18000 X38.725 Y-13.2
G1 F720 X34.845 Y-13.2 E253.73865
G0 F18000 X34.845 Y-12.8
G1 F720 X38.725 Y-12.8 E253.93223
G0 F18000 X38.725 Y-12.4
G1 F720 X34.845 Y-12.4 E254.12575
G0 F18000 X34.845 Y-12
G1 F720 X38.725 Y-12 E254.31932
G0 F18000 X38.725 Y-11.6
G1 F720 X4.486 Y-11.6 E256.02746
G0 F18000 X5.399 Y-11.2
G1 F720 X38.725 Y-11.2 E257.69011
G0 F18000 X38.725 Y-10.8
G1 F720 X6.161 Y-10.8 E259.31468
G0 F18000 X6.82 Y-10.4
G1 F720 X38.725 Y-10.4 E260.90643
G0 F18000 X38.725 Y-10
G1 F720 X7.394 Y-10 E262.46949
G0 F18000 X7.898 Y-9.6
G1 F720 X38.725 Y-9.6 E264.00745
G0 F18000 X38.725 Y-9.2
G1 F720 X8.362 Y-9.2 E265.52222
G0 F18000 X8.79 Y-8.8
G1 F720 X38.725 Y-8.8 E267.01568
G0 F18000 X38.725 Y-8.4
G1 F720 X9.163 Y-8.4 E268.49049
G0 F18000 X9.517 Y-8
G1 F720 X38.725 Y-8 E269.94768
G0 F18000 X38.725 Y-7.6
G1 F720 X9.841 Y-7.6 E271.38866
G0 F18000 X10.136 Y-7.2
G1 F720 X38.725 Y-7.2 E272.81497
G0 F18000 X38.725 Y-6.8
G1 F720 X10.415 Y-6.8 E274.22731
G0 F18000 X10.658 Y-6.4
G1 F720 X38.725 Y-6.4 E275.62758
G0 F18000 X38.725 Y-6
G1 F720 X10.896 Y-6 E277.01592
G0 F18000 X11.1 Y-5.6
G1 F720 X38.725 Y-5.6 E278.39414
G0 F18000 X38.725 Y-5.2
G1 F720 X11.299 Y-5.2 E279.76238
G0 F18000 X11.469 Y-4.8
G1 F720 X38.725 Y-4.8 E281.12219
G0 F18000 X38.725 Y-4.4
G1 F720 X11.635 Y-4.4 E282.47366
G0 F18000 X11.772 Y-4
G1 F720 X38.725 Y-4 E283.81835
G0 F18000 X38.725 Y-3.6
G1 F720 X11.907 Y-3.6 E285.15626
G0 F18000 X12.014 Y-3.2
G1 F720 X38.725 Y-3.2 E286.48888
G0 F18000 X38.725 Y-2.8
G1 F720 X12.121 Y-2.8 E287.81611
G0 F18000 X12.199 Y-2.4
G1 F720 X38.725 Y-2.4 E289.13949
G0 F18000 X38.725 Y-2
G1 F720 X12.276 Y-2 E290.45899
G0 F18000 X12.33 Y-1.6
G1 F720 X38.725 Y-1.6 E291.77584
G0 F18000 X38.725 Y-1.2
G1 F720 X12.379 Y-1.2 E293.0902
G0 F18000 X12.408 Y-0.8
G1 F720 X38.725 Y-0.8 E294.40316
G0 F18000 X38.725 Y-0.4
G1 F720 X12.429 Y-0.4 E295.71502
G0 F18000 X12.435 Y0
G1 F720 X38.725 Y0 E297.02663
G0 F18000 X38.725 Y0.399
G1 F720 X12.428 Y0.399 E298.33855
G0 F18000 X12.411 Y0.799
G1 F720 X38.725 Y0.799 E299.65136
G0 F18000 X38.725 Y1.199
G1 F720 X12.376 Y1.199 E300.96587
G0 F18000 X12.335 Y1.599
G1 F720 X38.725 Y1.599 E302.28247
G0 F18000 X38.725 Y1.999
G1 F720 X12.272 Y1.999 E303.60216
G0 F18000 X12.207 Y2.399
G1 F720 X38.725 Y2.399 E304.92515
G0 F18000 X38.725 Y2.799
G1 F720 X12.115 Y2.799 E306.25268
G0 F18000 X12.023 Y3.199
G1 F720 X38.725 Y3.199 E307.58485
G0 F18000 X38.725 Y3.599
G1 F720 X11.902 Y3.599 E308.923
G0 F18000 X11.779 Y3.999
G1 F720 X38.725 Y3.999 E310.26734
G0 F18000 X38.725 Y4.399
G1 F720 X11.629 Y4.399 E311.61912
G0 F18000 X11.475 Y4.799
G1 F720 X38.725 Y4.799 E312.97863
G0 F18000 X38.725 Y5.199
G1 F720 X11.295 Y5.199 E314.34707
G0 F18000 X11.108 Y5.599
G1 F720 X38.725 Y5.599 E315.72488
G0 F18000 X38.725 Y5.999
G1 F720 X10.89 Y5.999 E317.11353
G0 F18000 X10.668 Y6.399
G1 F720 X38.725 Y6.399 E318.5133
G0 F18000 X38.725 Y6.799
G1 F720 X10.409 Y6.799 E319.92594
G0 F18000 X10.144 Y7.199
G1 F720 X38.725 Y7.199 E321.35185
G0 F18000 X38.725 Y7.599
G1 F720 X9.841 Y7.599 E322.79283
G0 F18000 X9.52 Y7.999
G1 F720 X38.725 Y7.999 E324.24987
G0 F18000 X38.725 Y8.399
G1 F720 X9.173 Y8.4 E325.72418
G0 F18000 X8.785 Y8.8
G1 F720 X38.725 Y8.799 E327.21789
G0 F18000 X38.725 Y9.199
G1 F720 X8.369 Y9.2 E328.73231
G0 F18000 X7.908 Y9.6
G1 F720 X38.725 Y9.599 E330.26977
G0 F18000 X38.725 Y9.999
G1 F720 X7.388 Y10 E331.83313
G0 F18000 X6.813 Y10.4
G1 F720 X38.725 Y10.399 E333.42523
G0 F18000 X38.725 Y10.799
G1 F720 X6.162 Y10.8 E335.04975
G0 F18000 X5.401 Y11.2
G1 F720 X38.725 Y11.199 E336.7123
G0 F18000 X38.725 Y11.599
G1 F720 X4.471 Y11.6 E338.42118
G0 F18000 X3.276 Y12
G1 F720 X38.725 Y11.999 E340.18974
G0 F18000 X38.725 Y12.399
G1 F720 X0.926 Y12.4 E342.07549
G0 F18000 X-0.952 Y12.4
G1 F720 X-38.722 Y12.4 E343.9598
G0 F18000 X-38.722 Y12
G1 F720 X-3.249 Y12 E345.72955
G0 F18000 X-4.489 Y11.6
G1 F720 X-38.722 Y11.6 E347.43739
G0 F18000 X-38.722 Y11.2
G1 F720 X-5.4 Y11.2 E349.09983
G0 F18000 X-6.161 Y10.8
G1 F720 X-38.722 Y10.8 E350.72426
G0 F18000 X-38.722 Y10.4
G1 F720 X-6.82 Y10.4 E352.31586
G0 F18000 X-7.394 Y10
G1 F720 X-38.722 Y10 E353.87877
G0 F18000 X-38.722 Y9.6
G1 F720 X-7.897 Y9.6 E355.41663
G0 F18000 X-8.361 Y9.2
G1 F720 X-38.722 Y9.2 E356.9313
G0 F18000 X-38.722 Y8.8
G1 F720 X-8.79 Y8.8 E358.42461
G0 F18000 X-9.163 Y8.4
G1 F720 X-38.722 Y8.4 E359.89927
G0 F18000 X-38.722 Y8
G1 F720 X-9.517 Y8 E361.35631
G0 F18000 X-9.841 Y7.6
G1 F720 X-38.722 Y7.6 E362.79714
G0 F18000 X-38.722 Y7.2
G1 F720 X-10.135 Y7.2 E364.22335
G0 F18000 X-10.415 Y6.8
G1 F720 X-38.722 Y6.8 E365.63554
G0 F18000 X-38.722 Y6.4
G1 F720 X-10.657 Y6.4 E367.03571
G0 F18000 X-10.895 Y6
G1 F720 X-38.722 Y6 E368.42395
G0 F18000 X-38.722 Y5.6
G1 F720 X-11.098 Y5.6 E369.80212
G0 F18000 X-11.298 Y5.2
G1 F720 X-38.722 Y5.2 E371.17026
G0 F18000 X-38.722 Y4.8
G1 F720 X-11.467 Y4.8 E372.53002
G0 F18000 X-11.632 Y4.4
G1 F720 X-38.722 Y4.4 E373.88149
G0 F18000 X-38.722 Y4
G1 F720 X-11.769 Y4 E375.22618
G0 F18000 X-11.905 Y3.6
G1 F720 X-38.722 Y3.6 E376.56404
G0 F18000 X-38.722 Y3.2
G1 F720 X-12.012 Y3.2 E377.89661
G0 F18000 X-12.118 Y2.8
G1 F720 X-38.722 Y2.8 E379.22384
G0 F18000 X-38.722 Y2.4
G1 F720 X-12.196 Y2.4 E380.54722
G0 F18000 X-12.274 Y2
G1 F720 X-38.722 Y2 E381.86667
G0 F18000 X-38.722 Y1.6
G1 F720 X-12.327 Y1.6 E383.18352
G0 F18000 X-12.376 Y1.2
G1 F720 X-38.722 Y1.2 E384.49788
G0 F18000 X-38.722 Y0.8
G1 F720 X-12.405 Y0.8 E385.81084
G0 F18000 X-12.426 Y0.4
G1 F720 X-38.722 Y0.4 E387.1227
G0 F18000 X-38.722 Y0
G1 F720 X-12.433 Y0 E388.43427
G0 F18000 X-12.426 Y-0.399
G1 F720 X-38.722 Y-0.399 E389.74613
G0 F18000 X-38.722 Y-0.799
G1 F720 X-12.409 Y-0.799 E391.05889
G0 F18000 X-12.373 Y-1.199
G1 F720 X-38.722 Y-1.199 E392.3734
G0 F18000 X-38.722 Y-1.599
G1 F720 X-12.332 Y-1.599 E393.69
G0 F18000 X-12.269 Y-1.999
G1 F720 X-38.722 Y-1.999 E395.0097
G0 F18000 X-38.722 Y-2.399
G1 F720 X-12.204 Y-2.399 E396.33268
G0 F18000 X-12.111 Y-2.799
G1 F720 X-38.722 Y-2.799 E397.66026
G0 F18000 X-38.722 Y-3.199
G1 F720 X-12.019 Y-3.199 E398.99248
G0 F18000 X-11.898 Y-3.599
G1 F720 X-38.722 Y-3.599 E400.33069
G0 F18000 X-38.722 Y-3.999
G1 F720 X-11.775 Y-3.999 E401.67508
G0 F18000 X-11.625 Y-4.399
G1 F720 X-38.722 Y-4.399 E403.0269
G0 F18000 X-38.722 Y-4.799
G1 F720 X-11.471 Y-4.799 E404.38646
G0 F18000 X-11.291 Y-5.199
G1 F720 X-38.722 Y-5.199 E405.75495
G0 F18000 X-38.722 Y-5.599
G1 F720 X-11.104 Y-5.599 E407.13282
G0 F18000 X-10.886 Y-5.999
G1 F720 X-38.722 Y-5.999 E408.52151
G0 F18000 X-38.722 Y-6.399
G1 F720 X-10.663 Y-6.399 E409.92138
G0 F18000 X-10.405 Y-6.799
G1 F720 X-38.722 Y-6.799 E411.33407
G0 F18000 X-38.722 Y-7.199
G1 F720 X-10.139 Y-7.199 E412.76008
G0 F18000 X-9.837 Y-7.599
G1 F720 X-38.722 Y-7.599 E414.20111
G0 F18000 X-38.722 Y-7.999
G1 F720 X-9.516 Y-7.999 E415.6582
G0 F18000 X-9.168 Y-8.4
G1 F720 X-38.722 Y-8.399 E417.13261
G0 F18000 X-38.722 Y-8.799
G1 F720 X-8.78 Y-8.8 E418.62642
G0 F18000 X-8.364 Y-9.2
G1 F720 X-38.722 Y-9.199 E420.14094
G0 F18000 X-38.722 Y-9.599
G1 F720 X-7.902 Y-9.6 E421.67855
G0 F18000 X-7.383 Y-10
G1 F720 X-38.722 Y-9.999 E423.24201
G0 F18000 X-38.722 Y-10.399
G1 F720 X-6.806 Y-10.4 E424.83431
G0 F18000 X-6.154 Y-10.8
G1 F720 X-38.722 Y-10.799 E426.45908
G0 F18000 X-38.722 Y-11.199
G1 F720 X-5.393 Y-11.2 E428.12187
G0 F18000 X-4.462 Y-11.6
G1 F720 X-38.722 Y-11.599 E429.83106
G0 F18000 X-38.722 Y-11.999
G1 F720 X-3.265 Y-12 E431.60002
G0 F18000 X3.244 Y-12
G0 X3.244 Y-12
G1 F720 X19.965 Y-12 E432.43423
G0 F18000 X38.725 Y12.799
G0 X38.725 Y12.799
G1 F720 X-38.722 Y12.8 E436.29803
G0 F18000 X-38.722 Y13.2
G1 F720 X38.725 Y13.199 E440.16188
G0 F18000 X38.725 Y13.599
G1 F720 X-38.722 Y13.6 E444.02567
G0 F18000 X-38.722 Y14
G1 F720 X38.725 Y13.999 E447.88952
G0 F18000 X38.725 Y14.399
G1 F720 X-38.722 Y14.4 E451.75332
G0 F18000 X-38.722 Y14.8
G1 F720 X38.725 Y14.799 E455.61716
G0 F18000 X38.725 Y15.199
G1 F720 X-38.722 Y15.2 E459.48096
G0 F18000 X-38.722 Y15.6
G1 F720 X38.725 Y15.599 E463.3448
G0 F18000 X38.725 Y15.999
G1 F720 X-38.722 Y16 E467.2086
G0 F18000 X-38.722 Y16.4
G1 F720 X38.725 Y16.399 E471.07245
G0 F18000 X38.725 Y16.799
G1 F720 X-38.722 Y16.8 E474.93624
G0 F18000 X-38.722 Y17.2
G1 F720 X38.725 Y17.199 E478.80009
G0 F18000 X38.725 Y17.599
G1 F720 X-38.722 Y17.6 E482.66389
G0 F18000 X-38.722 Y18
G1 F720 X38.725 Y17.999 E486.52773
G0 F18000 X38.725 Y18.399
G1 F720 X-38.722 Y18.4 E490.39153
G0 F18000 X-38.722 Y18.8
G1 F720 X38.725 Y18.799 E494.25538
G0 F18000 X38.725 Y19.199
G1 F720 X-38.722 Y19.2 E498.11917
G0 F18000 X-38.722 Y19.6
G1 F720 X38.725 Y19.599 E501.98302
G0 F18000 X38.725 Y19.999
G1 F720 X-38.722 Y20 E505.84682
G0 F18000 X-38.722 Y20.4
G1 F720 X38.725 Y20.399 E509.71066
G0 F18000 X38.725 Y20.799
G1 F720 X-38.722 Y20.8 E513.57446
G0 F18000 X-38.722 Y21.2
G1 F720 X38.725 Y21.199 E517.43831
G0 F18000 X38.725 Y21.599
G1 F720 X-38.722 Y21.6 E521.3021
G0 F18000 X-38.722 Y22
G1 F720 X38.725 Y21.999 E525.16595
G0 F18000 X38.725 Y22.399
G1 F720 X-38.722 Y22.4 E529.02975
G0 F18000 X-38.722 Y22.8
G1 F720 X38.725 Y22.799 E532.89359
G0 F18000 X38.725 Y23.199
G1 F720 X-38.722 Y23.2 E536.75739
G0 F18000 X-38.722 Y23.6
G1 F720 X38.725 Y23.599 E540.62124
G0 F18000 X38.725 Y23.999
G1 F720 X-38.722 Y24 E544.48503
G0 F18000 X-38.722 Y24.4
G1 F720 X38.725 Y24.399 E548.34888
G0 F18000 X38.725 Y24.799
G1 F720 X-38.722 Y24.8 E552.21268
G0 F18000 X-38.722 Y25.2
G1 F720 X38.725 Y25.199 E556.07652
G0 F18000 X38.725 Y25.599
G1 F720 X-38.722 Y25.6 E559.94032
G0 F18000 X-38.722 Y26
G1 F720 X38.725 Y25.999 E563.80417
G0 F18000 X38.725 Y26.399
G1 F720 X-38.722 Y26.4 E567.66796
G0 F18000 X-38.722 Y26.8
G1 F720 X38.725 Y26.799 E571.53181
G0 F18000 X38.725 Y27.199
G1 F720 X-38.722 Y27.2 E575.39561
G0 F18000 X-38.722 Y27.6
G1 F720 X38.725 Y27.599 E579.25945
G0 F18000 X38.725 Y27.999
G1 F720 X-38.722 Y28 E583.12325
G0 F18000 X-38.722 Y28.4
G1 F720 X38.725 Y28.399 E586.9871
G0 F18000 X38.725 Y28.799
G1 F720 X-38.722 Y28.8 E590.85089
G0 F18000 X-38.722 Y29.2
G1 F720 X38.725 Y29.199 E594.71474
G0 F18000 X38.725 Y29.599
G1 F720 X-38.722 Y29.6 E598.57853
G0 F18000 X-38.722 Y30
G1 F720 X38.725 Y29.999 E602.44238
G0 F18000 X38.725 Y30.399
G1 F720 X-38.722 Y30.4 E606.30618
G0 F18000 X-38.722 Y30.8
G1 F720 X38.725 Y30.799 E610.17002
G0 F18000 X38.725 Y31.199
G1 F720 X-38.722 Y31.2 E614.03382
G0 F18000 X-38.722 Y31.6
G1 F720 X38.725 Y31.599 E617.89767
G0 F18000 X38.725 Y31.999
G1 F720 X-38.722 Y32 E621.76146
G0 F18000 X-38.722 Y32.4
G1 F720 X38.725 Y32.399 E625.62531
G0 F18000 X38.725 Y32.8
G1 F720 X-38.722 Y32.8 E629.48911
G0 F18000 X-37.963 Y33.2
G1 F720 X37.965 Y33.2 E633.27717
G0 F18000 X37.965 Y33.6
G1 F720 X-37.963 Y33.6 E637.06518
G0 F18000 X-39.653 Y34.58
; TYPE:SUPPORT
G1 F720 X-39.653 Y35.339 E637.12198
G1 X-38.953 Y35.339 E637.17437
G1 X-38.953 Y35.867 E637.21388
G1 X-38.203 Y35.867 E637.27001
G1 X-38.203 Y36.43 E637.31214
G1 X-39.851 Y36.103 E637.43779
G1 X-40.649 Y35.568 E637.50958
G1 X-41.182 Y34.763 E637.58173
G1 X-41.498 Y33.13 E637.70611
G1 X-40.94 Y33.13 E637.74787
G1 X-40.94 Y33.88 E637.804
G1 X-40.412 Y33.88 E637.84351
G1 X-40.412 Y34.58 E637.89589
G1 X-39.653 Y34.58 E637.95269
G0 F18000 X38.205 Y35.867
G1 F720 X38.955 Y35.867 E638.00882
G1 X38.955 Y35.339 E638.04826
G1 X39.655 Y35.339 E638.10064
G1 X39.655 Y34.58 E638.15737
G1 X40.415 Y34.58 E638.21424
G1 X40.415 Y33.88 E638.26655
G1 X40.942 Y33.88 E638.30599
G1 X40.942 Y33.13 E638.36204
G1 X41.5 Y33.13 E638.4038
G1 X41.181 Y34.774 E638.52911
G1 X40.633 Y35.584 E638.60225
G1 X39.834 Y36.11 E638.67378
G1 X38.205 Y36.424 E638.79786
G1 X38.205 Y35.867 E638.83947
G0 F18000 X39.194 Y35.658
G1 F720 X39.471 Y35.935 E638.86878
G0 F18000 X-38.203 Y-35.865
G1 F720 X-38.953 Y-35.865 E638.92483
G1 X-38.953 Y-35.337 E638.96435
G1 X-39.653 Y-35.337 E639.01666
G1 X-39.653 Y-34.578 E639.07346
G1 X-40.412 Y-34.578 E639.13018
G1 X-40.412 Y-33.878 E639.18257
G1 X-40.94 Y-33.878 E639.222
G1 X-40.94 Y-33.128 E639.27813
G1 X-41.498 Y-33.128 E639.31981
G1 X-41.182 Y-34.763 E639.44436
G1 X-40.629 Y-35.584 E639.51838
G1 X-39.83 Y-36.109 E639.58988
G1 X-38.203 Y-36.42 E639.71383
G1 X-38.203 Y-35.865 E639.75536
G0 F18000 X-39.192 Y-35.656
G1 F720 X-39.469 Y-35.933 E639.78457
G0 F18000 X38.205 Y-35.865
G1 F720 X38.205 Y-36.426 E639.82648
G1 X39.861 Y-36.099 E639.9528
G1 X40.649 Y-35.568 E640.02391
G1 X41.181 Y-34.769 E640.09574
G1 X41.503 Y-33.14 E640.22001
G1 X40.95 Y-33.137 E640.26132
G1 X40.937 Y-33.878 E640.3167
G1 X40.415 Y-33.878 E640.35569
G1 X40.415 Y-34.578 E640.408
G1 X39.655 Y-34.578 E640.4648
G1 X39.655 Y-35.337 E640.52153
G1 X38.955 Y-35.337 E640.57384
G1 X38.955 Y-35.865 E640.61328
G1 X38.205 Y-35.865 E640.66933
G0 F18000 X38.205 Y-35.865 Z0.6
; LAYER:1
G1 F6600 E633.86933
G1 Z0.9
G0 F18000 X38.205 Y-34.426 Z0.5
G0 X32.62 Y-29.461
G0 X20.264 Y-29.469
G0 X20.256 Y-18.47
G0 X8.876 Y-8.355
G0 X8.601 Y-8.649
G0 X7.976 Y-9.228
G0 X7.313 Y-9.764
G0 X6.614 Y-10.248
G0 X5.883 Y-10.685
G0 X5.123 Y-11.069
G0 X4.338 Y-11.4
G0 X3.532 Y-11.675
G0 X2.709 Y-11.893
G0 X1.872 Y-12.052
G0 X1.027 Y-12.155
G0 X0.176 Y-12.196
G0 X-0.672 Y-12.179
G0 X-1.519 Y-12.101
G0 X-2.36 Y-11.967
G0 X-3.19 Y-11.773
G0 X-4.003 Y-11.52
G0 X-4.797 Y-11.213
G0 X-5.568 Y-10.85
G0 X-6.311 Y-10.437
G0 X-7.025 Y-9.97
G0 X-7.703 Y-9.456
G0 X-8.343 Y-8.896
G0 X-8.916 Y-8.322
G0 X-9.475 Y-7.681
G0 X-9.987 Y-7
G0 X-10.452 Y-6.287
G0 X-10.865 Y-5.541
G0 X-11.225 Y-4.771
G0 X-11.531 Y-3.976
G0 X-11.78 Y-3.161
G0 X-11.972 Y-2.332
G0 X-12.106 Y-1.491
G0 X-12.181 Y-0.643
G0 X-12.196 Y0.207
G0 X-12.151 Y1.056
G0 X-12.048 Y1.901
G0 X-11.886 Y2.737
G0 X-11.678 Y3.52
G0 X-11.389 Y4.364
G0 X-11.058 Y5.15
G0 X-10.671 Y5.908
G0 X-10.233 Y6.638
G0 X-9.745 Y7.337
G0 X-9.339 Y7.836
G0 X-38.303 Y33.58
G0 X-38.303 Y33.58
G0 X-38.653 Y33.58
G0 X-38.153 Y33.08
; TYPE:WALL-INNER
G1 Z0.5
G1 F6600 E640.76933
G1 F2400 X-39.351 Y33.08 E640.81909
G1 X-39.351 Y-33.078 E643.56958
G1 X-38.153 Y-33.078 E643.61939
G1 X-38.153 Y-34.276 E643.66915
G1 X38.155 Y-34.276 E646.84167
G1 X38.155 Y-33.078 E646.89148
G1 X39.353 Y-33.078 E646.94129
G1 X39.353 Y33.08 E649.69182
G1 X38.155 Y33.08 E649.74158
G1 X38.155 Y34.278 E649.79139
G1 X-38.153 Y34.278 E652.96387
G1 X-38.153 Y33.08 E653.01363
G0 F18000 X-38.653 Y33.58
; TYPE:WALL-OUTER
G1 F2100 X-39.851 Y33.58 E653.0634
G1 X-39.851 Y-33.578 E655.85546
G1 X-38.653 Y-33.578 E655.90527
G1 X-38.653 Y-34.776 E655.95503
G1 X38.655 Y-34.776 E659.16913
G1 X38.655 Y-33.578 E659.21893
G1 X39.853 Y-33.578 E659.26874
G1 X39.853 Y33.58 E662.06085
G1 X38.655 Y33.58 E662.11061
G1 X38.655 Y34.778 E662.16042
G1 X-38.653 Y34.778 E665.37447
G1 X-38.653 Y33.58 E665.42424
G1 F6600 E658.62424
G1 Z0.8
G0 F18000 X-38.303 Y33.58
G0 X-9.247 Y8.033
G0 X-9.247 Y8.033
; TYPE:WALL-INNER
G1 Z0.5
G1 F6600 E665.52424
G1 F2400 X-8.634 Y8.687 E665.5615
G1 X-8.007 Y9.269 E665.59707
G1 X-7.341 Y9.806 E665.63264
G1 X-6.639 Y10.293 E665.66816
G1 X-5.905 Y10.731 E665.7037
G1 X-5.141 Y11.117 E665.73928
G1 X-4.354 Y11.449 E665.77479
G1 X-3.544 Y11.725 E665.81037
G1 X-2.719 Y11.944 E665.84586
G1 X-1.878 Y12.105 E665.88146
G1 X-1.029 Y12.207 E665.91701
G1 X-0.176 Y12.248 E665.95251
G1 X0.678 Y12.231 E665.98803
G1 X1.53 Y12.154 E666.02359
G1 X2.373 Y12.018 E666.05908
G1 X3.207 Y11.823 E666.09468
G1 X4.024 Y11.57 E666.13023
G1 X4.82 Y11.262 E666.1657
G1 X5.594 Y10.898 E666.20124
G1 X6.34 Y10.482 E666.23673
G1 X7.056 Y10.013 E666.27229
G1 X7.738 Y9.497 E666.30782
G1 X8.381 Y8.935 E666.3433
G1 X8.956 Y8.359 E666.37711
G1 X9.517 Y7.715 E666.41259
G1 X10.032 Y7.032 E666.44812
G1 X10.498 Y6.315 E666.48363
G1 X10.912 Y5.567 E666.51914
G1 X11.275 Y4.793 E666.55465
G1 X11.581 Y3.995 E666.59014
G1 X11.832 Y3.177 E666.62567
G1 X12.025 Y2.344 E666.66118
G1 X12.159 Y1.5 E666.69667
G1 X12.233 Y0.648 E666.73219
G1 X12.249 Y-0.206 E666.76766
G1 X12.205 Y-1.059 E666.80312
G1 X12.101 Y-1.908 E666.83864
G1 X11.938 Y-2.747 E666.87412
G1 X11.718 Y-3.573 E666.90961
G1 X11.44 Y-4.383 E666.94516
G1 X11.105 Y-5.17 E666.98067
G1 X10.718 Y-5.932 E667.01614
G1 X10.278 Y-6.664 E667.05159
G1 X9.788 Y-7.365 E667.08709
G1 X9.249 Y-8.031 E667.12266
G1 X8.637 Y-8.685 E667.15984
G1 X8.01 Y-9.266 E667.19532
G1 X7.344 Y-9.804 E667.23085
G1 X6.642 Y-10.291 E667.26632
G1 X5.908 Y-10.729 E667.3018
G1 X5.144 Y-11.115 E667.33733
G1 X4.356 Y-11.447 E667.37282
G1 X3.547 Y-11.723 E667.40831
G1 X2.72 Y-11.942 E667.44382
G1 X1.881 Y-12.103 E667.47929
G1 X1.032 Y-12.205 E667.5148
G1 X0.178 Y-12.246 E667.5503
G1 X-0.675 Y-12.229 E667.58573
G1 X-1.527 Y-12.152 E667.62126
G1 X-2.37 Y-12.016 E667.65672
G1 X-3.204 Y-11.821 E667.69228
G1 X-4.021 Y-11.568 E667.7278
G1 X-4.817 Y-11.26 E667.76325
G1 X-5.592 Y-10.896 E667.79881
G1 X-6.337 Y-10.48 E667.83425
G1 X-7.054 Y-10.011 E667.86983
G1 X-7.735 Y-9.495 E667.90532
G1 X-8.378 Y-8.933 E667.9408
G1 X-8.953 Y-8.357 E667.9746
G1 X-9.514 Y-7.713 E668.01008
G1 X-10.029 Y-7.03 E668.04562
G1 X-10.495 Y-6.313 E668.08115
G1 X-10.909 Y-5.565 E668.11668
G1 X-11.272 Y-4.791 E668.1522
G1 X-11.578 Y-3.993 E668.18772
G1 X-11.829 Y-3.175 E668.22328
G1 X-12.022 Y-2.342 E668.25882
G1 X-12.156 Y-1.498 E668.29434
G1 X-12.231 Y-0.646 E668.3299
G1 X-12.246 Y0.208 E668.36541
G1 X-12.202 Y1.061 E668.40092
G1 X-12.098 Y1.91 E668.43648
G1 X-11.935 Y2.749 E668.47201
G1 X-11.726 Y3.535 E668.50583
G1 X-11.437 Y4.382 E668.54303
G1 X-11.103 Y5.172 E668.57869
G1 X-10.716 Y5.934 E668.61423
G1 X-10.276 Y6.666 E668.64973
G1 X-9.786 Y7.367 E668.68529
G1 X-9.247 Y8.033 E668.72091
G1 F6600 E661.92091
G1 Z0.8
G0 F18000 X-9.213 Y7.961
G0 X-9.745 Y7.337
G0 X-10.233 Y6.638
G0 X-10.671 Y5.908
G0 X-11.058 Y5.15
G0 X-11.389 Y4.364
G0 X-11.678 Y3.52
G0 X-11.886 Y2.737
G0 X-12.048 Y1.901
G0 X-12.151 Y1.056
G0 X-12.196 Y0.207
G0 X-12.181 Y-0.643
G0 X-12.106 Y-1.491
G0 X-11.972 Y-2.332
G0 X-11.78 Y-3.161
G0 X-11.531 Y-3.976
G0 X-11.225 Y-4.771
G0 X-10.865 Y-5.541
G0 X-10.452 Y-6.287
G0 X-9.987 Y-7
G0 X-9.475 Y-7.681
G0 X-8.916 Y-8.322
G0 X-8.343 Y-8.896
G0 X-7.703 Y-9.456
G0 X-7.025 Y-9.97
G0 X-6.311 Y-10.437
G0 X-5.568 Y-10.85
G0 X-4.797 Y-11.213
G0 X-4.003 Y-11.52
G0 X-3.19 Y-11.773
G0 X-2.36 Y-11.967
G0 X-1.519 Y-12.101
G0 X-0.672 Y-12.179
G0 X0.176 Y-12.196
G0 X0.227 Y-12.177
G0 X0.188 Y-12.095
G0 X0.188 Y-12.095
G0 X0.171 Y-11.746
; TYPE:WALL-OUTER
G1 Z0.5
G1 F6600 E668.82091
G1 F2100 X-0.647 Y-11.73 E668.85489
G1 X-1.464 Y-11.655 E668.88895
G1 X-2.273 Y-11.525 E668.92298
G1 X-3.073 Y-11.338 E668.9571
G1 X-3.856 Y-11.095 E668.99114
G1 X-4.62 Y-10.8 E669.02515
G1 X-5.363 Y-10.451 E669.05924
G1 X-6.078 Y-10.052 E669.09325
G1 X-6.766 Y-9.602 E669.12739
G1 X-7.419 Y-9.107 E669.16142
G1 X-8.036 Y-8.568 E669.19546
G1 X-8.587 Y-8.016 E669.22785
G1 X-9.125 Y-7.398 E669.26189
G1 X-9.619 Y-6.743 E669.29597
G1 X-10.066 Y-6.055 E669.33006
G1 X-10.464 Y-5.338 E669.36414
G1 X-10.811 Y-4.595 E669.39821
G1 X-11.105 Y-3.83 E669.43227
G1 X-11.346 Y-3.045 E669.4664
G1 X-11.531 Y-2.246 E669.50048
G1 X-11.659 Y-1.437 E669.53453
G1 X-11.732 Y-0.619 E669.56867
G1 X-11.746 Y0.199 E669.60268
G1 X-11.703 Y1.018 E669.63678
G1 X-11.604 Y1.832 E669.67087
G1 X-11.448 Y2.637 E669.70496
G1 X-11.247 Y3.39 E669.73737
G1 X-10.97 Y4.204 E669.77311
G1 X-10.65 Y4.961 E669.80728
G1 X-10.278 Y5.691 E669.84135
G1 X-9.856 Y6.394 E669.87543
G1 X-9.386 Y7.066 E669.90953
G1 X-8.87 Y7.704 E669.94364
G1 X-8.281 Y8.332 E669.97944
G1 X-7.68 Y8.89 E670.01353
G1 X-7.041 Y9.405 E670.04765
G1 X-6.368 Y9.872 E670.08171
G1 X-5.664 Y10.293 E670.11581
G1 X-4.931 Y10.663 E670.14995
G1 X-4.176 Y10.982 E670.18403
G1 X-3.399 Y11.246 E670.21815
G1 X-2.608 Y11.456 E670.25217
G1 X-1.801 Y11.61 E670.28633
G1 X-0.987 Y11.708 E670.32041
G1 X-0.169 Y11.748 E670.35446
G1 X0.65 Y11.732 E670.38852
G1 X1.467 Y11.657 E670.42262
G1 X2.276 Y11.527 E670.45668
G1 X3.076 Y11.34 E670.49083
G1 X3.859 Y11.097 E670.5249
G1 X4.623 Y10.802 E670.55894
G1 X5.365 Y10.453 E670.59301
G1 X6.081 Y10.054 E670.62707
G1 X6.768 Y9.604 E670.66119
G1 X7.422 Y9.109 E670.69526
G1 X8.039 Y8.57 E670.7293
G1 X8.59 Y8.018 E670.7617
G1 X9.128 Y7.4 E670.79573
G1 X9.622 Y6.745 E670.8298
G1 X10.069 Y6.057 E670.86388
G1 X10.467 Y5.34 E670.89794
G1 X10.814 Y4.597 E670.93199
G1 X11.108 Y3.832 E670.96603
G1 X11.349 Y3.047 E671.00013
G1 X11.534 Y2.248 E671.03419
G1 X11.662 Y1.439 E671.0682
G1 X11.734 Y0.621 E671.1023
G1 X11.749 Y-0.197 E671.13627
G1 X11.706 Y-1.016 E671.17032
G1 X11.607 Y-1.83 E671.20437
G1 X11.451 Y-2.635 E671.23841
G1 X11.239 Y-3.427 E671.27244
G1 X10.973 Y-4.204 E671.30654
G1 X10.652 Y-4.959 E671.34059
G1 X10.28 Y-5.689 E671.3746
G1 X9.858 Y-6.392 E671.40863
G1 X9.388 Y-7.064 E671.44267
G1 X8.872 Y-7.702 E671.47672
G1 X8.284 Y-8.33 E671.51243
G1 X7.683 Y-8.888 E671.54647
G1 X7.044 Y-9.403 E671.58053
G1 X6.371 Y-9.87 E671.61453
G1 X5.667 Y-10.291 E671.64857
G1 X4.934 Y-10.661 E671.68266
G1 X4.178 Y-10.98 E671.71671
G1 X3.402 Y-11.244 E671.75074
G1 X2.609 Y-11.454 E671.7848
G1 X1.804 Y-11.608 E671.81882
G1 X0.99 Y-11.706 E671.85286
G1 X0.171 Y-11.746 E671.88691
G0 F18000 X0.188 Y-12.095
G0 X4.829 Y-12.09
G0 X5.229 Y-12.09
G0 X20.155 Y-12.078
G0 X20.155 Y-12.078
; TYPE:WALL-INNER
G1 F2400 X34.655 Y-12.078 E672.48975
G1 X34.655 Y-29.578 E673.21727
G1 X20.155 Y-29.578 E673.82007
G1 X20.155 Y-12.078 E674.54764
G0 F18000 X20.655 Y-12.578
; TYPE:WALL-OUTER
G1 F2100 X34.155 Y-12.578 E675.1089
G1 X34.155 Y-29.078 E675.79485
G1 X20.655 Y-29.078 E676.35607
G1 X20.655 Y-12.578 E677.04206
G0 F18000 X20.5 Y-11.637
; TYPE:FILL
G1 F2400 X20.5 Y33.838 E678.93269
G0 F18000 X21 Y33.838
G1 F2400 X21 Y-11.637 E680.82328
G0 F18000 X21.5 Y-11.637
G1 F2400 X21.5 Y33.838 E682.71391
G0 F18000 X22 Y33.838
G1 F2400 X22 Y-11.637 E684.6045
G0 F18000 X22.5 Y-11.637
G1 F2400 X22.5 Y33.838 E686.49513
G0 F18000 X23 Y33.838
G1 F2400 X23 Y-11.637 E688.38572
G0 F18000 X23.5 Y-11.637
G1 F2400 X23.5 Y33.838 E690.27635
G0 F18000 X24 Y33.838
G1 F2400 X24 Y-11.637 E692.16694
G0 F18000 X24.5 Y-11.637
G1 F2400 X24.5 Y33.838 E694.05757
G0 F18000 X25 Y33.838
G1 F2400 X25 Y-11.637 E695.94816
G0 F18000 X25.5 Y-11.637
G1 F2400 X25.5 Y33.838 E697.83879
G0 F18000 X26 Y33.838
G1 F2400 X26 Y-11.637 E699.72938
G0 F18000 X26.5 Y-11.637
G1 F2400 X26.5 Y33.838 E701.62001
G0 F18000 X27 Y33.838
G1 F2400 X27 Y-11.637 E703.5106
G0 F18000 X27.5 Y-11.637
G1 F2400 X27.5 Y33.838 E705.40123
G0 F18000 X28 Y33.838
G1 F2400 X28 Y-11.637 E707.29182
G0 F18000 X28.5 Y-11.637
G1 F2400 X28.5 Y33.838 E709.18245
G0 F18000 X29 Y33.838
G1 F2400 X29 Y-11.637 E711.07304
G0 F18000 X29.5 Y-11.637
G1 F2400 X29.5 Y33.838 E712.96367
G0 F18000 X30 Y33.837
G1 F2400 X30 Y-11.637 E714.85422
G0 F18000 X30.5 Y-11.637
G1 F2400 X30.5 Y33.837 E716.74481
G0 F18000 X31 Y33.837
G1 F2400 X31 Y-11.637 E718.63536
G0 F18000 X31.5 Y-11.637
G1 F2400 X31.5 Y33.837 E720.52595
G0 F18000 X32 Y33.837
G1 F2400 X32 Y-11.637 E722.4165
G0 F18000 X32.5 Y-11.637
G1 F2400 X32.5 Y33.837 E724.30709
G0 F18000 X33 Y33.837
G1 F2400 X33 Y-11.637 E726.19763
G0 F18000 X33.5 Y-11.637
G1 F2400 X33.5 Y33.837 E728.08822
G0 F18000 X34 Y33.837
G1 F2400 X34 Y-11.637 E729.97877
G0 F18000 X34.5 Y-11.637
G1 F2400 X34.5 Y33.837 E731.86936
G0 F18000 X35 Y33.837
G1 F2400 X35 Y-11.637 E733.75991
G0 F18000 X20 Y-11.637
G1 F2400 X20 Y33.838 E735.65054
G0 F18000 X19.5 Y33.838
G1 F2400 X19.499 Y-33.835 E738.46401
G0 F18000 X18.999 Y-33.835
G1 F2400 X19 Y33.838 E741.27753
G0 F18000 X18.5 Y33.838
G1 F2400 X18.499 Y-33.835 E744.091
G0 F18000 X17.999 Y-33.835
G1 F2400 X18 Y33.838 E746.90452
G0 F18000 X17.5 Y33.838
G1 F2400 X17.499 Y-33.835 E749.71799
G0 F18000 X16.999 Y-33.835
G1 F2400 X17 Y33.838 E752.53151
G0 F18000 X16.5 Y33.838
G1 F2400 X16.499 Y-33.835 E755.34499
G0 F18000 X15.999 Y-33.835
G1 F2400 X16 Y33.838 E758.1585
G0 F18000 X15.5 Y33.838
G1 F2400 X15.499 Y-33.835 E760.97198
G0 F18000 X14.999 Y-33.835
G1 F2400 X15 Y33.838 E763.78549
G0 F18000 X14.5 Y33.838
G1 F2400 X14.499 Y-33.835 E766.59897
G0 F18000 X13.999 Y-33.835
G1 F2400 X14 Y33.838 E769.41248
G0 F18000 X13.5 Y33.838
G1 F2400 X13.499 Y-33.835 E772.22596
G0 F18000 X12.999 Y-33.835
G1 F2400 X13 Y33.838 E775.03948
G0 F18000 X12.5 Y33.838
G1 F2400 X12.5 Y2.16 E776.35645
G0 F18000 X12 Y4.128
G0 X12 Y4.128
G1 F2400 X12 Y33.838 E777.59165
G0 F18000 X11.5 Y33.838
G1 F2400 X11.5 Y5.35 E778.776
G0 F18000 X11 Y6.315
G1 F2400 X11 Y33.838 E779.92028
G0 F18000 X10.5 Y33.838
G1 F2400 X10.5 Y7.119 E781.03108
G0 F18000 X10 Y7.804
G1 F2400 X10 Y33.838 E782.11345
G0 F18000 X9.5 Y33.838
G1 F2400 X9.5 Y8.403 E783.17087
G0 F18000 X9 Y8.936
G1 F2400 X9 Y33.838 E784.20618
G0 F18000 X8.5 Y33.838
G1 F2400 X8.5 Y9.414 E785.22157
G0 F18000 X8 Y9.849
G1 F2400 X8 Y33.838 E786.21891
G0 F18000 X7.5 Y33.838
G1 F2400 X7.5 Y10.227 E787.2005
G0 F18000 X7 Y10.575
G1 F2400 X7 Y33.838 E788.16767
G0 F18000 X6.5 Y33.838
G1 F2400 X6.5 Y10.896 E789.12144
G0 F18000 X6 Y11.175
G1 F2400 X6 Y33.838 E790.06366
G0 F18000 X5.5 Y33.838
G1 F2400 X5.5 Y11.428 E790.99532
G0 F18000 X5 Y11.663
G1 F2400 X5 Y33.838 E791.91725
G0 F18000 X4.5 Y33.838
G1 F2400 X4.5 Y11.857 E792.83107
G0 F18000 X4 Y12.038
G1 F2400 X4 Y33.838 E793.73741
G0 F18000 X3.5 Y33.838
G1 F2400 X3.5 Y12.193 E794.63726
G0 F18000 X3 Y12.324
G1 F2400 X3 Y33.838 E795.53171
G0 F18000 X2.5 Y33.838
G1 F2400 X2.5 Y12.44 E796.42129
G0 F18000 X2 Y12.524
G1 F2400 X2 Y33.838 E797.30743
G0 F18000 X1.5 Y33.838
G1 F2400 X1.5 Y12.598 E798.19044
G0 F18000 X1 Y12.644
G1 F2400 X1 Y33.838 E799.07159
G0 F18000 X0.5 Y33.838
G1 F2400 X0.5 Y12.675 E799.9514
G0 F18000 X0 Y12.685
G1 F2400 X0 Y33.837 E800.8308
G0 F18000 X-0.499 Y33.837
G1 F2400 X-0.499 Y12.673 E801.71065
G0 F18000 X-0.999 Y12.649
G1 F2400 X-0.999 Y33.837 E802.59155
G0 F18000 X-1.499 Y33.837
G1 F2400 X-1.499 Y12.593 E803.47473
G0 F18000 X-1.999 Y12.529
G1 F2400 X-1.999 Y33.837 E804.36061
G0 F18000 X-2.499 Y33.837
G1 F2400 X-2.499 Y12.434 E805.25041
G0 F18000 X-2.999 Y12.325
G1 F2400 X-2.999 Y33.837 E806.14477
G0 F18000 X-3.499 Y33.837
G1 F2400 X-3.499 Y12.192 E807.04462
G0 F18000 X-3.999 Y12.034
G1 F2400 X-3.999 Y33.837 E807.95109
G0 F18000 X-4.499 Y33.837
G1 F2400 X-4.499 Y11.864 E808.86458
G0 F18000 X-4.999 Y11.655
G1 F2400 X-4.999 Y33.837 E809.7868
G0 F18000 X-5.499 Y33.837
G1 F2400 X-5.499 Y11.428 E810.71841
G0 F18000 X-5.999 Y11.175
G1 F2400 X-5.999 Y33.837 E811.66059
G0 F18000 X-6.499 Y33.837
G1 F2400 X-6.499 Y10.888 E812.61466
G0 F18000 X-6.999 Y10.579
G1 F2400 X-6.999 Y33.837 E813.58161
G0 F18000 X-7.499 Y33.837
G1 F2400 X-7.499 Y10.231 E814.56299
G0 F18000 X-7.999 Y9.838
G1 F2400 X-7.999 Y33.837 E815.56076
G0 F18000 X-8.499 Y33.837
G1 F2400 X-8.499 Y9.41 E816.57627
G0 F18000 X-8.999 Y8.939
G1 F2400 X-8.999 Y33.837 E817.61141
G0 F18000 X-9.499 Y33.837
G1 F2400 X-9.499 Y8.405 E818.66871
G0 F18000 X-9.999 Y7.801
G1 F2400 X-9.999 Y33.837 E819.75116
G0 F18000 X-10.499 Y33.837
G1 F2400 X-10.5 Y7.113 E820.86217
G0 F18000 X-11 Y6.315
G1 F2400 X-10.999 Y33.837 E822.0064
G0 F18000 X-11.499 Y33.837
G1 F2400 X-11.5 Y5.363 E823.19017
G0 F18000 X-12 Y4.093
G1 F2400 X-11.999 Y33.837 E824.42679
G0 F18000 X-12.499 Y33.837
G1 F2400 X-12.5 Y2.146 E825.7443
G0 F18000 X-12.5 Y-2.139
G0 X-12.5 Y-2.139
G1 F2400 X-12.5 Y-33.836 E827.06207
G0 F18000 X-13 Y-33.836
G1 F2400 X-12.999 Y33.837 E829.87559
G0 F18000 X-13.499 Y33.837
G1 F2400 X-13.5 Y-33.836 E832.68906
G0 F18000 X-14 Y-33.836
G1 F2400 X-13.999 Y33.837 E835.50258
G0 F18000 X-14.499 Y33.837
G1 F2400 X-14.5 Y-33.836 E838.31605
G0 F18000 X-15 Y-33.836
G1 F2400 X-14.999 Y33.837 E841.12957
G0 F18000 X-15.499 Y33.837
G1 F2400 X-15.5 Y-33.836 E843.94304
G0 F18000 X-16 Y-33.836
G1 F2400 X-15.999 Y33.837 E846.75656
G0 F18000 X-16.499 Y33.837
G1 F2400 X-16.5 Y-33.836 E849.57003
G0 F18000 X-17 Y-33.836
G1 F2400 X-16.999 Y33.837 E852.38355
G0 F18000 X-17.499 Y33.837
G1 F2400 X-17.5 Y-33.836 E855.19703
G0 F18000 X-18 Y-33.836
G1 F2400 X-17.999 Y33.837 E858.01054
G0 F18000 X-18.499 Y33.837
G1 F2400 X-18.5 Y-33.836 E860.82402
G0 F18000 X-19 Y-33.836
G1 F2400 X-18.999 Y33.837 E863.63753
G0 F18000 X-19.499 Y33.837
G1 F2400 X-19.5 Y-33.836 E866.45101
G0 F18000 X-20 Y-33.836
G1 F2400 X-19.999 Y33.837 E869.26452
G0 F18000 X-20.499 Y33.837
G1 F2400 X-20.5 Y-33.836 E872.078
G0 F18000 X-21 Y-33.836
G1 F2400 X-20.999 Y33.837 E874.89152
G0 F18000 X-21.499 Y33.837
G1 F2400 X-21.5 Y-33.836 E877.70499
G0 F18000 X-22 Y-33.836
G1 F2400 X-21.999 Y33.837 E880.51851
G0 F18000 X-22.499 Y33.837
G1 F2400 X-22.5 Y-33.836 E883.33198
G0 F18000 X-23 Y-33.836
G1 F2400 X-22.999 Y33.837 E886.1455
G0 F18000 X-23.499 Y33.837
G1 F2400 X-23.5 Y-33.836 E888.95897
G0 F18000 X-24 Y-33.836
G1 F2400 X-23.999 Y33.837 E891.77249
G0 F18000 X-24.499 Y33.837
G1 F2400 X-24.5 Y-33.836 E894.58596
G0 F18000 X-25 Y-33.836
G1 F2400 X-24.999 Y33.837 E897.39948
G0 F18000 X-25.499 Y33.837
G1 F2400 X-25.5 Y-33.836 E900.21295
G0 F18000 X-26 Y-33.836
G1 F2400 X-25.999 Y33.837 E903.02647
G0 F18000 X-26.499 Y33.837
G1 F2400 X-26.5 Y-33.836 E905.83995
G0 F18000 X-27 Y-33.836
G1 F2400 X-26.999 Y33.837 E908.65346
G0 F18000 X-27.499 Y33.837
G1 F2400 X-27.5 Y-33.836 E911.46694
G0 F18000 X-28 Y-33.836
G1 F2400 X-27.999 Y33.837 E914.28045
G0 F18000 X-28.499 Y33.837
G1 F2400 X-28.5 Y-33.836 E917.09393
G0 F18000 X-29 Y-33.836
G1 F2400 X-28.999 Y33.837 E919.90745
G0 F18000 X-29.499 Y33.837
G1 F2400 X-29.5 Y-33.836 E922.72092
G0 F18000 X-30 Y-33.835
G1 F2400 X-29.999 Y33.837 E925.53439
G0 F18000 X-30.499 Y33.837
G1 F2400 X-30.5 Y-33.835 E928.34783
G0 F18000 X-31 Y-33.835
G1 F2400 X-30.999 Y33.837 E931.1613
G0 F18000 X-31.499 Y33.837
G1 F2400 X-31.5 Y-33.835 E933.97474
G0 F18000 X-32 Y-33.835
G1 F2400 X-31.999 Y33.837 E936.78821
G0 F18000 X-32.499 Y33.837
G1 F2400 X-32.5 Y-33.835 E939.60164
G0 F18000 X-33 Y-33.835
G1 F2400 X-32.999 Y33.837 E942.41512
G0 F18000 X-33.499 Y33.837
G1 F2400 X-33.5 Y-33.835 E945.22855
G0 F18000 X-34 Y-33.835
G1 F2400 X-33.999 Y33.837 E948.04203
G0 F18000 X-34.499 Y33.837
G1 F2400 X-34.5 Y-33.835 E950.85546
G0 F18000 X-35 Y-33.835
G1 F2400 X-34.999 Y33.837 E953.66894
G0 F18000 X-35.499 Y33.837
G1 F2400 X-35.5 Y-33.835 E956.48237
G0 F18000 X-36 Y-33.835
G1 F2400 X-35.999 Y33.837 E959.29584
G0 F18000 X-36.499 Y33.837
G1 F2400 X-36.5 Y-33.835 E962.10928
G0 F18000 X-37 Y-33.835
G1 F2400 X-36.999 Y33.837 E964.92275
G0 F18000 X-37.499 Y33.837
G1 F2400 X-37.5 Y-33.835 E967.73618
G0 F18000 X-38 Y-32.637
G1 F2400 X-37.999 Y32.639 E970.45005
G0 F18000 X-38.499 Y32.639
G1 F2400 X-38.5 Y-32.637 E973.16386
G0 F18000 X-12 Y-33.836
G0 X-12 Y-33.836
G1 F2400 X-12 Y-4.117 E974.39944
G0 F18000 X-11.5 Y-5.342
G1 F2400 X-11.5 Y-33.836 E975.58404
G0 F18000 X-11 Y-33.836
G1 F2400 X-11 Y-6.308 E976.72852
G0 F18000 X-10.5 Y-7.112
G1 F2400 X-10.5 Y-33.836 E977.83953
G0 F18000 X-10 Y-33.836
G1 F2400 X-10 Y-7.798 E978.92207
G0 F18000 X-9.5 Y-8.398
G1 F2400 X-9.5 Y-33.836 E979.97961
G0 F18000 X-9 Y-33.836
G1 F2400 X-9 Y-8.931 E981.01504
G0 F18000 X-8.5 Y-9.409
G1 F2400 X-8.5 Y-33.836 E982.03056
G0 F18000 X-8 Y-33.836
G1 F2400 X-8 Y-9.845 E983.02799
G0 F18000 X-7.5 Y-10.224
G1 F2400 X-7.5 Y-33.836 E984.00962
G0 F18000 X-7 Y-33.836
G1 F2400 X-7 Y-10.571 E984.97687
G0 F18000 X-6.5 Y-10.893
G1 F2400 X-6.5 Y-33.836 E985.93068
G0 F18000 X-6 Y-33.836
G1 F2400 X-6 Y-11.172 E986.87294
G0 F18000 X-5.5 Y-11.425
G1 F2400 X-5.5 Y-33.836 E987.80464
G0 F18000 X-5 Y-33.836
G1 F2400 X-5 Y-11.66 E988.72661
G0 F18000 X-4.5 Y-11.854
G1 F2400 X-4.5 Y-33.836 E989.64048
G0 F18000 X-4 Y-33.836
G1 F2400 X-4 Y-12.035 E990.54686
G0 F18000 X-3.5 Y-12.19
G1 F2400 X-3.5 Y-33.836 E991.44675
G0 F18000 X-3 Y-33.836
G1 F2400 X-3 Y-12.321 E992.34124
G0 F18000 X-2.5 Y-12.438
G1 F2400 X-2.5 Y-33.836 E993.23083
G0 F18000 X-2 Y-33.836
G1 F2400 X-2 Y-12.521 E994.117
G0 F18000 X-1.5 Y-12.596
G1 F2400 X-1.5 Y-33.836 E995.00002
G0 F18000 X-1 Y-33.836
G1 F2400 X-1 Y-12.641 E995.8812
G0 F18000 X-0.5 Y-12.673
G1 F2400 X-0.5 Y-33.836 E996.76102
G0 F18000 X0 Y-33.836
G1 F2400 X0 Y-12.682 E997.6405
G0 F18000 X0.499 Y-12.671
G1 F2400 X0.499 Y-33.835 E998.52035
G0 F18000 X0.999 Y-33.835
G1 F2400 X0.999 Y-12.647 E999.40125
G0 F18000 X1.499 Y-12.592
G1 F2400 X1.499 Y-33.835 E1000.28439
G0 F18000 X1.999 Y-33.835
G1 F2400 X1.999 Y-12.528 E1001.17023
G0 F18000 X2.499 Y-12.432
G1 F2400 X2.499 Y-33.835 E1002.06002
G0 F18000 X2.999 Y-33.835
G1 F2400 X2.999 Y-12.323 E1002.95439
G0 F18000 X3.499 Y-12.191
G1 F2400 X3.499 Y-33.835 E1003.8542
G0 F18000 X3.999 Y-33.835
G1 F2400 X3.999 Y-12.034 E1004.76058
G0 F18000 X4.499 Y-11.863
G1 F2400 X4.499 Y-33.835 E1005.67402
G0 F18000 X4.999 Y-33.835
G1 F2400 X4.999 Y-11.654 E1006.5962
G0 F18000 X5.499 Y-11.428
G1 F2400 X5.499 Y-33.835 E1007.52774
G0 F18000 X5.999 Y-33.835
G1 F2400 X5.999 Y-11.175 E1008.46983
G0 F18000 X6.499 Y-10.888
G1 F2400 X6.499 Y-33.835 E1009.42381
G0 F18000 X6.999 Y-33.835
G1 F2400 X6.999 Y-10.579 E1010.39069
G0 F18000 X7.499 Y-10.23
G1 F2400 X7.499 Y-33.835 E1011.37203
G0 F18000 X7.999 Y-33.835
G1 F2400 X7.999 Y-9.838 E1012.36971
G0 F18000 X8.499 Y-9.41
G1 F2400 X8.499 Y-33.835 E1013.38514
G0 F18000 X8.999 Y-33.835
G1 F2400 X8.999 Y-8.94 E1014.42015
G0 F18000 X9.499 Y-8.405
G1 F2400 X9.499 Y-33.835 E1015.47737
G0 F18000 X9.999 Y-33.835
G1 F2400 X9.999 Y-7.801 E1016.55973
G0 F18000 X10.5 Y-7.114
G1 F2400 X10.499 Y-33.835 E1017.67062
G0 F18000 X10.999 Y-33.835
G1 F2400 X11 Y-6.316 E1018.81473
G0 F18000 X11.5 Y-5.361
G1 F2400 X11.499 Y-33.835 E1019.9985
G0 F18000 X11.999 Y-33.835
G1 F2400 X12 Y-4.105 E1021.23453
G0 F18000 X12.5 Y-2.159
G0 X12.5 Y-2.159
G1 F2400 X12.499 Y-33.835 E1022.55142
G0 F18000 X19.999 Y-33.835
G1 F2400 X19.999 Y-30.017 E1022.71016
G0 F18000 X20.499 Y-30.017
G1 F2400 X20.499 Y-33.835 E1022.86885
G0 F18000 X20.999 Y-33.835
G1 F2400 X20.999 Y-30.017 E1023.02758
G0 F18000 X21.499 Y-30.017
G1 F2400 X21.499 Y-33.835 E1023.18628
G0 F18000 X21.999 Y-33.835
G1 F2400 X21.999 Y-30.017 E1023.34501
G0 F18000 X22.499 Y-30.017
G1 F2400 X22.499 Y-33.835 E1023.5037
G0 F18000 X22.999 Y-33.835
G1 F2400 X22.999 Y-30.017 E1023.66244
G0 F18000 X23.499 Y-30.017
G1 F2400 X23.499 Y-33.835 E1023.82113
G0 F18000 X23.999 Y-33.835
G1 F2400 X23.999 Y-30.017 E1023.97986
G0 F18000 X24.499 Y-30.017
G1 F2400 X24.499 Y-33.835 E1024.13856
G0 F18000 X24.999 Y-33.835
G1 F2400 X24.999 Y-30.017 E1024.29729
G0 F18000 X25.499 Y-30.017
G1 F2400 X25.499 Y-33.835 E1024.45598
G0 F18000 X25.999 Y-33.835
G1 F2400 X25.999 Y-30.017 E1024.61472
G0 F18000 X26.499 Y-30.017
G1 F2400 X26.499 Y-33.835 E1024.77341
G0 F18000 X26.999 Y-33.835
G1 F2400 X26.999 Y-30.017 E1024.93214
G0 F18000 X27.499 Y-30.017
G1 F2400 X27.499 Y-33.835 E1025.09083
G0 F18000 X27.999 Y-33.835
G1 F2400 X27.999 Y-30.017 E1025.24957
G0 F18000 X28.499 Y-30.017
G1 F2400 X28.499 Y-33.835 E1025.40826
G0 F18000 X28.999 Y-33.835
G1 F2400 X28.999 Y-30.017 E1025.56699
G0 F18000 X29.499 Y-30.017
G1 F2400 X29.499 Y-33.835 E1025.72569
G0 F18000 X29.999 Y-33.835
G1 F2400 X29.999 Y-30.017 E1025.88442
G0 F18000 X30.499 Y-30.017
G1 F2400 X30.499 Y-33.835 E1026.04311
G0 F18000 X30.999 Y-33.835
G1 F2400 X30.999 Y-30.017 E1026.20185
G0 F18000 X31.499 Y-30.017
G1 F2400 X31.499 Y-33.835 E1026.36054
G0 F18000 X31.999 Y-33.835
G1 F2400 X31.999 Y-30.017 E1026.51927
G0 F18000 X32.499 Y-30.017
G1 F2400 X32.499 Y-33.835 E1026.67797
G0 F18000 X32.999 Y-33.835
G1 F2400 X32.999 Y-30.017 E1026.8367
G0 F18000 X33.499 Y-30.017
G1 F2400 X33.499 Y-33.835 E1026.99539
G0 F18000 X33.999 Y-33.835
G1 F2400 X33.999 Y-30.017 E1027.15413
G0 F18000 X34.499 Y-30.017
G1 F2400 X34.499 Y-33.835 E1027.31282
G0 F18000 X34.999 Y-33.835
G1 F2400 X34.999 Y-30.017 E1027.47155
G0 F18000 X35.499 Y-33.835
G0 X35.499 Y-33.835
G1 F2400 X35.5 Y33.837 E1030.28503
G0 F18000 X36 Y33.837
G1 F2400 X35.999 Y-33.835 E1033.09846
G0 F18000 X36.499 Y-33.835
G1 F2400 X36.5 Y33.837 E1035.91194
G0 F18000 X37 Y33.837
G1 F2400 X36.999 Y-33.835 E1038.72537
G0 F18000 X37.499 Y-33.835
G1 F2400 X37.5 Y33.837 E1041.53884
G0 F18000 X38 Y32.639
G1 F2400 X37.999 Y-32.637 E1044.25266
G0 F18000 X38.499 Y-32.637
G1 F2400 X38.5 Y32.639 E1046.96652
G0 F18000 X-38.203 Y35.867
; TYPE:SUPPORT
G1 F2400 X-38.203 Y36.43 E1046.99461
G1 X-39.851 Y36.103 E1047.07838
G1 X-40.649 Y35.568 E1047.12624
G1 X-41.182 Y34.763 E1047.17434
G1 X-41.498 Y33.13 E1047.25726
G1 X-40.94 Y33.13 E1047.2851
G1 X-40.851 Y34.58 E1047.35758
G1 X-39.653 Y34.58 E1047.41734
G1 X-39.653 Y35.778 E1047.47711
G1 X-38.203 Y35.867 E1047.54959
G0 F18000 X38.205 Y35.867
G1 F2400 X39.655 Y35.778 E1047.62206
G1 X39.655 Y34.58 E1047.68178
G1 X40.853 Y34.58 E1047.74155
G1 X40.942 Y33.13 E1047.81398
G1 X41.5 Y33.13 E1047.84182
G1 X41.181 Y34.774 E1047.92536
G1 X40.633 Y35.584 E1047.97412
G1 X39.834 Y36.11 E1048.0218
G1 X38.205 Y36.424 E1048.10452
G1 X38.205 Y35.867 E1048.13226
G0 F18000 X-38.203 Y-35.865
G1 F2400 X-39.653 Y-35.776 E1048.20469
G1 X-39.653 Y-34.578 E1048.26445
G1 X-40.851 Y-34.578 E1048.32417
G1 X-40.94 Y-33.128 E1048.39665
G1 X-41.498 Y-33.128 E1048.42444
G1 X-41.182 Y-34.763 E1048.50747
G1 X-40.629 Y-35.584 E1048.55681
G1 X-39.83 Y-36.109 E1048.60448
G1 X-38.203 Y-36.42 E1048.68711
G1 X-38.203 Y-35.865 E1048.7148
G0 F18000 X38.205 Y-35.865
G1 F2400 X38.205 Y-36.426 E1048.74274
G1 X39.861 Y-36.099 E1048.82695
G1 X40.649 Y-35.568 E1048.87436
G1 X41.181 Y-34.769 E1048.92225
G1 X41.503 Y-33.14 E1049.00509
G1 X40.95 Y-33.137 E1049.03263
G1 X40.853 Y-34.578 E1049.10463
G1 X39.655 Y-34.578 E1049.16435
G1 X39.655 Y-35.776 E1049.22407
G1 X38.205 Y-35.865 E1049.2965
G0 F18000 X38.205 Y-35.865 Z0.8
G0 X38.205 Y-34.426
G0 X37.405 Y-33.526
G0 X37.405 Y-33.526
G1 F6600 E1042.4965
G1 Z1.1
G0 F18000 X32.82 Y-29.461
G0 X20.264 Y-29.469
G0 X20.255 Y-18.324
G0 X8.936 Y-8.291
G0 X8.586 Y-8.663
G0 X7.96 Y-9.242
G0 X7.295 Y-9.775
G0 X6.597 Y-10.26
G0 X5.863 Y-10.695
G0 X5.103 Y-11.077
G0 X4.317 Y-11.408
G0 X3.511 Y-11.681
G0 X2.688 Y-11.898
G0 X1.851 Y-12.056
G0 X1.006 Y-12.156
G0 X0.156 Y-12.196
G0 X-0.692 Y-12.178
G0 X-1.541 Y-12.099
G0 X-2.382 Y-11.963
G0 X-3.21 Y-11.766
G0 X-4.023 Y-11.512
G0 X-4.816 Y-11.205
G0 X-5.586 Y-10.841
G0 X-6.328 Y-10.425
G0 X-7.042 Y-9.958
G0 X-7.719 Y-9.441
G0 X-8.357 Y-8.882
G0 X-8.916 Y-8.322
G0 X-9.475 Y-7.681
G0 X-9.987 Y-7
G0 X-10.452 Y-6.287
G0 X-10.865 Y-5.541
G0 X-11.225 Y-4.771
G0 X-11.531 Y-3.976
G0 X-11.78 Y-3.161
G0 X-11.972 Y-2.332
G0 X-12.106 Y-1.491
G0 X-12.181 Y-0.643
G0 X-12.196 Y0.207
G0 X-12.151 Y1.056
G0 X-12.048 Y1.901
G0 X-11.886 Y2.737
G0 X-11.684 Y3.5
G0 X-11.39 Y4.364
G0 X-11.058 Y5.15
G0 X-10.671 Y5.908
G0 X-10.233 Y6.638
G0 X-9.745 Y7.337
G0 X-9.306 Y7.878
G0 X-38.303 Y33.58
G0 X-38.303 Y33.58
G0 X-38.653 Y33.58
G0 X-38.653 Y33.58 Z1
; LAYER:2
M106 S153
G0 X-38.653 Y33.58 Z0.7
G0 X-38.153 Y33.08
; TYPE:WALL-INNER
G1 Z0.7
G1 F6600 E1049.3965
G1 F2400 X-39.579 Y33.08 E1049.45574
G1 X-39.579 Y-33.078 E1052.20623
G1 X-38.153 Y-33.078 E1052.26551
G1 X-38.153 Y-34.504 E1052.32476
G1 X38.155 Y-34.504 E1055.49728
G1 X38.155 Y-33.078 E1055.55656
G1 X39.582 Y-33.078 E1055.61589
G1 X39.582 Y33.08 E1058.36642
G1 X38.155 Y33.08 E1058.42571
G1 X38.155 Y34.5 E1058.48474
G1 X-38.153 Y34.506 E1061.65722
G1 X-38.153 Y33.08 E1061.71647
G0 F18000 X-38.653 Y33.58
; TYPE:WALL-OUTER
G1 F2100 X-40.079 Y33.58 E1061.77571
G1 X-40.079 Y-33.578 E1064.56777
G1 X-38.653 Y-33.578 E1064.62706
G1 X-38.653 Y-35.004 E1064.6863
G1 X38.655 Y-35.004 E1067.9004
G1 X38.655 Y-33.578 E1067.95968
G1 X40.082 Y-33.578 E1068.01901
G1 X40.082 Y33.58 E1070.81112
G1 X38.655 Y33.58 E1070.8704
G1 X38.655 Y35 E1070.92944
G1 X-38.653 Y35.006 E1074.14349
G1 X-38.653 Y33.58 E1074.20274
G1 F6600 E1067.40274
G1 Z1
G0 F18000 X-38.303 Y33.58
G0 X-9.247 Y8.033
G0 X-9.247 Y8.033
; TYPE:WALL-INNER
G1 Z0.7
G1 F6600 E1074.30274
G1 F2400 X-8.62 Y8.702 E1074.34086
G1 X-7.99 Y9.283 E1074.37649
G1 X-7.323 Y9.818 E1074.41203
G1 X-6.621 Y10.304 E1074.44753
G1 X-5.886 Y10.741 E1074.48308
G1 X-5.122 Y11.125 E1074.51863
G1 X-4.334 Y11.457 E1074.55418
G1 X-3.524 Y11.732 E1074.58975
G1 X-2.697 Y11.949 E1074.62529
G1 X-1.857 Y12.108 E1074.66084
G1 X-1.008 Y12.208 E1074.69638
G1 X-0.155 Y12.248 E1074.73188
G1 X0.699 Y12.23 E1074.76739
G1 X1.551 Y12.151 E1074.80296
G1 X2.395 Y12.014 E1074.83851
G1 X3.227 Y11.817 E1074.87404
G1 X4.044 Y11.562 E1074.90961
G1 X4.839 Y11.254 E1074.94504
G1 X5.613 Y10.888 E1074.98062
G1 X6.358 Y10.471 E1075.0161
G1 X7.073 Y10.002 E1075.05163
G1 X7.754 Y9.483 E1075.0872
G1 X8.395 Y8.92 E1075.12264
G1 X8.956 Y8.359 E1075.15559
G1 X9.517 Y7.715 E1075.19107
G1 X10.032 Y7.032 E1075.2266
G1 X10.498 Y6.315 E1075.26212
G1 X10.912 Y5.567 E1075.29763
G1 X11.275 Y4.793 E1075.33313
G1 X11.581 Y3.995 E1075.36863
G1 X11.832 Y3.177 E1075.40416
G1 X12.025 Y2.344 E1075.43967
G1 X12.159 Y1.5 E1075.47516
G1 X12.233 Y0.648 E1075.51067
G1 X12.249 Y-0.206 E1075.54614
G1 X12.205 Y-1.059 E1075.58161
G1 X12.101 Y-1.908 E1075.61712
G1 X11.938 Y-2.747 E1075.65261
G1 X11.718 Y-3.573 E1075.68809
G1 X11.44 Y-4.383 E1075.72365
G1 X11.105 Y-5.17 E1075.75915
G1 X10.718 Y-5.932 E1075.79463
G1 X10.278 Y-6.664 E1075.83008
G1 X9.788 Y-7.365 E1075.86558
G1 X9.249 Y-8.031 E1075.90114
G1 X8.622 Y-8.699 E1075.93917
G1 X7.994 Y-9.281 E1075.97471
G1 X7.326 Y-9.816 E1076.01023
G1 X6.624 Y-10.302 E1076.04567
G1 X5.889 Y-10.739 E1076.08117
G1 X5.125 Y-11.124 E1076.11668
G1 X4.336 Y-11.455 E1076.1522
G1 X3.526 Y-11.73 E1076.18771
G1 X2.699 Y-11.947 E1076.22321
G1 X1.859 Y-12.106 E1076.2587
G1 X1.011 Y-12.206 E1076.29415
G1 X0.157 Y-12.246 E1076.32965
G1 X-0.696 Y-12.228 E1076.36508
G1 X-1.548 Y-12.149 E1076.40062
G1 X-2.392 Y-12.012 E1076.43612
G1 X-3.224 Y-11.815 E1076.47163
G1 X-4.041 Y-11.56 E1076.50717
G1 X-4.836 Y-11.252 E1076.54258
G1 X-5.61 Y-10.886 E1076.57814
G1 X-6.355 Y-10.469 E1076.6136
G1 X-7.072 Y-10 E1076.64918
G1 X-7.751 Y-9.481 E1076.68468
G1 X-8.392 Y-8.918 E1076.72012
G1 X-8.953 Y-8.357 E1076.75308
G1 X-9.514 Y-7.713 E1076.78856
G1 X-10.029 Y-7.03 E1076.8241
G1 X-10.495 Y-6.313 E1076.85963
G1 X-10.909 Y-5.565 E1076.89515
G1 X-11.272 Y-4.791 E1076.93067
G1 X-11.578 Y-3.993 E1076.96619
G1 X-11.829 Y-3.175 E1077.00175
G1 X-12.022 Y-2.342 E1077.03729
G1 X-12.156 Y-1.498 E1077.07282
G1 X-12.231 Y-0.646 E1077.10837
G1 X-12.246 Y0.208 E1077.14388
G1 X-12.202 Y1.061 E1077.17939
G1 X-12.098 Y1.91 E1077.21495
G1 X-11.935 Y2.749 E1077.25049
G1 X-11.732 Y3.515 E1077.28343
G1 X-11.437 Y4.382 E1077.32151
G1 X-11.103 Y5.172 E1077.35717
G1 X-10.716 Y5.934 E1077.3927
G1 X-10.276 Y6.666 E1077.42821
G1 X-9.786 Y7.367 E1077.46376
G1 X-9.247 Y8.033 E1077.49939
G1 F6600 E1070.69939
G1 Z1
G0 F18000 X-9.213 Y7.961
G0 X-9.745 Y7.337
G0 X-10.233 Y6.638
G0 X-10.671 Y5.908
G0 X-11.058 Y5.15
G0 X-11.39 Y4.364
G0 X-11.684 Y3.5
G0 X-11.886 Y2.737
G0 X-12.048 Y1.901
G0 X-12.151 Y1.056
G0 X-12.196 Y0.207
G0 X-12.181 Y-0.643
G0 X-12.106 Y-1.491
G0 X-11.972 Y-2.332
G0 X-11.78 Y-3.161
G0 X-11.531 Y-3.976
G0 X-11.225 Y-4.771
G0 X-10.865 Y-5.541
G0 X-10.452 Y-6.287
G0 X-9.987 Y-7
G0 X-9.475 Y-7.681
G0 X-8.916 Y-8.322
G0 X-8.357 Y-8.882
G0 X-7.719 Y-9.441
G0 X-7.042 Y-9.958
G0 X-6.328 Y-10.425
G0 X-5.586 Y-10.841
G0 X-4.816 Y-11.205
G0 X-4.023 Y-11.512
G0 X-3.21 Y-11.766
G0 X-2.382 Y-11.963
G0 X-1.541 Y-12.099
G0 X-0.692 Y-12.178
G0 X0.156 Y-12.196
G0 X0.207 Y-12.179
G0 X0.168 Y-12.095
G0 X0.168 Y-12.095
G0 X0.15 Y-11.746
; TYPE:WALL-OUTER
G1 Z0.7
G1 F6600 E1077.59939
G1 F2100 X-0.667 Y-11.729 E1077.63332
G1 X-1.485 Y-11.653 E1077.66743
G1 X-2.294 Y-11.521 E1077.70147
G1 X-3.092 Y-11.332 E1077.73552
G1 X-3.876 Y-11.088 E1077.76962
G1 X-4.639 Y-10.792 E1077.80361
G1 X-5.381 Y-10.441 E1077.8377
G1 X-6.096 Y-10.041 E1077.87172
G1 X-6.783 Y-9.591 E1077.90583
G1 X-7.434 Y-9.094 E1077.93985
G1 X-8.05 Y-8.553 E1077.9739
G1 X-8.587 Y-8.016 E1078.00545
G1 X-9.125 Y-7.398 E1078.03949
G1 X-9.619 Y-6.743 E1078.07357
G1 X-10.066 Y-6.055 E1078.10766
G1 X-10.464 Y-5.338 E1078.14173
G1 X-10.811 Y-4.595 E1078.17581
G1 X-11.105 Y-3.83 E1078.20987
G1 X-11.346 Y-3.045 E1078.24399
G1 X-11.531 Y-2.246 E1078.27808
G1 X-11.659 Y-1.437 E1078.31213
G1 X-11.732 Y-0.619 E1078.34627
G1 X-11.746 Y0.199 E1078.38028
G1 X-11.703 Y1.018 E1078.41438
G1 X-11.604 Y1.832 E1078.44847
G1 X-11.448 Y2.637 E1078.48256
G1 X-11.253 Y3.37 E1078.51409
G1 X-10.97 Y4.204 E1078.55071
G1 X-10.65 Y4.961 E1078.58488
G1 X-10.278 Y5.691 E1078.61894
G1 X-9.856 Y6.394 E1078.65303
G1 X-9.386 Y7.066 E1078.68712
G1 X-8.87 Y7.704 E1078.72124
G1 X-8.267 Y8.347 E1078.75789
G1 X-7.664 Y8.904 E1078.79202
G1 X-7.024 Y9.417 E1078.82612
G1 X-6.35 Y9.883 E1078.86018
G1 X-5.645 Y10.302 E1078.89428
G1 X-4.913 Y10.671 E1078.92836
G1 X-4.157 Y10.989 E1078.96246
G1 X-3.38 Y11.253 E1078.99658
G1 X-2.587 Y11.461 E1079.03066
G1 X-1.781 Y11.613 E1079.06476
G1 X-0.967 Y11.709 E1079.09884
G1 X-0.148 Y11.748 E1079.13293
G1 X0.67 Y11.731 E1079.16694
G1 X1.488 Y11.655 E1079.20109
G1 X2.297 Y11.523 E1079.23517
G1 X3.095 Y11.334 E1079.26925
G1 X3.879 Y11.09 E1079.30338
G1 X4.642 Y10.794 E1079.33739
G1 X5.384 Y10.443 E1079.37149
G1 X6.099 Y10.043 E1079.40554
G1 X6.784 Y9.593 E1079.43959
G1 X7.437 Y9.096 E1079.47368
G1 X8.053 Y8.555 E1079.50774
G1 X8.59 Y8.018 E1079.53928
G1 X9.128 Y7.4 E1079.57332
G1 X9.622 Y6.745 E1079.60739
G1 X10.069 Y6.057 E1079.64147
G1 X10.467 Y5.34 E1079.67552
G1 X10.814 Y4.597 E1079.70958
G1 X11.108 Y3.832 E1079.74361
G1 X11.349 Y3.047 E1079.77771
G1 X11.534 Y2.248 E1079.81177
G1 X11.662 Y1.439 E1079.84578
G1 X11.734 Y0.621 E1079.87988
G1 X11.749 Y-0.197 E1079.91385
G1 X11.706 Y-1.016 E1079.94791
G1 X11.607 Y-1.83 E1079.98195
G1 X11.451 Y-2.635 E1080.01599
G1 X11.239 Y-3.427 E1080.05003
G1 X10.973 Y-4.204 E1080.08412
G1 X10.652 Y-4.959 E1080.11818
G1 X10.28 Y-5.689 E1080.15218
G1 X9.858 Y-6.392 E1080.18622
G1 X9.388 Y-7.064 E1080.22025
G1 X8.872 Y-7.702 E1080.25431
G1 X8.269 Y-8.344 E1080.29087
G1 X7.667 Y-8.902 E1080.32493
G1 X7.027 Y-9.415 E1080.35898
G1 X6.353 Y-9.881 E1080.39299
G1 X5.648 Y-10.3 E1080.42703
G1 X4.916 Y-10.669 E1080.46105
G1 X4.159 Y-10.987 E1080.49513
G1 X3.382 Y-11.251 E1080.5292
G1 X2.589 Y-11.459 E1080.56323
G1 X1.783 Y-11.611 E1080.59728
G1 X0.97 Y-11.707 E1080.63127
G1 X0.15 Y-11.746 E1080.66536
G0 F18000 X0.168 Y-12.095
G0 X4.54 Y-12.091
G0 X4.94 Y-12.09
G0 X20.155 Y-12.078
G0 X20.155 Y-12.078
; TYPE:WALL-INNER
G1 F2400 X34.655 Y-12.078 E1081.2682
G1 X34.655 Y-29.578 E1081.99572
G1 X20.155 Y-29.578 E1082.59852
G1 X20.155 Y-12.078 E1083.32609
G0 F18000 X20.655 Y-12.578
; TYPE:WALL-OUTER
G1 F2100 X34.155 Y-12.578 E1083.88735
G1 X34.155 Y-29.078 E1084.5733
G1 X20.655 Y-29.078 E1085.13452
G1 X20.655 Y-12.578 E1085.82051
G0 F18000 X19.715 Y-12.5
; TYPE:FILL
G1 F2400 X2.143 Y-12.5 E1086.55103
G0 F18000 X4.098 Y-12
G0 X4.098 Y-12
G1 F2400 X19.715 Y-12 E1087.20031
G0 F18000 X19.715 Y-13
G1 F2400 X-39.139 Y-12.999 E1089.64713
G0 F18000 X-39.139 Y-13.499
G1 F2400 X19.715 Y-13.5 E1092.094
G0 F18000 X19.715 Y-14
G1 F2400 X-39.139 Y-13.999 E1094.54082
G0 F18000 X-39.139 Y-14.499
G1 F2400 X19.715 Y-14.5 E1096.98769
G0 F18000 X19.715 Y-15
G1 F2400 X-39.139 Y-14.999 E1099.43451
G0 F18000 X-39.139 Y-15.499
G1 F2400 X19.715 Y-15.5 E1101.88138
G0 F18000 X19.715 Y-16
G1 F2400 X-39.139 Y-15.999 E1104.3282
G0 F18000 X-39.139 Y-16.499
G1 F2400 X19.715 Y-16.5 E1106.77506
G0 F18000 X19.715 Y-17
G1 F2400 X-39.139 Y-16.999 E1109.22189
G0 F18000 X-39.139 Y-17.499
G1 F2400 X19.715 Y-17.5 E1111.66875
G0 F18000 X19.715 Y-18
G1 F2400 X-39.139 Y-17.999 E1114.11558
G0 F18000 X-39.139 Y-18.499
G1 F2400 X19.715 Y-18.5 E1116.56244
G0 F18000 X19.715 Y-19
G1 F2400 X-39.139 Y-18.999 E1119.00926
G0 F18000 X-39.139 Y-19.499
G1 F2400 X19.715 Y-19.5 E1121.45613
G0 F18000 X19.715 Y-20
G1 F2400 X-39.139 Y-19.999 E1123.90295
G0 F18000 X-39.139 Y-20.499
G1 F2400 X19.715 Y-20.5 E1126.34982
G0 F18000 X19.715 Y-21
G1 F2400 X-39.139 Y-20.999 E1128.79664
G0 F18000 X-39.139 Y-21.499
G1 F2400 X19.715 Y-21.5 E1131.24351
G0 F18000 X19.715 Y-22
G1 F2400 X-39.139 Y-21.999 E1133.69033
G0 F18000 X-39.139 Y-22.499
G1 F2400 X19.715 Y-22.5 E1136.13719
G0 F18000 X19.715 Y-23
G1 F2400 X-39.139 Y-22.999 E1138.58402
G0 F18000 X-39.139 Y-23.499
G1 F2400 X19.715 Y-23.5 E1141.03088
G0 F18000 X19.715 Y-24
G1 F2400 X-39.139 Y-23.999 E1143.47771
G0 F18000 X-39.139 Y-24.499
G1 F2400 X19.715 Y-24.5 E1145.92457
G0 F18000 X19.715 Y-25
G1 F2400 X-39.139 Y-24.999 E1148.37139
G0 F18000 X-39.139 Y-25.499
G1 F2400 X19.715 Y-25.5 E1150.81826
G0 F18000 X19.715 Y-26
G1 F2400 X-39.139 Y-25.999 E1153.26508
G0 F18000 X-39.139 Y-26.499
G1 F2400 X19.715 Y-26.5 E1155.71195
G0 F18000 X19.715 Y-27
G1 F2400 X-39.139 Y-26.999 E1158.15877
G0 F18000 X-39.139 Y-27.499
G1 F2400 X19.715 Y-27.5 E1160.60564
G0 F18000 X19.715 Y-28
G1 F2400 X-39.139 Y-27.999 E1163.05246
G0 F18000 X-39.139 Y-28.499
G1 F2400 X19.715 Y-28.5 E1165.49932
G0 F18000 X19.715 Y-29
G1 F2400 X-39.139 Y-28.999 E1167.94615
G0 F18000 X-39.139 Y-29.499
G1 F2400 X19.715 Y-29.5 E1170.39301
G0 F18000 X19.714 Y-30
G1 F2400 X-39.139 Y-29.999 E1172.8398
G0 F18000 X-39.139 Y-30.499
G1 F2400 X39.142 Y-30.5 E1176.09434
G0 F18000 X39.142 Y-31
G1 F2400 X-39.139 Y-30.999 E1179.34885
G0 F18000 X-39.139 Y-31.499
G1 F2400 X39.142 Y-31.5 E1182.60339
G0 F18000 X39.142 Y-32
G1 F2400 X-39.139 Y-31.999 E1185.8579
G0 F18000 X-39.139 Y-32.499
G1 F2400 X39.142 Y-32.5 E1189.11244
G0 F18000 X37.715 Y-33
G0 X37.715 Y-33
G1 F2400 X-37.713 Y-33 E1192.24833
G0 F18000 X-37.713 Y-33.5
G1 F2400 X37.715 Y-33.5 E1195.38426
G0 F18000 X37.715 Y-34
G1 F2400 X-37.713 Y-34 E1198.52015
G0 F18000 X-39.139 Y-12.499
G0 X-39.139 Y-12.499
G1 F2400 X-2.131 Y-12.5 E1200.05877
G0 F18000 X-4.106 Y-12
G0 X-4.106 Y-12
G1 F2400 X-39.139 Y-11.999 E1201.51523
G0 F18000 X-39.139 Y-11.499
G1 F2400 X-5.34 Y-11.5 E1202.92043
G0 F18000 X-6.307 Y-11
G1 F2400 X-39.139 Y-10.999 E1204.28538
G0 F18000 X-39.139 Y-10.499
G1 F2400 X-7.11 Y-10.5 E1205.61699
G0 F18000 X-7.795 Y-10
G1 F2400 X-39.139 Y-9.999 E1206.92008
G0 F18000 X-39.139 Y-9.499
G1 F2400 X-8.395 Y-9.5 E1208.19827
G0 F18000 X-8.933 Y-9
G1 F2400 X-39.139 Y-8.999 E1209.45405
G0 F18000 X-39.139 Y-8.499
G1 F2400 X-9.413 Y-8.5 E1210.68991
G0 F18000 X-9.848 Y-7.999
G1 F2400 X-39.139 Y-7.999 E1211.90765
G0 F18000 X-39.139 Y-7.499
G1 F2400 X-10.226 Y-7.499 E1213.10971
G0 F18000 X-10.574 Y-6.999
G1 F2400 X-39.139 Y-6.999 E1214.29726
G0 F18000 X-39.139 Y-6.499
G1 F2400 X-10.894 Y-6.499 E1215.47156
G0 F18000 X-11.171 Y-5.999
G1 F2400 X-39.139 Y-5.999 E1216.63429
G0 F18000 X-39.139 Y-5.499
G1 F2400 X-11.426 Y-5.499 E1217.78646
G0 F18000 X-11.661 Y-4.999
G1 F2400 X-39.139 Y-4.999 E1218.92882
G0 F18000 X-39.139 Y-4.499
G1 F2400 X-11.855 Y-4.499 E1220.06316
G0 F18000 X-12.036 Y-3.999
G1 F2400 X-39.139 Y-3.999 E1221.18993
G0 F18000 X-39.139 Y-3.499
G1 F2400 X-12.19 Y-3.499 E1222.31034
G0 F18000 X-12.322 Y-2.999
G1 F2400 X-39.139 Y-2.999 E1223.42522
G0 F18000 X-39.139 Y-2.499
G1 F2400 X-12.437 Y-2.499 E1224.53536
G0 F18000 X-12.522 Y-1.999
G1 F2400 X-39.139 Y-1.999 E1225.64192
G0 F18000 X-39.139 Y-1.499
G1 F2400 X-12.598 Y-1.499 E1226.74537
G0 F18000 X-12.642 Y-0.999
G1 F2400 X-39.139 Y-0.999 E1227.84694
G0 F18000 X-39.139 Y-0.499
G1 F2400 X-12.674 Y-0.499 E1228.94723
G0 F18000 X-12.682 Y0
G1 F2400 X-39.139 Y0 E1230.04714
G0 F18000 X-39.139 Y0.5
G1 F2400 X-12.671 Y0.5 E1231.14756
G0 F18000 X-12.645 Y1
G1 F2400 X-39.139 Y1 E1232.24901
G0 F18000 X-39.139 Y1.5
G1 F2400 X-12.591 Y1.5 E1233.35274
G0 F18000 X-12.528 Y2
G1 F2400 X-39.139 Y2 E1234.45906
G0 F18000 X-39.139 Y2.5
G1 F2400 X-12.432 Y2.5 E1235.56941
G0 F18000 X-12.324 Y3
G1 F2400 X-39.139 Y3 E1236.6842
G0 F18000 X-39.139 Y3.5
G1 F2400 X-12.191 Y3.5 E1237.80457
G0 F18000 X-12.032 Y4
G1 F2400 X-39.139 Y4 E1238.93151
G0 F18000 X-39.139 Y4.5
G1 F2400 X-11.862 Y4.5 E1240.06555
G0 F18000 X-11.654 Y5
G1 F2400 X-39.139 Y5 E1241.20821
G0 F18000 X-39.139 Y5.5
G1 F2400 X-11.43 Y5.5 E1242.36021
G0 F18000 X-11.176 Y6
G1 F2400 X-39.139 Y6 E1243.52274
G0 F18000 X-39.139 Y6.5
G1 F2400 X-10.889 Y6.5 E1244.69724
G0 F18000 X-10.579 Y7
G1 F2400 X-39.139 Y7 E1245.88458
G0 F18000 X-39.139 Y7.5
G1 F2400 X-10.23 Y7.5 E1247.08648
G0 F18000 X-9.839 Y8
G1 F2400 X-39.139 Y8 E1248.30459
G0 F18000 X-39.139 Y8.5
G1 F2400 X-9.412 Y8.5 E1249.54049
G0 F18000 X-8.943 Y9
G1 F2400 X-39.139 Y9 E1250.79586
G0 F18000 X-39.139 Y9.5
G1 F2400 X-8.403 Y9.5 E1252.07371
G0 F18000 X-7.797 Y10
G1 F2400 X-39.139 Y10 E1253.37672
G0 F18000 X-39.139 Y10.5
G1 F2400 X-7.11 Y10.5 E1254.70833
G0 F18000 X-6.309 Y11
G1 F2400 X-39.139 Y11 E1256.0732
G0 F18000 X-39.139 Y11.5
G1 F2400 X-5.354 Y11.5 E1257.47782
G0 F18000 X-4.102 Y12
G1 F2400 X-39.139 Y12 E1258.93444
G0 F18000 X-39.139 Y12.5
G1 F2400 X-2.152 Y12.5 E1260.47219
G0 F18000 X2.147 Y12.5
G1 F2400 X39.142 Y12.499 E1262.01026
G0 F18000 X39.142 Y12.999
G1 F2400 X-39.139 Y13 E1265.26476
G0 F18000 X-39.139 Y13.5
G1 F2400 X39.142 Y13.499 E1268.51931
G0 F18000 X39.142 Y13.999
G1 F2400 X-39.139 Y14 E1271.77381
G0 F18000 X-39.139 Y14.5
G1 F2400 X39.142 Y14.499 E1275.02836
G0 F18000 X39.142 Y14.999
G1 F2400 X-39.139 Y15 E1278.28286
G0 F18000 X-39.139 Y15.5
G1 F2400 X39.142 Y15.499 E1281.53741
G0 F18000 X39.142 Y15.999
G1 F2400 X-39.139 Y16 E1284.79191
G0 F18000 X-39.139 Y16.5
G1 F2400 X39.142 Y16.499 E1288.04646
G0 F18000 X39.142 Y16.999
G1 F2400 X-39.139 Y17 E1291.30096
G0 F18000 X-39.139 Y17.5
G1 F2400 X39.142 Y17.499 E1294.55551
G0 F18000 X39.142 Y17.999
G1 F2400 X-39.139 Y18 E1297.81001
G0 F18000 X-39.139 Y18.5
G1 F2400 X39.142 Y18.499 E1301.06456
G0 F18000 X39.142 Y18.999
G1 F2400 X-39.139 Y19 E1304.31906
G0 F18000 X-39.139 Y19.5
G1 F2400 X39.142 Y19.499 E1307.57361
G0 F18000 X39.142 Y19.999
G1 F2400 X-39.139 Y20 E1310.82811
G0 F18000 X-39.139 Y20.5
G1 F2400 X39.142 Y20.499 E1314.08266
G0 F18000 X39.142 Y20.999
G1 F2400 X-39.139 Y21 E1317.33716
G0 F18000 X-39.139 Y21.5
G1 F2400 X39.142 Y21.499 E1320.59171
G0 F18000 X39.142 Y21.999
G1 F2400 X-39.139 Y22 E1323.84621
G0 F18000 X-39.139 Y22.5
G1 F2400 X39.142 Y22.499 E1327.10076
G0 F18000 X39.142 Y22.999
G1 F2400 X-39.139 Y23 E1330.35526
G0 F18000 X-39.139 Y23.5
G1 F2400 X39.142 Y23.499 E1333.60981
G0 F18000 X39.142 Y23.999
G1 F2400 X-39.139 Y24 E1336.86431
G0 F18000 X-39.139 Y24.5
G1 F2400 X39.142 Y24.499 E1340.11886
G0 F18000 X39.142 Y24.999
G1 F2400 X-39.139 Y25 E1343.37336
G0 F18000 X-39.139 Y25.5
G1 F2400 X39.142 Y25.499 E1346.62791
G0 F18000 X39.142 Y25.999
G1 F2400 X-39.139 Y26 E1349.88241
G0 F18000 X-39.139 Y26.5
G1 F2400 X39.142 Y26.499 E1353.13696
G0 F18000 X39.142 Y26.999
G1 F2400 X-39.139 Y27 E1356.39146
G0 F18000 X-39.139 Y27.5
G1 F2400 X39.142 Y27.499 E1359.64601
G0 F18000 X39.142 Y27.999
G1 F2400 X-39.139 Y28 E1362.90051
G0 F18000 X-39.139 Y28.5
G1 F2400 X39.142 Y28.499 E1366.15506
G0 F18000 X39.142 Y28.999
G1 F2400 X-39.139 Y29 E1369.40956
G0 F18000 X-39.139 Y29.5
G1 F2400 X39.142 Y29.499 E1372.66411
G0 F18000 X39.142 Y29.999
G1 F2400 X-39.139 Y30 E1375.91861
G0 F18000 X-39.139 Y30.5
G1 F2400 X39.142 Y30.499 E1379.17316
G0 F18000 X39.142 Y30.999
G1 F2400 X-39.139 Y31 E1382.42766
G0 F18000 X-39.139 Y31.5
G1 F2400 X39.142 Y31.499 E1385.68221
G0 F18000 X39.142 Y31.999
G1 F2400 X-39.139 Y32 E1388.93671
G0 F18000 X-39.139 Y32.5
G1 F2400 X39.142 Y32.499 E1392.19126
G0 F18000 X37.715 Y33
G1 F2400 X-37.713 Y33 E1395.32715
G0 F18000 X-37.713 Y33.5
G1 F2400 X37.715 Y33.5 E1398.46308
G0 F18000 X37.715 Y34
G1 F2400 X-37.713 Y34 E1401.59897
G0 F18000 X4.116 Y12
G0 X4.116 Y12
G1 F2400 X39.142 Y11.999 E1403.05518
G0 F18000 X39.142 Y11.499
G1 F2400 X5.347 Y11.5 E1404.46017
G0 F18000 X6.314 Y11
G1 F2400 X39.142 Y10.999 E1405.825
G0 F18000 X39.142 Y10.499
G1 F2400 X7.115 Y10.5 E1407.15649
G0 F18000 X7.8 Y10
G1 F2400 X39.142 Y9.999 E1408.45954
G0 F18000 X39.142 Y9.499
G1 F2400 X8.401 Y9.5 E1409.73756
G0 F18000 X8.938 Y9
G1 F2400 X39.142 Y8.999 E1410.9933
G0 F18000 X39.142 Y8.499
G1 F2400 X9.418 Y8.5 E1412.22904
G0 F18000 X9.853 Y7.999
G1 F2400 X39.142 Y7.999 E1413.44673
G0 F18000 X39.142 Y7.499
G1 F2400 X10.23 Y7.499 E1414.64871
G0 F18000 X10.578 Y6.999
G1 F2400 X39.142 Y6.999 E1415.83626
G0 F18000 X39.142 Y6.499
G1 F2400 X10.898 Y6.499 E1417.01047
G0 F18000 X11.175 Y5.999
G1 F2400 X39.142 Y5.999 E1418.1732
G0 F18000 X39.142 Y5.499
G1 F2400 X11.43 Y5.499 E1419.32529
G0 F18000 X11.665 Y4.999
G1 F2400 X39.142 Y4.999 E1420.46765
G0 F18000 X39.142 Y4.499
G1 F2400 X11.858 Y4.499 E1421.60195
G0 F18000 X12.04 Y3.999
G1 F2400 X39.142 Y3.999 E1422.72872
G0 F18000 X39.142 Y3.499
G1 F2400 X12.193 Y3.499 E1423.84909
G0 F18000 X12.325 Y2.999
G1 F2400 X39.142 Y2.999 E1424.96401
G0 F18000 X39.142 Y2.499
G1 F2400 X12.441 Y2.499 E1426.07407
G0 F18000 X12.526 Y1.999
G1 F2400 X39.142 Y1.999 E1427.18063
G0 F18000 X39.142 Y1.499
G1 F2400 X12.601 Y1.499 E1428.28403
G0 F18000 X12.644 Y0.999
G1 F2400 X39.142 Y0.999 E1429.38569
G0 F18000 X39.142 Y0.499
G1 F2400 X12.676 Y0.499 E1430.48598
G0 F18000 X12.685 Y0
G1 F2400 X39.142 Y0 E1431.58593
G0 F18000 X39.142 Y-0.5
G1 F2400 X12.674 Y-0.5 E1432.6863
G0 F18000 X12.648 Y-1
G1 F2400 X39.142 Y-1 E1433.7878
G0 F18000 X39.142 Y-1.5
G1 F2400 X12.594 Y-1.5 E1434.89149
G0 F18000 X12.531 Y-2
G1 F2400 X39.142 Y-2 E1435.99785
G0 F18000 X39.142 Y-2.5
G1 F2400 X12.434 Y-2.5 E1437.1082
G0 F18000 X12.326 Y-3
G1 F2400 X39.142 Y-3 E1438.22308
G0 F18000 X39.142 Y-3.5
G1 F2400 X12.193 Y-3.5 E1439.34345
G0 F18000 X12.036 Y-4
G1 F2400 X39.142 Y-4 E1440.47038
G0 F18000 X39.142 Y-4.5
G1 F2400 X11.864 Y-4.5 E1441.60443
G0 F18000 X11.654 Y-5
G1 F2400 X39.142 Y-5 E1442.74725
G0 F18000 X39.142 Y-5.5
G1 F2400 X11.429 Y-5.5 E1443.89938
G0 F18000 X11.176 Y-6
G1 F2400 X39.142 Y-6 E1445.06207
G0 F18000 X39.142 Y-6.5
G1 F2400 X10.89 Y-6.5 E1446.23661
G0 F18000 X10.58 Y-7
G1 F2400 X39.142 Y-7 E1447.42408
G0 F18000 X39.142 Y-7.5
G1 F2400 X10.231 Y-7.5 E1448.62602
G0 F18000 X9.839 Y-8
G1 F2400 X39.142 Y-8 E1449.84429
G0 F18000 X39.142 Y-8.5
G1 F2400 X9.412 Y-8.5 E1451.08028
G0 F18000 X8.943 Y-9
G1 F2400 X39.142 Y-9 E1452.33581
G0 F18000 X39.142 Y-9.5
G1 F2400 X8.405 Y-9.5 E1453.61366
G0 F18000 X7.799 Y-10
G1 F2400 X39.142 Y-10 E1454.91676
G0 F18000 X39.142 Y-10.5
G1 F2400 X7.11 Y-10.5 E1456.24845
G0 F18000 X6.31 Y-11
G1 F2400 X39.142 Y-11 E1457.61345
G0 F18000 X39.142 Y-11.5
G1 F2400 X5.354 Y-11.5 E1459.01815
G0 F18000 X35.095 Y-12
G0 X35.095 Y-12
G1 F2400 X39.142 Y-12 E1459.1864
G0 F18000 X39.142 Y-12.5
G1 F2400 X35.095 Y-12.5 E1459.35461
G0 F18000 X35.095 Y-13
G1 F2400 X39.142 Y-13 E1459.52287
G0 F18000 X39.142 Y-13.5
G1 F2400 X35.095 Y-13.5 E1459.69108
G0 F18000 X35.095 Y-14
G1 F2400 X39.142 Y-14 E1459.85934
G0 F18000 X39.142 Y-14.5
G1 F2400 X35.095 Y-14.5 E1460.02755
G0 F18000 X35.095 Y-15
G1 F2400 X39.142 Y-15 E1460.1958
G0 F18000 X39.142 Y-15.5
G1 F2400 X35.095 Y-15.5 E1460.36402
G0 F18000 X35.095 Y-16
G1 F2400 X39.142 Y-16 E1460.53227
G0 F18000 X39.142 Y-16.5
G1 F2400 X35.095 Y-16.5 E1460.70049
G0 F18000 X35.095 Y-17
G1 F2400 X39.142 Y-17 E1460.86874
G0 F18000 X39.142 Y-17.5
G1 F2400 X35.095 Y-17.5 E1461.03695
G0 F18000 X35.095 Y-18
G1 F2400 X39.142 Y-18 E1461.20521
G0 F18000 X39.142 Y-18.5
G1 F2400 X35.095 Y-18.5 E1461.37342
G0 F18000 X35.095 Y-19
G1 F2400 X39.142 Y-19 E1461.54168
G0 F18000 X39.142 Y-19.5
G1 F2400 X35.095 Y-19.5 E1461.70989
G0 F18000 X35.095 Y-20
G1 F2400 X39.142 Y-20 E1461.87814
G0 F18000 X39.142 Y-20.5
G1 F2400 X35.095 Y-20.5 E1462.04636
G0 F18000 X35.095 Y-21
G1 F2400 X39.142 Y-21 E1462.21461
G0 F18000 X39.142 Y-21.5
G1 F2400 X35.095 Y-21.5 E1462.38282
G0 F18000 X35.095 Y-22
G1 F2400 X39.142 Y-22 E1462.55108
G0 F18000 X39.142 Y-22.5
G1 F2400 X35.095 Y-22.5 E1462.71929
G0 F18000 X35.095 Y-23
G1 F2400 X39.142 Y-23 E1462.88755
G0 F18000 X39.142 Y-23.5
G1 F2400 X35.095 Y-23.5 E1463.05576
G0 F18000 X35.095 Y-24
G1 F2400 X39.142 Y-24 E1463.22401
G0 F18000 X39.142 Y-24.5
G1 F2400 X35.095 Y-24.5 E1463.39223
G0 F18000 X35.095 Y-25
G1 F2400 X39.142 Y-25 E1463.56048
G0 F18000 X39.142 Y-25.5
G1 F2400 X35.095 Y-25.5 E1463.7287
G0 F18000 X35.095 Y-26
G1 F2400 X39.142 Y-26 E1463.89695
G0 F18000 X39.142 Y-26.5
G1 F2400 X35.095 Y-26.5 E1464.06516
G0 F18000 X35.095 Y-27
G1 F2400 X39.142 Y-27 E1464.23342
G0 F18000 X39.142 Y-27.5
G1 F2400 X35.095 Y-27.5 E1464.40163
G0 F18000 X35.095 Y-28
G1 F2400 X39.142 Y-28 E1464.56989
G0 F18000 X39.142 Y-28.5
G1 F2400 X35.095 Y-28.5 E1464.7381
G0 F18000 X35.095 Y-29
G1 F2400 X39.142 Y-29 E1464.90635
G0 F18000 X39.142 Y-29.5
G1 F2400 X35.095 Y-29.5 E1465.07457
G0 F18000 X35.095 Y-30
G1 F2400 X39.142 Y-30 E1465.24282
G0 F18000 X-38.203 Y36.006
; TYPE:SUPPORT
G1 F2400 X-38.203 Y36.43 E1465.26398
G1 X-39.851 Y36.103 E1465.34774
G1 X-40.649 Y35.568 E1465.3956
G1 X-41.182 Y34.763 E1465.4437
G1 X-41.498 Y33.13 E1465.52662
G1 X-41.079 Y33.13 E1465.54753
G1 X-41.079 Y34.58 E1465.61987
G1 X-39.653 Y34.58 E1465.69101
G1 X-39.653 Y36.006 E1465.76215
G1 X-38.203 Y36.006 E1465.83449
G0 F18000 X38.205 Y36
G1 F2400 X39.655 Y36 E1465.90684
G1 X39.655 Y34.58 E1465.97763
G1 X41.082 Y34.58 E1466.04882
G1 X41.082 Y33.13 E1466.12111
G1 X41.5 Y33.13 E1466.14197
G1 X41.181 Y34.774 E1466.22551
G1 X40.633 Y35.584 E1466.27427
G1 X39.834 Y36.11 E1466.32195
G1 X38.205 Y36.424 E1466.40467
G1 X38.205 Y36 E1466.42578
G0 F18000 X-38.203 Y-36.004
G1 F2400 X-39.653 Y-36.004 E1466.49807
G1 X-39.653 Y-34.578 E1466.56921
G1 X-41.079 Y-34.578 E1466.6403
G1 X-41.079 Y-33.128 E1466.71264
G1 X-41.498 Y-33.128 E1466.7335
G1 X-41.182 Y-34.763 E1466.81653
G1 X-40.629 Y-35.584 E1466.86587
G1 X-39.83 Y-36.109 E1466.91354
G1 X-38.203 Y-36.42 E1466.99617
G1 X-38.203 Y-36.004 E1467.01693
G0 F18000 X38.205 Y-36.004
G1 F2400 X38.205 Y-36.426 E1467.03793
G1 X39.861 Y-36.099 E1467.12215
G1 X40.649 Y-35.568 E1467.16955
G1 X41.181 Y-34.769 E1467.21744
G1 X41.503 Y-33.14 E1467.30029
G1 X41.082 Y-33.138 E1467.32124
G1 X41.082 Y-34.578 E1467.39303
G1 X39.655 Y-34.578 E1467.46418
G1 X39.655 Y-36.004 E1467.53527
G1 X38.205 Y-36.004 E1467.60756
G0 F18000 X38.205 Y-36.004 Z1
G0 X38.205 Y-34.654
G0 X37.405 Y-33.754
G0 X37.405 Y-33.754
G1 F6600 E1460.80756
G1 Z1.3
G0 F18000 X32.578 Y-29.46
G0 X20.264 Y-29.469
G0 X20.255 Y-18.5
G0 X8.862 Y-8.368
G0 X8.57 Y-8.679
G0 X7.944 Y-9.256
G0 X7.279 Y-9.787
G0 X6.578 Y-10.271
G0 X5.845 Y-10.705
G0 X5.084 Y-11.087
G0 X4.298 Y-11.414
G0 X3.491 Y-11.686
G0 X2.667 Y-11.902
G0 X1.831 Y-12.058
G0 X0.986 Y-12.158
G0 X0.134 Y-12.196
G0 X-0.713 Y-12.175
G0 X-1.562 Y-12.096
G0 X-2.403 Y-11.957
G0 X-3.23 Y-11.76
G0 X-4.043 Y-11.506
G0 X-4.836 Y-11.195
G0 X-5.605 Y-10.83
G0 X-6.346 Y-10.413
G0 X-7.059 Y-9.946
G0 X-7.735 Y-9.428
G0 X-8.374 Y-8.866
G0 X-8.916 Y-8.322
G0 X-9.475 Y-7.681
G0 X-9.987 Y-7
G0 X-10.452 Y-6.287
G0 X-10.865 Y-5.541
G0 X-11.225 Y-4.771
G0 X-11.531 Y-3.976
G0 X-11.78 Y-3.161
G0 X-11.972 Y-2.332
G0 X-12.106 Y-1.491
G0 X-12.181 Y-0.643
G0 X-12.196 Y0.207
G0 X-12.151 Y1.056
G0 X-12.048 Y1.901
G0 X-11.886 Y2.737
G0 X-11.689 Y3.48
G0 X-11.39 Y4.363
G0 X-11.058 Y5.15
G0 X-10.671 Y5.908
G0 X-10.233 Y6.638
G0 X-9.745 Y7.337
G0 X-9.346 Y7.827
G0 X-38.303 Y33.58
G0 X-38.303 Y33.58
G0 X-38.653 Y33.58
G0 X-38.653 Y33.58 Z1.2
; LAYER:3
G0 X-38.653 Y33.58 Z0.9
G0 X-38.153 Y33.08
; TYPE:WALL-INNER
G1 Z0.9
G1 F6600 E1467.70756
G1 F2400 X-39.751 Y33.08 E1467.77396
G1 X-39.751 Y-33.078 E1470.52444
G1 X-38.153 Y-33.078 E1470.59088
G1 X-38.153 Y-34.677 E1470.65732
G1 X38.155 Y-34.677 E1473.82984
G1 X38.155 Y-33.078 E1473.89632
G1 X39.754 Y-33.078 E1473.96279
G1 X39.754 Y33.08 E1476.71332
G1 X38.155 Y33.08 E1476.77976
G1 X38.155 Y34.673 E1476.84599
G1 X-38.153 Y34.679 E1480.01847
G1 X-38.153 Y33.08 E1480.0849
G0 F18000 X-38.653 Y33.58
; TYPE:WALL-OUTER
G1 F2100 X-40.251 Y33.58 E1480.1513
G1 X-40.251 Y-33.578 E1482.94336
G1 X-38.653 Y-33.578 E1483.0098
G1 X-38.653 Y-35.177 E1483.07624
G1 X38.655 Y-35.177 E1486.29033
G1 X38.655 Y-33.578 E1486.35681
G1 X40.254 Y-33.578 E1486.42329
G1 X40.254 Y33.58 E1489.21539
G1 X38.655 Y33.58 E1489.28183
G1 X38.655 Y35.173 E1489.34806
G1 X-38.653 Y35.179 E1492.56211
G1 X-38.653 Y33.58 E1492.62855
G1 F6600 E1485.82855
G1 Z1.2
G0 F18000 X-38.303 Y33.58
G0 X-9.246 Y8.034
G0 X-9.246 Y8.034
; TYPE:WALL-INNER
G1 Z0.9
G1 F6600 E1492.72855
G1 F2400 X-8.604 Y8.716 E1492.76749
G1 X-7.975 Y9.297 E1492.80309
G1 X-7.306 Y9.83 E1492.83865
G1 X-6.603 Y10.316 E1492.87418
G1 X-5.867 Y10.752 E1492.90975
G1 X-5.103 Y11.135 E1492.94528
G1 X-4.314 Y11.463 E1492.9808
G1 X-3.504 Y11.737 E1493.01635
G1 X-2.676 Y11.953 E1493.05193
G1 X-1.836 Y12.11 E1493.08746
G1 X-0.987 Y12.21 E1493.123
G1 X-0.133 Y12.248 E1493.15854
G1 X0.72 Y12.228 E1493.19401
G1 X1.571 Y12.148 E1493.22954
G1 X2.415 Y12.009 E1493.2651
G1 X3.247 Y11.812 E1493.30064
G1 X4.063 Y11.556 E1493.33618
G1 X4.859 Y11.244 E1493.37171
G1 X5.632 Y10.878 E1493.40725
G1 X6.376 Y10.459 E1493.44273
G1 X7.091 Y9.989 E1493.47828
G1 X7.77 Y9.469 E1493.51381
G1 X8.411 Y8.906 E1493.54925
G1 X8.956 Y8.359 E1493.58133
G1 X9.517 Y7.715 E1493.61681
G1 X10.032 Y7.032 E1493.65234
G1 X10.498 Y6.315 E1493.68785
G1 X10.912 Y5.567 E1493.72336
G1 X11.275 Y4.793 E1493.75886
G1 X11.581 Y3.995 E1493.79436
G1 X11.832 Y3.177 E1493.82989
G1 X12.025 Y2.344 E1493.8654
G1 X12.159 Y1.5 E1493.90089
G1 X12.233 Y0.648 E1493.9364
G1 X12.249 Y-0.206 E1493.97187
G1 X12.205 Y-1.059 E1494.00734
G1 X12.101 Y-1.908 E1494.04286
G1 X11.938 Y-2.747 E1494.07834
G1 X11.718 Y-3.573 E1494.11383
G1 X11.44 Y-4.383 E1494.14938
G1 X11.105 Y-5.17 E1494.18488
G1 X10.718 Y-5.932 E1494.22036
G1 X10.278 Y-6.664 E1494.25581
G1 X9.788 Y-7.365 E1494.29131
G1 X9.248 Y-8.032 E1494.32693
G1 X8.606 Y-8.714 E1494.36582
G1 X7.977 Y-9.294 E1494.40133
G1 X7.309 Y-9.828 E1494.43682
G1 X6.606 Y-10.314 E1494.4723
G1 X5.87 Y-10.75 E1494.50781
G1 X5.106 Y-11.133 E1494.54328
G1 X4.316 Y-11.461 E1494.57879
G1 X3.506 Y-11.735 E1494.61429
G1 X2.679 Y-11.951 E1494.64977
G1 X1.839 Y-12.108 E1494.68525
G1 X0.99 Y-12.208 E1494.72075
G1 X0.135 Y-12.246 E1494.75629
G1 X-0.717 Y-12.226 E1494.79168
G1 X-1.569 Y-12.146 E1494.82721
G1 X-2.413 Y-12.007 E1494.86273
G1 X-3.244 Y-11.81 E1494.8982
G1 X-4.06 Y-11.554 E1494.93372
G1 X-4.856 Y-11.242 E1494.96922
G1 X-5.629 Y-10.876 E1495.00474
G1 X-6.373 Y-10.457 E1495.04021
G1 X-7.088 Y-9.987 E1495.07575
G1 X-7.768 Y-9.467 E1495.1113
G1 X-8.408 Y-8.904 E1495.14671
G1 X-8.953 Y-8.357 E1495.17878
G1 X-9.514 Y-7.713 E1495.21426
G1 X-10.029 Y-7.03 E1495.2498
G1 X-10.495 Y-6.313 E1495.28533
G1 X-10.909 Y-5.565 E1495.32086
G1 X-11.272 Y-4.791 E1495.35638
G1 X-11.578 Y-3.993 E1495.3919
G1 X-11.829 Y-3.175 E1495.42746
G1 X-12.022 Y-2.342 E1495.463
G1 X-12.156 Y-1.498 E1495.49852
G1 X-12.231 Y-0.646 E1495.53408
G1 X-12.246 Y0.208 E1495.56959
G1 X-12.202 Y1.061 E1495.6051
G1 X-12.098 Y1.91 E1495.64066
G1 X-11.935 Y2.749 E1495.67619
G1 X-11.737 Y3.496 E1495.70832
G1 X-11.438 Y4.382 E1495.7472
G1 X-11.103 Y5.172 E1495.78288
G1 X-10.716 Y5.934 E1495.81841
G1 X-10.276 Y6.666 E1495.85391
G1 X-9.786 Y7.367 E1495.88947
G1 X-9.246 Y8.034 E1495.92515
G1 F6600 E1489.12515
G1 Z1.2
G0 F18000 X-9.216 Y7.971
G0 X-9.208 Y8
G0 X-9.745 Y7.337
G0 X-10.233 Y6.638
G0 X-10.671 Y5.908
G0 X-11.058 Y5.15
G0 X-11.39 Y4.363
G0 X-11.689 Y3.48
G0 X-11.886 Y2.737
G0 X-12.048 Y1.901
G0 X-12.151 Y1.056
G0 X-12.196 Y0.207
G0 X-12.181 Y-0.643
G0 X-12.106 Y-1.491
G0 X-11.972 Y-2.332
G0 X-11.78 Y-3.161
G0 X-11.531 Y-3.976
G0 X-11.225 Y-4.771
G0 X-10.865 Y-5.541
G0 X-10.452 Y-6.287
G0 X-9.987 Y-7
G0 X-9.475 Y-7.681
G0 X-8.916 Y-8.322
G0 X-8.374 Y-8.866
G0 X-7.735 Y-9.428
G0 X-7.059 Y-9.946
G0 X-6.346 Y-10.413
G0 X-5.605 Y-10.83
G0 X-4.836 Y-11.195
G0 X-4.043 Y-11.506
G0 X-3.23 Y-11.76
G0 X-2.403 Y-11.957
G0 X-1.562 Y-12.096
G0 X-0.713 Y-12.175
G0 X0.134 Y-12.196
G0 X0.185 Y-12.177
G0 X0.146 Y-12.095
G0 X0.146 Y-12.095
G0 X0.13 Y-11.746
; TYPE:WALL-OUTER
G1 Z0.9
G1 F6600 E1496.02515
G1 F2100 X-0.688 Y-11.727 E1496.05913
G1 X-1.505 Y-11.65 E1496.0932
G1 X-2.314 Y-11.516 E1496.12726
G1 X-3.111 Y-11.327 E1496.16127
G1 X-3.894 Y-11.082 E1496.19534
G1 X-4.657 Y-10.783 E1496.22937
G1 X-5.399 Y-10.431 E1496.26348
G1 X-6.113 Y-10.03 E1496.29749
G1 X-6.799 Y-9.579 E1496.33159
G1 X-7.451 Y-9.08 E1496.36569
G1 X-8.065 Y-8.539 E1496.39968
G1 X-8.587 Y-8.016 E1496.43037
G1 X-9.125 Y-7.398 E1496.46441
G1 X-9.619 Y-6.743 E1496.49849
G1 X-10.066 Y-6.055 E1496.53258
G1 X-10.464 Y-5.338 E1496.56665
G1 X-10.811 Y-4.595 E1496.60073
G1 X-11.105 Y-3.83 E1496.63479
G1 X-11.346 Y-3.045 E1496.66892
G1 X-11.531 Y-2.246 E1496.703
G1 X-11.659 Y-1.437 E1496.73705
G1 X-11.732 Y-0.619 E1496.77119
G1 X-11.746 Y0.199 E1496.8052
G1 X-11.703 Y1.018 E1496.8393
G1 X-11.604 Y1.832 E1496.87339
G1 X-11.448 Y2.637 E1496.90748
G1 X-11.258 Y3.351 E1496.9382
G1 X-10.97 Y4.204 E1496.97563
G1 X-10.65 Y4.961 E1497.0098
G1 X-10.278 Y5.691 E1497.04386
G1 X-9.856 Y6.394 E1497.07795
G1 X-9.386 Y7.066 E1497.11204
G1 X-8.869 Y7.705 E1497.14622
G1 X-8.252 Y8.361 E1497.18366
G1 X-7.649 Y8.917 E1497.21776
G1 X-7.007 Y9.429 E1497.2519
G1 X-6.333 Y9.895 E1497.28597
G1 X-5.627 Y10.313 E1497.32008
G1 X-4.894 Y10.68 E1497.35416
G1 X-4.138 Y10.995 E1497.38821
G1 X-3.361 Y11.258 E1497.42231
G1 X-2.567 Y11.465 E1497.45643
G1 X-1.761 Y11.615 E1497.49051
G1 X-0.946 Y11.711 E1497.52463
G1 X-0.128 Y11.748 E1497.55867
G1 X0.691 Y11.729 E1497.59273
G1 X1.507 Y11.652 E1497.6268
G1 X2.316 Y11.518 E1497.66089
G1 X3.114 Y11.329 E1497.69497
G1 X3.897 Y11.084 E1497.72907
G1 X4.66 Y10.785 E1497.76313
G1 X5.402 Y10.433 E1497.79725
G1 X6.116 Y10.032 E1497.83128
G1 X6.801 Y9.581 E1497.86535
G1 X7.453 Y9.082 E1497.89946
G1 X8.068 Y8.541 E1497.93349
G1 X8.59 Y8.018 E1497.96418
G1 X9.128 Y7.4 E1497.99821
G1 X9.622 Y6.745 E1498.03229
G1 X10.069 Y6.057 E1498.06637
G1 X10.467 Y5.34 E1498.10042
G1 X10.814 Y4.597 E1498.13448
G1 X11.108 Y3.832 E1498.16851
G1 X11.349 Y3.047 E1498.20261
G1 X11.534 Y2.248 E1498.23667
G1 X11.662 Y1.439 E1498.27068
G1 X11.734 Y0.621 E1498.30478
G1 X11.749 Y-0.197 E1498.33875
G1 X11.706 Y-1.016 E1498.37281
G1 X11.607 Y-1.83 E1498.40685
G1 X11.451 Y-2.635 E1498.44089
G1 X11.239 Y-3.427 E1498.47493
G1 X10.973 Y-4.204 E1498.50902
G1 X10.652 Y-4.959 E1498.54307
G1 X10.28 Y-5.689 E1498.57708
G1 X9.858 Y-6.392 E1498.61111
G1 X9.388 Y-7.064 E1498.64515
G1 X8.871 Y-7.703 E1498.67926
G1 X8.254 Y-8.359 E1498.71665
G1 X7.651 Y-8.915 E1498.75069
G1 X7.01 Y-9.427 E1498.78474
G1 X6.336 Y-9.893 E1498.81875
G1 X5.63 Y-10.311 E1498.8528
G1 X4.897 Y-10.678 E1498.88683
G1 X4.14 Y-10.993 E1498.92086
G1 X3.363 Y-11.256 E1498.95491
G1 X2.57 Y-11.463 E1498.98893
G1 X1.764 Y-11.613 E1499.02297
G1 X0.949 Y-11.709 E1499.05704
G1 X0.13 Y-11.746 E1499.09108
G1 F6600 E1492.29108
G1 Z1.2
G0 F18000 X0.146 Y-12.095
G0 X3.858 Y-12.091
G0 X4.258 Y-12.091
G0 X20.155 Y-12.078
G0 X20.155 Y-12.078
; TYPE:WALL-INNER
G1 Z0.9
G1 F6600 E1499.19108
G1 F2400 X34.655 Y-12.078 E1499.79392
G1 X34.655 Y-29.578 E1500.52145
G1 X20.155 Y-29.578 E1501.12425
G1 X20.155 Y-12.078 E1501.85181
G0 F18000 X20.655 Y-12.578
; TYPE:WALL-OUTER
G1 F2100 X34.155 Y-12.578 E1502.41308
G1 X34.155 Y-29.078 E1503.09903
G1 X20.655 Y-29.078 E1503.66025
G1 X20.655 Y-12.578 E1504.34624
G0 F18000 X20.5 Y-11.637
; TYPE:FILL
G1 F2400 X20.5 Y34.234 E1506.25333
G0 F18000 X21 Y34.234
G1 F2400 X21 Y-11.637 E1508.16039
G0 F18000 X21.5 Y-11.637
G1 F2400 X21.5 Y34.234 E1510.06748
G0 F18000 X22 Y34.234
G1 F2400 X22 Y-11.637 E1511.97453
G0 F18000 X22.5 Y-11.637
G1 F2400 X22.5 Y34.234 E1513.88163
G0 F18000 X23 Y34.234
G1 F2400 X23 Y-11.637 E1515.78868
G0 F18000 X23.5 Y-11.637
G1 F2400 X23.5 Y34.234 E1517.69578
G0 F18000 X24 Y34.234
G1 F2400 X24 Y-11.637 E1519.60283
G0 F18000 X24.5 Y-11.637
G1 F2400 X24.5 Y34.234 E1521.50992
G0 F18000 X25 Y34.234
G1 F2400 X25 Y-11.637 E1523.41698
G0 F18000 X25.5 Y-11.637
G1 F2400 X25.5 Y34.234 E1525.32407
G0 F18000 X26 Y34.234
G1 F2400 X26 Y-11.637 E1527.23112
G0 F18000 X26.5 Y-11.637
G1 F2400 X26.5 Y34.234 E1529.13822
G0 F18000 X27 Y34.234
G1 F2400 X27 Y-11.637 E1531.04527
G0 F18000 X27.5 Y-11.637
G1 F2400 X27.5 Y34.234 E1532.95237
G0 F18000 X28 Y34.234
G1 F2400 X28 Y-11.637 E1534.85942
G0 F18000 X28.5 Y-11.637
G1 F2400 X28.5 Y34.234 E1536.76651
G0 F18000 X29 Y34.234
G1 F2400 X29 Y-11.637 E1538.67357
G0 F18000 X29.5 Y-11.637
G1 F2400 X29.5 Y34.234 E1540.58066
G0 F18000 X30 Y34.233
G1 F2400 X30 Y-11.637 E1542.48767
G0 F18000 X30.5 Y-11.637
G1 F2400 X30.5 Y34.232 E1544.39468
G0 F18000 X31 Y34.232
G1 F2400 X31 Y-11.637 E1546.30165
G0 F18000 X31.5 Y-11.637
G1 F2400 X31.5 Y34.232 E1548.20867
G0 F18000 X32 Y34.232
G1 F2400 X32 Y-11.637 E1550.11564
G0 F18000 X32.5 Y-11.637
G1 F2400 X32.5 Y34.232 E1552.02265
G0 F18000 X33 Y34.232
G1 F2400 X33 Y-11.637 E1553.92962
G0 F18000 X33.5 Y-11.637
G1 F2400 X33.5 Y34.232 E1555.83663
G0 F18000 X34 Y34.232
G1 F2400 X34 Y-11.637 E1557.7436
G0 F18000 X34.5 Y-11.637
G1 F2400 X34.5 Y34.232 E1559.65061
G0 F18000 X35 Y34.232
G1 F2400 X35 Y-11.637 E1561.55758
G0 F18000 X20 Y-11.637
G1 F2400 X20 Y34.234 E1563.46467
G0 F18000 X19.5 Y34.234
G1 F2400 X19.499 Y-34.236 E1566.31128
G0 F18000 X18.999 Y-34.236
G1 F2400 X19 Y34.234 E1569.15794
G0 F18000 X18.5 Y34.234
G1 F2400 X18.499 Y-34.236 E1572.00455
G0 F18000 X17.999 Y-34.236
G1 F2400 X18 Y34.234 E1574.8512
G0 F18000 X17.5 Y34.234
G1 F2400 X17.499 Y-34.236 E1577.69781
G0 F18000 X16.999 Y-34.236
G1 F2400 X17 Y34.234 E1580.54446
G0 F18000 X16.5 Y34.234
G1 F2400 X16.499 Y-34.236 E1583.39107
G0 F18000 X15.999 Y-34.236
G1 F2400 X16 Y34.234 E1586.23772
G0 F18000 X15.5 Y34.234
G1 F2400 X15.499 Y-34.236 E1589.08433
G0 F18000 X14.999 Y-34.236
G1 F2400 X15 Y34.235 E1591.93103
G0 F18000 X14.5 Y34.235
G1 F2400 X14.499 Y-34.236 E1594.77768
G0 F18000 X13.999 Y-34.236
G1 F2400 X14 Y34.235 E1597.62437
G0 F18000 X13.5 Y34.235
G1 F2400 X13.499 Y-34.236 E1600.47102
G0 F18000 X12.999 Y-34.236
G1 F2400 X13 Y34.235 E1603.31772
G0 F18000 X12.5 Y34.235
G1 F2400 X12.5 Y2.16 E1604.6512
G0 F18000 X12 Y4.128
G0 X12 Y4.128
G1 F2400 X12 Y34.235 E1605.9029
G0 F18000 X11.5 Y34.235
G1 F2400 X11.5 Y5.35 E1607.10376
G0 F18000 X11 Y6.315
G1 F2400 X11 Y34.235 E1608.26454
G0 F18000 X10.5 Y34.235
G1 F2400 X10.5 Y7.119 E1609.39185
G0 F18000 X10 Y7.804
G1 F2400 X10 Y34.235 E1610.49072
G0 F18000 X9.5 Y34.235
G1 F2400 X9.5 Y8.402 E1611.56469
G0 F18000 X9 Y8.936
G1 F2400 X9 Y34.235 E1612.6165
G0 F18000 X8.5 Y34.235
G1 F2400 X8.5 Y9.411 E1613.64852
G0 F18000 X8 Y9.845
G1 F2400 X8 Y34.235 E1614.66254
G0 F18000 X7.5 Y34.235
G1 F2400 X7.5 Y10.229 E1615.66055
G0 F18000 X7 Y10.575
G1 F2400 X7 Y34.235 E1616.64422
G0 F18000 X6.5 Y34.235
G1 F2400 X6.5 Y10.893 E1617.61463
G0 F18000 X6 Y11.175
G1 F2400 X6 Y34.235 E1618.57335
G0 F18000 X5.5 Y34.235
G1 F2400 X5.5 Y11.427 E1619.52156
G0 F18000 X5 Y11.66
G1 F2400 X5 Y34.235 E1620.46011
G0 F18000 X4.5 Y34.235
G1 F2400 X4.5 Y11.857 E1621.39044
G0 F18000 X4 Y12.037
G1 F2400 X4 Y34.235 E1622.31333
G0 F18000 X3.5 Y34.235
G1 F2400 X3.5 Y12.194 E1623.22964
G0 F18000 X3 Y12.323
G1 F2400 X3 Y34.235 E1624.14064
G0 F18000 X2.5 Y34.235
G1 F2400 X2.5 Y12.441 E1625.04669
G0 F18000 X2 Y12.523
G1 F2400 X2 Y34.235 E1625.94937
G0 F18000 X1.5 Y34.235
G1 F2400 X1.5 Y12.596 E1626.84897
G0 F18000 X1 Y12.643
G1 F2400 X1 Y34.235 E1627.74666
G0 F18000 X0.5 Y34.235
G1 F2400 X0.5 Y12.673 E1628.64306
G0 F18000 X0 Y12.685
G1 F2400 X0 Y34.236 E1629.53905
G0 F18000 X-0.499 Y34.236
G1 F2400 X-0.499 Y12.672 E1630.43554
G0 F18000 X-0.999 Y12.65
G1 F2400 X-0.999 Y34.236 E1631.33298
G0 F18000 X-1.499 Y34.236
G1 F2400 X-1.499 Y12.593 E1632.23275
G0 F18000 X-1.999 Y12.527
G1 F2400 X-1.999 Y34.236 E1633.1353
G0 F18000 X-2.499 Y34.236
G1 F2400 X-2.499 Y12.433 E1634.04172
G0 F18000 X-2.999 Y12.323
G1 F2400 X-2.999 Y34.236 E1634.95276
G0 F18000 X-3.499 Y34.236
G1 F2400 X-3.499 Y12.192 E1635.8692
G0 F18000 X-3.999 Y12.033
G1 F2400 X-3.999 Y34.236 E1636.7923
G0 F18000 X-4.499 Y34.236
G1 F2400 X-4.499 Y11.862 E1637.72246
G0 F18000 X-4.999 Y11.655
G1 F2400 X-4.999 Y34.236 E1638.66127
G0 F18000 X-5.499 Y34.236
G1 F2400 X-5.499 Y11.428 E1639.60947
G0 F18000 X-5.999 Y11.177
G1 F2400 X-5.999 Y34.236 E1640.56815
G0 F18000 X-6.499 Y34.236
G1 F2400 X-6.499 Y10.888 E1641.53881
G0 F18000 X-6.999 Y10.577
G1 F2400 X-6.999 Y34.236 E1642.52244
G0 F18000 X-7.499 Y34.236
G1 F2400 X-7.499 Y10.23 E1643.52045
G0 F18000 X-7.999 Y9.839
G1 F2400 X-7.999 Y34.236 E1644.53476
G0 F18000 X-8.499 Y34.236
G1 F2400 X-8.499 Y9.41 E1645.56686
G0 F18000 X-8.999 Y8.936
G1 F2400 X-8.999 Y34.236 E1646.61871
G0 F18000 X-9.499 Y34.236
G1 F2400 X-9.499 Y8.405 E1647.6926
G0 F18000 X-9.999 Y7.801
G1 F2400 X-9.999 Y34.236 E1648.79164
G0 F18000 X-10.499 Y34.236
G1 F2400 X-10.5 Y7.113 E1649.91924
G0 F18000 X-11 Y6.315
G1 F2400 X-10.999 Y34.236 E1651.08006
G0 F18000 X-11.499 Y34.236
G1 F2400 X-11.5 Y5.363 E1652.28042
G0 F18000 X-12 Y4.092
G1 F2400 X-11.999 Y34.236 E1653.53366
G0 F18000 X-12.499 Y34.236
G1 F2400 X-12.5 Y2.146 E1654.86777
G0 F18000 X-12.5 Y-2.139
G0 X-12.5 Y-2.139
G1 F2400 X-12.5 Y-34.237 E1656.2022
G0 F18000 X-13 Y-34.237
G1 F2400 X-12.999 Y34.236 E1659.04898
G0 F18000 X-13.499 Y34.236
G1 F2400 X-13.5 Y-34.237 E1661.89572
G0 F18000 X-14 Y-34.237
G1 F2400 X-13.999 Y34.236 E1664.74249
G0 F18000 X-14.499 Y34.236
G1 F2400 X-14.5 Y-34.237 E1667.58923
G0 F18000 X-15 Y-34.237
G1 F2400 X-14.999 Y34.236 E1670.436
G0 F18000 X-15.499 Y34.237
G1 F2400 X-15.5 Y-34.237 E1673.28278
G0 F18000 X-16 Y-34.237
G1 F2400 X-15.999 Y34.237 E1676.1296
G0 F18000 X-16.499 Y34.237
G1 F2400 X-16.5 Y-34.237 E1678.97637
G0 F18000 X-17 Y-34.237
G1 F2400 X-16.999 Y34.237 E1681.82319
G0 F18000 X-17.499 Y34.237
G1 F2400 X-17.5 Y-34.237 E1684.66997
G0 F18000 X-18 Y-34.237
G1 F2400 X-17.999 Y34.237 E1687.51679
G0 F18000 X-18.499 Y34.237
G1 F2400 X-18.5 Y-34.237 E1690.36356
G0 F18000 X-19 Y-34.237
G1 F2400 X-18.999 Y34.237 E1693.21038
G0 F18000 X-19.499 Y34.237
G1 F2400 X-19.5 Y-34.237 E1696.05716
G0 F18000 X-20 Y-34.237
G1 F2400 X-19.999 Y34.237 E1698.90398
G0 F18000 X-20.499 Y34.237
G1 F2400 X-20.5 Y-34.237 E1701.75075
G0 F18000 X-21 Y-34.237
G1 F2400 X-20.999 Y34.237 E1704.59757
G0 F18000 X-21.499 Y34.237
G1 F2400 X-21.5 Y-34.237 E1707.44435
G0 F18000 X-22 Y-34.237
G1 F2400 X-21.999 Y34.237 E1710.29117
G0 F18000 X-22.499 Y34.237
G1 F2400 X-22.5 Y-34.237 E1713.13794
G0 F18000 X-23 Y-34.237
G1 F2400 X-22.999 Y34.237 E1715.98476
G0 F18000 X-23.499 Y34.237
G1 F2400 X-23.5 Y-34.237 E1718.83154
G0 F18000 X-24 Y-34.237
G1 F2400 X-23.999 Y34.237 E1721.67836
G0 F18000 X-24.499 Y34.237
G1 F2400 X-24.5 Y-34.237 E1724.52513
G0 F18000 X-25 Y-34.237
G1 F2400 X-24.999 Y34.237 E1727.37195
G0 F18000 X-25.499 Y34.237
G1 F2400 X-25.5 Y-34.237 E1730.21873
G0 F18000 X-26 Y-34.237
G1 F2400 X-25.999 Y34.237 E1733.06554
G0 F18000 X-26.499 Y34.237
G1 F2400 X-26.5 Y-34.237 E1735.91232
G0 F18000 X-27 Y-34.237
G1 F2400 X-26.999 Y34.237 E1738.75914
G0 F18000 X-27.499 Y34.237
G1 F2400 X-27.5 Y-34.237 E1741.60592
G0 F18000 X-28 Y-34.237
G1 F2400 X-27.999 Y34.237 E1744.45273
G0 F18000 X-28.499 Y34.237
G1 F2400 X-28.5 Y-34.237 E1747.29951
G0 F18000 X-29 Y-34.237
G1 F2400 X-28.999 Y34.237 E1750.14633
G0 F18000 X-29.499 Y34.237
G1 F2400 X-29.5 Y-34.237 E1752.99311
G0 F18000 X-30 Y-34.236
G1 F2400 X-29.999 Y34.237 E1755.83988
G0 F18000 X-30.499 Y34.238
G1 F2400 X-30.5 Y-34.236 E1758.68666
G0 F18000 X-31 Y-34.236
G1 F2400 X-30.999 Y34.238 E1761.53348
G0 F18000 X-31.499 Y34.238
G1 F2400 X-31.5 Y-34.236 E1764.38025
G0 F18000 X-32 Y-34.236
G1 F2400 X-31.999 Y34.238 E1767.22707
G0 F18000 X-32.499 Y34.238
G1 F2400 X-32.5 Y-34.236 E1770.07385
G0 F18000 X-33 Y-34.236
G1 F2400 X-32.999 Y34.238 E1772.92067
G0 F18000 X-33.499 Y34.238
G1 F2400 X-33.5 Y-34.236 E1775.76744
G0 F18000 X-34 Y-34.236
G1 F2400 X-33.999 Y34.238 E1778.61426
G0 F18000 X-34.499 Y34.238
G1 F2400 X-34.5 Y-34.236 E1781.46104
G0 F18000 X-35 Y-34.236
G1 F2400 X-34.999 Y34.238 E1784.30785
G0 F18000 X-35.499 Y34.238
G1 F2400 X-35.5 Y-34.236 E1787.15463
G0 F18000 X-36 Y-34.236
G1 F2400 X-35.999 Y34.238 E1790.00145
G0 F18000 X-36.499 Y34.238
G1 F2400 X-36.5 Y-34.236 E1792.84823
G0 F18000 X-37 Y-34.236
G1 F2400 X-36.999 Y34.238 E1795.69504
G0 F18000 X-37.499 Y34.238
G1 F2400 X-37.5 Y-34.236 E1798.54182
G0 F18000 X-38 Y-32.637
G0 X-38 Y-32.637
G1 F2400 X-37.999 Y32.639 E1801.25568
G0 F18000 X-38.499 Y32.639
G1 F2400 X-38.5 Y-32.637 E1803.9695
G0 F18000 X-39 Y-32.637
G1 F2400 X-38.999 Y32.639 E1806.68336
G0 F18000 X-12 Y-4.117
G0 X-12 Y-4.117
G1 F2400 X-12 Y-34.237 E1807.93556
G0 F18000 X-11.5 Y-34.237
G1 F2400 X-11.5 Y-5.342 E1809.13688
G0 F18000 X-11 Y-6.308
G1 F2400 X-11 Y-34.237 E1810.29799
G0 F18000 X-10.5 Y-34.237
G1 F2400 X-10.5 Y-7.112 E1811.42572
G0 F18000 X-10 Y-7.798
G1 F2400 X-10 Y-34.237 E1812.52488
G0 F18000 X-9.5 Y-34.237
G1 F2400 X-9.5 Y-8.397 E1813.59918
G0 F18000 X-9 Y-8.931
G1 F2400 X-9 Y-34.237 E1814.65124
G0 F18000 X-8.5 Y-34.237
G1 F2400 X-8.5 Y-9.407 E1815.68355
G0 F18000 X-8 Y-9.842
G1 F2400 X-8 Y-34.237 E1816.69774
G0 F18000 X-7.5 Y-34.237
G1 F2400 X-7.5 Y-10.225 E1817.69604
G0 F18000 X-7 Y-10.571
G1 F2400 X-7 Y-34.237 E1818.67992
G0 F18000 X-6.5 Y-34.237
G1 F2400 X-6.5 Y-10.89 E1819.65057
G0 F18000 X-6 Y-11.171
G1 F2400 X-6 Y-34.237 E1820.6095
G0 F18000 X-5.5 Y-34.237
G1 F2400 X-5.5 Y-11.423 E1821.558
G0 F18000 X-5 Y-11.657
G1 F2400 X-5 Y-34.237 E1822.49673
G0 F18000 X-4.5 Y-34.237
G1 F2400 X-4.5 Y-11.853 E1823.42734
G0 F18000 X-4 Y-12.034
G1 F2400 X-4 Y-34.237 E1824.3504
G0 F18000 X-3.5 Y-34.237
G1 F2400 X-3.5 Y-12.19 E1825.267
G0 F18000 X-3 Y-12.32
G1 F2400 X-3 Y-34.237 E1826.17817
G0 F18000 X-2.5 Y-34.237
G1 F2400 X-2.5 Y-12.439 E1827.08442
G0 F18000 X-2 Y-12.521
G1 F2400 X-2 Y-34.237 E1827.98723
G0 F18000 X-1.5 Y-34.237
G1 F2400 X-1.5 Y-12.594 E1828.88704
G0 F18000 X-1 Y-12.641
G1 F2400 X-1 Y-34.237 E1829.78485
G0 F18000 X-0.5 Y-34.237
G1 F2400 X-0.5 Y-12.671 E1830.68146
G0 F18000 X0 Y-12.683
G1 F2400 X0 Y-34.237 E1831.57753
G0 F18000 X0.499 Y-34.236
G1 F2400 X0.499 Y-12.67 E1832.47414
G0 F18000 X0.999 Y-12.648
G1 F2400 X0.999 Y-34.236 E1833.37163
G0 F18000 X1.499 Y-34.236
G1 F2400 X1.499 Y-12.591 E1834.27152
G0 F18000 X1.999 Y-12.526
G1 F2400 X1.999 Y-34.236 E1835.17408
G0 F18000 X2.499 Y-34.236
G1 F2400 X2.499 Y-12.432 E1836.08058
G0 F18000 X2.999 Y-12.322
G1 F2400 X2.999 Y-34.236 E1836.99162
G0 F18000 X3.499 Y-34.236
G1 F2400 X3.499 Y-12.191 E1837.90814
G0 F18000 X3.999 Y-12.032
G1 F2400 X3.999 Y-34.236 E1838.83124
G0 F18000 X4.499 Y-34.236
G1 F2400 X4.499 Y-11.861 E1839.76148
G0 F18000 X4.999 Y-11.654
G1 F2400 X4.999 Y-34.236 E1840.70029
G0 F18000 X5.499 Y-34.236
G1 F2400 X5.499 Y-11.427 E1841.64858
G0 F18000 X5.999 Y-11.177
G1 F2400 X5.999 Y-34.236 E1842.60722
G0 F18000 X6.499 Y-34.236
G1 F2400 X6.499 Y-10.887 E1843.57796
G0 F18000 X6.999 Y-10.577
G1 F2400 X6.999 Y-34.236 E1844.56154
G0 F18000 X7.499 Y-34.236
G1 F2400 X7.499 Y-10.23 E1845.55959
G0 F18000 X7.999 Y-9.838
G1 F2400 X7.999 Y-34.236 E1846.5739
G0 F18000 X8.499 Y-34.236
G1 F2400 X8.499 Y-9.41 E1847.60605
G0 F18000 X8.999 Y-8.937
G1 F2400 X8.999 Y-34.236 E1848.65782
G0 F18000 X9.499 Y-34.236
G1 F2400 X9.499 Y-8.405 E1849.73175
G0 F18000 X9.999 Y-7.801
G1 F2400 X9.999 Y-34.236 E1850.83074
G0 F18000 X10.499 Y-34.236
G1 F2400 X10.5 Y-7.114 E1851.95835
G0 F18000 X11 Y-6.316
G1 F2400 X10.999 Y-34.236 E1853.11908
G0 F18000 X11.499 Y-34.236
G1 F2400 X11.5 Y-5.361 E1854.31957
G0 F18000 X12 Y-4.105
G1 F2400 X11.999 Y-34.236 E1855.57223
G0 F18000 X12.499 Y-34.236
G1 F2400 X12.5 Y-2.159 E1856.90583
G0 F18000 X19.999 Y-30.017
G0 X19.999 Y-30.017
G1 F2400 X19.999 Y-34.236 E1857.0812
G0 F18000 X20.499 Y-34.236
G1 F2400 X20.499 Y-30.017 E1857.2566
G0 F18000 X20.999 Y-30.017
G1 F2400 X20.999 Y-34.236 E1857.43197
G0 F18000 X21.499 Y-34.236
G1 F2400 X21.499 Y-30.017 E1857.60737
G0 F18000 X21.999 Y-30.017
G1 F2400 X21.999 Y-34.236 E1857.78274
G0 F18000 X22.499 Y-34.236
G1 F2400 X22.499 Y-30.017 E1857.95814
G0 F18000 X22.999 Y-30.017
G1 F2400 X22.999 Y-34.236 E1858.13351
G0 F18000 X23.499 Y-34.236
G1 F2400 X23.499 Y-30.017 E1858.30891
G0 F18000 X23.999 Y-30.017
G1 F2400 X23.999 Y-34.236 E1858.48428
G0 F18000 X24.499 Y-34.236
G1 F2400 X24.499 Y-30.017 E1858.65968
G0 F18000 X24.999 Y-30.017
G1 F2400 X24.999 Y-34.236 E1858.83505
G0 F18000 X25.499 Y-34.236
G1 F2400 X25.499 Y-30.017 E1859.01045
G0 F18000 X25.999 Y-30.017
G1 F2400 X25.999 Y-34.236 E1859.18581
G0 F18000 X26.499 Y-34.236
G1 F2400 X26.499 Y-30.017 E1859.36122
G0 F18000 X26.999 Y-30.017
G1 F2400 X26.999 Y-34.236 E1859.53658
G0 F18000 X27.499 Y-34.236
G1 F2400 X27.499 Y-30.017 E1859.71199
G0 F18000 X27.999 Y-30.017
G1 F2400 X27.999 Y-34.236 E1859.88735
G0 F18000 X28.499 Y-34.236
G1 F2400 X28.499 Y-30.017 E1860.06276
G0 F18000 X28.999 Y-30.017
G1 F2400 X28.999 Y-34.236 E1860.23812
G0 F18000 X29.499 Y-34.236
G1 F2400 X29.499 Y-30.017 E1860.41353
G0 F18000 X29.999 Y-30.017
G1 F2400 X29.999 Y-34.236 E1860.58889
G0 F18000 X30.499 Y-34.236
G1 F2400 X30.499 Y-30.017 E1860.7643
G0 F18000 X30.999 Y-30.017
G1 F2400 X30.999 Y-34.236 E1860.93966
G0 F18000 X31.499 Y-34.236
G1 F2400 X31.499 Y-30.017 E1861.11507
G0 F18000 X31.999 Y-30.017
G1 F2400 X31.999 Y-34.236 E1861.29043
G0 F18000 X32.499 Y-34.236
G1 F2400 X32.499 Y-30.017 E1861.46584
G0 F18000 X32.999 Y-30.017
G1 F2400 X32.999 Y-34.236 E1861.6412
G0 F18000 X33.499 Y-34.236
G1 F2400 X33.499 Y-30.017 E1861.81661
G0 F18000 X33.999 Y-30.017
G1 F2400 X33.999 Y-34.236 E1861.99197
G0 F18000 X34.499 Y-34.236
G1 F2400 X34.499 Y-30.017 E1862.16738
G0 F18000 X34.999 Y-30.017
G1 F2400 X34.999 Y-34.236 E1862.34274
G0 F18000 X35.499 Y-34.236
G1 F2400 X35.5 Y34.232 E1865.18931
G0 F18000 X36 Y34.232
G1 F2400 X35.999 Y-34.236 E1868.03584
G0 F18000 X36.499 Y-34.236
G1 F2400 X36.5 Y34.232 E1870.88241
G0 F18000 X37 Y34.232
G1 F2400 X36.999 Y-34.236 E1873.72893
G0 F18000 X37.499 Y-34.236
G1 F2400 X37.5 Y34.232 E1876.5755
G0 F18000 X38 Y32.639
G0 X38 Y32.639
G1 F2400 X37.999 Y-32.637 E1879.28932
G0 F18000 X38.499 Y-32.637
G1 F2400 X38.5 Y32.639 E1882.00318
G0 F18000 X39 Y32.639
G1 F2400 X38.999 Y-32.637 E1884.717
G0 F18000 X-38.203 Y36.179
; TYPE:SUPPORT
G1 F2400 X-38.203 Y36.43 E1884.72952
G1 X-39.468 Y36.179 E1884.79381
G1 X-38.203 Y36.179 E1884.85692
G0 F18000 X38.205 Y36.173
G1 F2400 X39.508 Y36.173 E1884.92192
G1 X38.205 Y36.424 E1884.98808
G1 X38.205 Y36.173 E1885.00055
