; Generated with MatterSlice 1.0
; filamentDiameter = 1.75
; extrusionWidth = 0.5
; firstLayerExtrusionWidth = 0.4
; layerThickness = 0.2
; firstLayerThickness = 0.3
; automatic settings before start_gcode
G21 ; set units to millimeters
M107 ; fan off
T0 ; set the active extruder to 0
; settings from start_gcode
M104 S190
M190 S60
M109 S190
G28
; automatic settings after start_gcode
T0 ; set the active extruder to 0
G90 ; use absolute coordinates
G92 E0 ; reset the expected extruder position
M82 ; use absolute distance for extrusion
; Layer count: 60
; LAYER:0
M107
G0 F18000 X39.192 Y-39.423 Z0.3
; TYPE:SKIRT
G1 Z0.3
G1 F6600 E0
G1 F720 X40.296 Y-39.27 E0.05561
G1 X41.091 Y-38.99 E0.09766
G1 X41.723 Y-38.677 E0.13284
G1 X42.364 Y-38.242 E0.17149
G1 X42.907 Y-37.753 E0.20795
G1 X43.374 Y-37.214 E0.24353
G1 X43.764 Y-36.627 E0.27869
G1 X44.085 Y-35.975 E0.31494
G1 X44.36 Y-35.168 E0.35748
G1 X44.505 Y-34.063 E0.41308
G1 X44.505 Y34.065 E3.812
G1 X44.36 Y35.17 E3.86759
G1 X44.085 Y35.977 E3.91011
G1 X43.763 Y36.631 E3.94646
G1 X43.344 Y37.26 E3.98414
G1 X42.832 Y37.83 E4.02233
G1 X42.278 Y38.31 E4.05886
G1 X41.655 Y38.715 E4.09589
G1 X40.972 Y39.044 E4.13367
G1 X40.157 Y39.296 E4.17618
G1 X39.141 Y39.43 E4.22726
G1 X-39.191 Y39.425 E8.13521
G1 X-40.293 Y39.272 E8.19066
G1 X-41.103 Y38.987 E8.23344
G1 X-41.753 Y38.658 E8.26971
G1 X-42.345 Y38.255 E8.30537
G1 X-42.869 Y37.794 E8.34012
G1 X-43.35 Y37.246 E8.37643
G1 X-43.758 Y36.636 E8.41297
G1 X-44.083 Y35.977 E8.44957
G1 X-44.358 Y35.17 E8.49204
G1 X-44.503 Y34.065 E8.54758
G1 X-44.503 Y-34.063 E11.94645
G1 X-44.358 Y-35.168 E12.002
G1 X-44.083 Y-35.975 E12.04449
G1 X-43.758 Y-36.634 E12.08111
G1 X-43.34 Y-37.259 E12.11858
G1 X-42.83 Y-37.828 E12.15666
G1 X-42.274 Y-38.308 E12.19327
G1 X-41.654 Y-38.713 E12.23019
G1 X-40.966 Y-39.043 E12.26824
G1 X-40.154 Y-39.294 E12.31063
G1 X-39.139 Y-39.428 E12.3617
G1 X39.192 Y-39.423 E16.26965
G0 F18000 X39.165 Y-39.023
G1 F720 X40.201 Y-38.879 E16.32183
G1 X40.935 Y-38.621 E16.36065
G1 X41.521 Y-38.331 E16.39327
G1 X42.117 Y-37.926 E16.42922
G1 X42.62 Y-37.472 E16.46302
G1 X43.055 Y-36.971 E16.49612
G1 X43.416 Y-36.427 E16.5287
G1 X43.715 Y-35.822 E16.56237
G1 X43.969 Y-35.076 E16.60168
G1 X44.105 Y-34.037 E16.65396
G1 X44.105 Y34.039 E20.05029
G1 X43.969 Y35.078 E20.10256
G1 X43.715 Y35.824 E20.14186
G1 X43.415 Y36.431 E20.17562
G1 X43.027 Y37.015 E20.21057
G1 X42.551 Y37.544 E20.24604
G1 X42.037 Y37.99 E20.27995
G1 X41.459 Y38.366 E20.31431
G1 X40.825 Y38.671 E20.34937
G1 X40.071 Y38.904 E20.38869
G1 X39.114 Y39.03 E20.4368
G1 X-39.163 Y39.025 E24.342
G1 X-40.198 Y38.881 E24.39408
G1 X-40.946 Y38.618 E24.43357
G1 X-41.549 Y38.313 E24.46722
G1 X-42.099 Y37.938 E24.50036
G1 X-42.585 Y37.51 E24.5326
G1 X-43.032 Y37.002 E24.56629
G1 X-43.411 Y36.435 E24.60025
G1 X-43.713 Y35.824 E24.63418
G1 X-43.967 Y35.078 E24.67343
G1 X-44.103 Y34.039 E24.72566
G1 X-44.103 Y-34.037 E28.12193
G1 X-43.967 Y-35.076 E28.17416
G1 X-43.713 Y-35.822 E28.21343
G1 X-43.411 Y-36.433 E28.24739
G1 X-43.023 Y-37.013 E28.28216
G1 X-42.549 Y-37.542 E28.31756
G1 X-42.033 Y-37.988 E28.35155
G1 X-41.458 Y-38.364 E28.3858
G1 X-40.82 Y-38.669 E28.42106
G1 X-40.068 Y-38.902 E28.46032
G1 X-39.113 Y-39.028 E28.50838
G1 X39.165 Y-39.023 E32.41368
G1 F6600 E25.61368
G1 Z0.6
G0 F18000 X-38.892 Y-35.628
; TYPE:WALL-OUTER
G1 Z0.3
G1 F6600 E32.51368
G1 F720 X38.931 Y-35.623 E36.39629
G1 X39.393 Y-35.559 E36.41956
G1 X39.613 Y-35.481 E36.4312
G1 X39.8 Y-35.389 E36.4416
G1 X40.013 Y-35.245 E36.45443
G1 X40.192 Y-35.084 E36.46644
G1 X40.34 Y-34.913 E36.47772
G1 X40.466 Y-34.724 E36.48905
G1 X40.569 Y-34.514 E36.50072
G1 X40.641 Y-34.301 E36.51194
G1 X40.705 Y-33.817 E36.5363
G1 X40.705 Y33.819 E39.91067
G1 X40.641 Y34.303 E39.93502
G1 X40.569 Y34.516 E39.94622
G1 X40.466 Y34.726 E39.95787
G1 X40.333 Y34.926 E39.96982
G1 X40.161 Y35.117 E39.98261
G1 X39.988 Y35.266 E39.99397
G1 X39.786 Y35.398 E40.00596
G1 X39.579 Y35.497 E40.01737
G1 X39.34 Y35.571 E40.0298
G1 X38.894 Y35.63 E40.0522
G1 X-38.928 Y35.625 E43.9347
G1 X-39.39 Y35.561 E43.95792
G1 X-39.613 Y35.483 E43.96964
G1 X-39.814 Y35.381 E43.98082
G1 X-40.013 Y35.245 E43.99277
G1 X-40.175 Y35.102 E44.00348
G1 X-40.331 Y34.925 E44.01518
G1 X-40.461 Y34.731 E44.02676
G1 X-40.567 Y34.516 E44.03866
G1 X-40.639 Y34.303 E44.04981
G1 X-40.703 Y33.819 E44.07411
G1 X-40.703 Y-33.817 E47.44844
G1 X-40.639 Y-34.301 E47.47274
G1 X-40.567 Y-34.514 E47.48391
G1 X-40.461 Y-34.729 E47.49583
G1 X-40.331 Y-34.923 E47.50744
G1 X-40.163 Y-35.111 E47.51998
G1 X-39.981 Y-35.268 E47.53194
G1 X-39.787 Y-35.395 E47.54348
G1 X-39.579 Y-35.495 E47.55497
G1 X-39.337 Y-35.569 E47.56758
G1 X-38.892 Y-35.628 E47.58997
G0 F18000 X-38.863 Y-35.228
; TYPE:WALL-INNER
G1 F720 X38.905 Y-35.223 E51.46983
G1 X39.298 Y-35.169 E51.48962
G1 X39.454 Y-35.114 E51.49788
G1 X39.6 Y-35.041 E51.50602
G1 X39.767 Y-34.928 E51.51608
G1 X39.907 Y-34.802 E51.52548
G1 X40.022 Y-34.669 E51.53425
G1 X40.116 Y-34.528 E51.5427
G1 X40.198 Y-34.361 E51.55199
G1 X40.25 Y-34.21 E51.55995
G1 X40.305 Y-33.788 E51.58118
G1 X40.305 Y33.79 E54.95266
G1 X40.25 Y34.212 E54.97389
G1 X40.198 Y34.363 E54.98184
G1 X40.116 Y34.53 E54.9911
G1 X40.015 Y34.682 E55.00018
G1 X39.883 Y34.829 E55.01
G1 X39.747 Y34.947 E55.01895
G1 X39.594 Y35.046 E55.028
G1 X39.431 Y35.124 E55.03697
G1 X39.256 Y35.179 E55.04607
G1 X38.865 Y35.23 E55.06569
G1 X-38.902 Y35.225 E58.94546
G1 X-39.296 Y35.17 E58.96525
G1 X-39.452 Y35.115 E58.97344
G1 X-39.61 Y35.035 E58.9822
G1 X-39.767 Y34.929 E58.99159
G1 X-39.892 Y34.819 E58.99982
G1 X-40.011 Y34.683 E59.00877
G1 X-40.115 Y34.527 E59.01805
G1 X-40.196 Y34.363 E59.02711
G1 X-40.248 Y34.212 E59.03502
G1 X-40.303 Y33.79 E59.05619
G1 X-40.303 Y-33.788 E62.42762
G1 X-40.248 Y-34.21 E62.4488
G1 X-40.196 Y-34.361 E62.45672
G1 X-40.115 Y-34.525 E62.46581
G1 X-40.011 Y-34.681 E62.47512
G1 X-39.879 Y-34.828 E62.48494
G1 X-39.741 Y-34.947 E62.494
G1 X-39.591 Y-35.045 E62.50291
G1 X-39.431 Y-35.121 E62.51172
G1 X-39.253 Y-35.177 E62.52102
G1 X-38.863 Y-35.228 E62.54064
G0 F18000 X-39.314 Y-34.8
; TYPE:BOTTOM-FILL
G1 F720 X39.322 Y-34.8 E66.4638
G0 F18000 X39.792 Y-34.4
G1 F720 X-39.79 Y-34.4 E70.43411
G0 F18000 X-39.932 Y-34
G1 F720 X39.934 Y-34 E74.41864
G0 F18000 X39.965 Y-33.6
G1 F720 X-39.963 Y-33.6 E78.40622
G0 F18000 X-39.963 Y-33.2
G1 F720 X39.965 Y-33.2 E82.39384
G0 F18000 X39.965 Y-32.8
G1 F720 X-39.963 Y-32.8 E86.38142
G0 F18000 X-39.963 Y-32.399
G1 F720 X39.965 Y-32.4 E90.36904
G0 F18000 X39.965 Y-32
G1 F720 X-39.963 Y-31.999 E94.35662
G0 F18000 X-39.963 Y-31.599
G1 F720 X39.965 Y-31.6 E98.34424
G0 F18000 X39.965 Y-31.2
G1 F720 X-39.963 Y-31.199 E102.33181
G0 F18000 X-39.963 Y-30.799
G1 F720 X39.965 Y-30.8 E106.31944
G0 F18000 X39.965 Y-30.4
G1 F720 X-39.963 Y-30.399 E110.30701
G0 F18000 X-39.963 Y-29.999
G1 F720 X39.965 Y-30 E114.29464
G0 F18000 X39.965 Y-29.6
G1 F720 X-39.963 Y-29.599 E118.28221
G0 F18000 X-39.963 Y-29.199
G1 F720 X39.965 Y-29.2 E122.26983
G0 F18000 X39.965 Y-28.8
G1 F720 X-39.963 Y-28.799 E126.25741
G0 F18000 X-39.963 Y-28.399
G1 F720 X39.965 Y-28.4 E130.24503
G0 F18000 X39.965 Y-28
G1 F720 X-39.963 Y-27.999 E134.23261
G0 F18000 X-39.963 Y-27.599
G1 F720 X39.965 Y-27.6 E138.22023
G0 F18000 X39.965 Y-27.2
G1 F720 X-39.963 Y-27.199 E142.20781
G0 F18000 X-39.963 Y-26.799
G1 F720 X39.965 Y-26.8 E146.19543
G0 F18000 X39.965 Y-26.4
G1 F720 X-39.963 Y-26.399 E150.183
G0 F18000 X-39.963 Y-25.999
G1 F720 X39.965 Y-26 E154.17063
G0 F18000 X39.965 Y-25.6
G1 F720 X-39.963 Y-25.599 E158.1582
G0 F18000 X-39.963 Y-25.199
G1 F720 X39.965 Y-25.2 E162.14583
G0 F18000 X39.965 Y-24.8
G1 F720 X-39.963 Y-24.799 E166.1334
G0 F18000 X-39.963 Y-24.399
G1 F720 X39.965 Y-24.4 E170.12102
G0 F18000 X39.965 Y-24
G1 F720 X-39.963 Y-23.999 E174.1086
G0 F18000 X-39.963 Y-23.599
G1 F720 X39.965 Y-23.6 E178.09622
G0 F18000 X39.965 Y-23.2
G1 F720 X-39.963 Y-23.199 E182.0838
G0 F18000 X-39.963 Y-22.799
G1 F720 X39.965 Y-22.8 E186.07142
G0 F18000 X39.965 Y-22.4
G1 F720 X-39.963 Y-22.399 E190.059
G0 F18000 X-39.963 Y-21.999
G1 F720 X39.965 Y-22 E194.04662
G0 F18000 X39.965 Y-21.6
G1 F720 X-39.963 Y-21.599 E198.03419
G0 F18000 X-39.963 Y-21.199
G1 F720 X39.965 Y-21.2 E202.02182
G0 F18000 X39.965 Y-20.8
G1 F720 X-39.963 Y-20.799 E206.00939
G0 F18000 X-39.963 Y-20.399
G1 F720 X39.965 Y-20.4 E209.99702
G0 F18000 X39.965 Y-20
G1 F720 X-39.963 Y-19.999 E213.98459
G0 F18000 X-39.963 Y-19.599
G1 F720 X39.965 Y-19.6 E217.97221
G0 F18000 X39.965 Y-19.2
G1 F720 X-39.963 Y-19.199 E221.95979
G0 F18000 X-39.963 Y-18.799
G1 F720 X39.965 Y-18.8 E225.94741
G0 F18000 X39.965 Y-18.4
G1 F720 X-39.963 Y-18.399 E229.93499
G0 F18000 X-39.963 Y-17.999
G1 F720 X39.965 Y-18 E233.92261
G0 F18000 X39.965 Y-17.6
G1 F720 X-39.963 Y-17.599 E237.91019
G0 F18000 X-39.963 Y-17.199
G1 F720 X39.965 Y-17.2 E241.89781
G0 F18000 X39.965 Y-16.8
G1 F720 X-39.963 Y-16.799 E245.88538
G0 F18000 X-39.963 Y-16.399
G1 F720 X39.965 Y-16.4 E249.87301
G0 F18000 X39.965 Y-16
G1 F720 X-39.963 Y-15.999 E253.86058
G0 F18000 X-39.963 Y-15.599
G1 F720 X39.965 Y-15.6 E257.84821
G0 F18000 X39.965 Y-15.2
G1 F720 X-39.963 Y-15.199 E261.83578
G0 F18000 X-39.963 Y-14.799
G1 F720 X39.965 Y-14.8 E265.8234
G0 F18000 X39.965 Y-14.4
G1 F720 X-39.963 Y-14.399 E269.81098
G0 F18000 X-39.963 Y-13.999
G1 F720 X39.965 Y-14 E273.7986
G0 F18000 X39.965 Y-13.6
G1 F720 X-39.963 Y-13.599 E277.78618
G0 F18000 X-39.963 Y-13.199
G1 F720 X39.965 Y-13.2 E281.7738
G0 F18000 X39.965 Y-12.8
G1 F720 X-39.963 Y-12.799 E285.76138
G0 F18000 X-39.963 Y-12.399
G1 F720 X39.965 Y-12.4 E289.749
G0 F18000 X39.965 Y-12
G1 F720 X-39.963 Y-11.999 E293.73657
G0 F18000 X-39.963 Y-11.599
G1 F720 X39.965 Y-11.6 E297.7242
G0 F18000 X39.965 Y-11.2
G1 F720 X-39.963 Y-11.199 E301.71177
G0 F18000 X-39.963 Y-10.799
G1 F720 X39.965 Y-10.8 E305.6994
G0 F18000 X39.965 Y-10.4
G1 F720 X-39.963 Y-10.399 E309.68697
G0 F18000 X-39.963 Y-9.999
G1 F720 X39.965 Y-10 E313.67459
G0 F18000 X39.965 Y-9.6
G1 F720 X-39.963 Y-9.599 E317.66217
G0 F18000 X-39.963 Y-9.199
G1 F720 X39.965 Y-9.2 E321.64979
G0 F18000 X39.965 Y-8.8
G1 F720 X-39.963 Y-8.799 E325.63737
G0 F18000 X-39.963 Y-8.399
G1 F720 X39.965 Y-8.4 E329.62499
G0 F18000 X39.965 Y-8
G1 F720 X-39.963 Y-7.999 E333.61257
G0 F18000 X-39.963 Y-7.599
G1 F720 X39.965 Y-7.6 E337.60019
G0 F18000 X39.965 Y-7.2
G1 F720 X-39.963 Y-7.199 E341.58776
G0 F18000 X-39.963 Y-6.799
G1 F720 X39.965 Y-6.8 E345.57539
G0 F18000 X39.965 Y-6.4
G1 F720 X-39.963 Y-6.399 E349.56296
G0 F18000 X-39.963 Y-5.999
G1 F720 X39.965 Y-6 E353.55059
G0 F18000 X39.965 Y-5.6
G1 F720 X-39.963 Y-5.599 E357.53816
G0 F18000 X-39.963 Y-5.199
G1 F720 X39.965 Y-5.2 E361.52578
G0 F18000 X39.965 Y-4.8
G1 F720 X-39.963 Y-4.799 E365.51336
G0 F18000 X-39.963 Y-4.399
G1 F720 X39.965 Y-4.4 E369.50098
G0 F18000 X39.965 Y-4
G1 F720 X-39.963 Y-3.999 E373.48856
G0 F18000 X-39.963 Y-3.599
G1 F720 X39.965 Y-3.6 E377.47618
G0 F18000 X39.965 Y-3.2
G1 F720 X-39.963 Y-3.199 E381.46376
G0 F18000 X-39.963 Y-2.799
G1 F720 X39.965 Y-2.8 E385.45138
G0 F18000 X39.965 Y-2.4
G1 F720 X-39.963 Y-2.399 E389.43895
G0 F18000 X-39.963 Y-1.999
G1 F720 X39.965 Y-2 E393.42658
G0 F18000 X39.965 Y-1.6
G1 F720 X-39.963 Y-1.599 E397.41415
G0 F18000 X-39.963 Y-1.199
G1 F720 X39.965 Y-1.2 E401.40178
G0 F18000 X39.965 Y-0.8
G1 F720 X-39.963 Y-0.799 E405.38935
G0 F18000 X-39.963 Y-0.399
G1 F720 X39.965 Y-0.4 E409.37697
G0 F18000 X39.965 Y0
G1 F720 X-39.963 Y0 E413.36455
G0 F18000 X-39.963 Y0.4
G1 F720 X39.965 Y0.399 E417.35217
G0 F18000 X39.965 Y0.799
G1 F720 X-39.963 Y0.8 E421.33975
G0 F18000 X-39.963 Y1.2
G1 F720 X39.965 Y1.199 E425.32737
G0 F18000 X39.965 Y1.599
G1 F720 X-39.963 Y1.6 E429.31495
G0 F18000 X-39.963 Y2
G1 F720 X39.965 Y1.999 E433.30257
G0 F18000 X39.965 Y2.399
G1 F720 X-39.963 Y2.4 E437.29014
G0 F18000 X-39.963 Y2.8
G1 F720 X39.965 Y2.799 E441.27777
G0 F18000 X39.965 Y3.199
G1 F720 X-39.963 Y3.2 E445.26534
G0 F18000 X-39.963 Y3.6
G1 F720 X39.965 Y3.599 E449.25297
G0 F18000 X39.965 Y3.999
G1 F720 X-39.963 Y4 E453.24054
G0 F18000 X-39.963 Y4.4
G1 F720 X39.965 Y4.399 E457.22816
G0 F18000 X39.965 Y4.799
G1 F720 X-39.963 Y4.8 E461.21574
G0 F18000 X-39.963 Y5.2
G1 F720 X39.965 Y5.199 E465.20336
G0 F18000 X39.965 Y5.599
G1 F720 X-39.963 Y5.6 E469.19094
G0 F18000 X-39.963 Y6
G1 F720 X39.965 Y5.999 E473.17856
G0 F18000 X39.965 Y6.399
G1 F720 X-39.963 Y6.4 E477.16614
G0 F18000 X-39.963 Y6.8
G1 F720 X39.965 Y6.799 E481.15376
G0 F18000 X39.965 Y7.199
G1 F720 X-39.963 Y7.2 E485.14133
G0 F18000 X-39.963 Y7.6
G1 F720 X39.965 Y7.599 E489.12896
G0 F18000 X39.965 Y7.999
G1 F720 X-39.963 Y8 E493.11653
G0 F18000 X-39.963 Y8.4
G1 F720 X39.965 Y8.399 E497.10416
G0 F18000 X39.965 Y8.799
G1 F720 X-39.963 Y8.8 E501.09173
G0 F18000 X-39.963 Y9.2
G1 F720 X39.965 Y9.199 E505.07935
G0 F18000 X39.965 Y9.599
G1 F720 X-39.963 Y9.6 E509.06693
G0 F18000 X-39.963 Y10
G1 F720 X39.965 Y9.999 E513.05455
G0 F18000 X39.965 Y10.399
G1 F720 X-39.963 Y10.4 E517.04213
G0 F18000 X-39.963 Y10.8
G1 F720 X39.965 Y10.799 E521.02975
G0 F18000 X39.965 Y11.199
G1 F720 X-39.963 Y11.2 E525.01733
G0 F18000 X-39.963 Y11.6
G1 F720 X39.965 Y11.599 E529.00495
G0 F18000 X39.965 Y11.999
G1 F720 X-39.963 Y12 E532.99252
G0 F18000 X-39.963 Y12.4
G1 F720 X39.965 Y12.399 E536.98015
G0 F18000 X39.965 Y12.799
G1 F720 X-39.963 Y12.8 E540.96772
G0 F18000 X-39.963 Y13.2
G1 F720 X39.965 Y13.199 E544.95535
G0 F18000 X39.965 Y13.599
G1 F720 X-39.963 Y13.6 E548.94292
G0 F18000 X-39.963 Y14
G1 F720 X39.965 Y13.999 E552.93054
G0 F18000 X39.965 Y14.399
G1 F720 X-39.963 Y14.4 E556.91812
G0 F18000 X-39.963 Y14.8
G1 F720 X39.965 Y14.799 E560.90574
G0 F18000 X39.965 Y15.199
G1 F720 X-39.963 Y15.2 E564.89332
G0 F18000 X-39.963 Y15.6
G1 F720 X39.965 Y15.599 E568.88094
G0 F18000 X39.965 Y15.999
G1 F720 X-39.963 Y16 E572.86852
G0 F18000 X-39.963 Y16.4
G1 F720 X39.965 Y16.399 E576.85614
G0 F18000 X39.965 Y16.799
G1 F720 X-39.963 Y16.8 E580.84371
G0 F18000 X-39.963 Y17.2
G1 F720 X39.965 Y17.199 E584.83134
G0 F18000 X39.965 Y17.599
G1 F720 X-39.963 Y17.6 E588.81891
G0 F18000 X-39.963 Y18
G1 F720 X39.965 Y17.999 E592.80654
G0 F18000 X39.965 Y18.399
G1 F720 X-39.963 Y18.4 E596.79411
G0 F18000 X-39.963 Y18.8
G1 F720 X39.965 Y18.799 E600.78173
G0 F18000 X39.965 Y19.199
G1 F720 X-39.963 Y19.2 E604.76931
G0 F18000 X-39.963 Y19.6
G1 F720 X39.965 Y19.599 E608.75693
G0 F18000 X39.965 Y19.999
G1 F720 X-39.963 Y20 E612.74451
G0 F18000 X-39.963 Y20.4
G1 F720 X39.965 Y20.399 E616.73213
G0 F18000 X39.965 Y20.799
G1 F720 X-39.963 Y20.8 E620.71971
G0 F18000 X-39.963 Y21.2
G1 F720 X39.965 Y21.199 E624.70733
G0 F18000 X39.965 Y21.599
G1 F720 X-39.963 Y21.6 E628.6949
G0 F18000 X-39.963 Y22
G1 F720 X39.965 Y21.999 E632.68253
G0 F18000 X39.965 Y22.399
G1 F720 X-39.963 Y22.4 E636.6701
G0 F18000 X-39.963 Y22.8
G1 F720 X39.965 Y22.799 E640.65773
G0 F18000 X39.965 Y23.199
G1 F720 X-39.963 Y23.2 E644.6453
G0 F18000 X-39.963 Y23.6
G1 F720 X39.965 Y23.599 E648.63292
G0 F18000 X39.965 Y23.999
G1 F720 X-39.963 Y24 E652.6205
G0 F18000 X-39.963 Y24.4
G1 F720 X39.965 Y24.399 E656.60812
G0 F18000 X39.965 Y24.799
G1 F720 X-39.963 Y24.8 E660.5957
G0 F18000 X-39.963 Y25.2
G1 F720 X39.965 Y25.199 E664.58332
G0 F18000 X39.965 Y25.599
G1 F720 X-39.963 Y25.6 E668.5709
G0 F18000 X-39.963 Y26
G1 F720 X39.965 Y25.999 E672.55852
G0 F18000 X39.965 Y26.399
G1 F720 X-39.963 Y26.4 E676.54609
G0 F18000 X-39.963 Y26.8
G1 F720 X39.965 Y26.799 E680.53372
G0 F18000 X39.965 Y27.199
G1 F720 X-39.963 Y27.2 E684.52129
G0 F18000 X-39.963 Y27.6
G1 F720 X39.965 Y27.599 E688.50892
G0 F18000 X39.965 Y27.999
G1 F720 X-39.963 Y28 E692.49649
G0 F18000 X-39.963 Y28.4
G1 F720 X39.965 Y28.399 E696.48411
G0 F18000 X39.965 Y28.799
G1 F720 X-39.963 Y28.8 E700.47169
G0 F18000 X-39.963 Y29.2
G1 F720 X39.965 Y29.199 E704.45931
G0 F18000 X39.965 Y29.599
G1 F720 X-39.963 Y29.6 E708.44689
G0 F18000 X-39.963 Y30
G1 F720 X39.965 Y29.999 E712.43451
G0 F18000 X39.965 Y30.399
G1 F720 X-39.963 Y30.4 E716.42209
G0 F18000 X-39.963 Y30.8
G1 F720 X39.965 Y30.799 E720.40971
G0 F18000 X39.965 Y31.199
G1 F720 X-39.963 Y31.2 E724.39728
G0 F18000 X-39.963 Y31.6
G1 F720 X39.965 Y31.599 E728.38491
G0 F18000 X39.965 Y31.999
G1 F720 X-39.963 Y32 E732.37248
G0 F18000 X-39.963 Y32.4
G1 F720 X39.965 Y32.399 E736.36011
G0 F18000 X39.965 Y32.8
G1 F720 X-39.963 Y32.8 E740.34768
G0 F18000 X-39.963 Y33.2
G1 F720 X39.965 Y33.2 E744.3353
G0 F18000 X39.965 Y33.6
G1 F720 X-39.963 Y33.6 E748.32288
G0 F18000 X-39.933 Y34
G1 F720 X39.935 Y34 E752.30751
G0 F18000 X39.795 Y34.4
G1 F720 X-39.79 Y34.4 E756.27797
G0 F18000 X-39.321 Y34.8
G1 F720 X39.319 Y34.8 E760.20134
G0 F18000 X39.319 Y34.8 Z0.6
; LAYER:1
G0 X38.866 Y-35.128 Z0.5
G0 X38.863 Y-35.528
G0 X38.866 Y-35.229
G0 X38.866 Y-35.229
G0 X38.888 Y-35.578
G0 X38.847 Y-35.078
; TYPE:WALL-INNER
G1 F2400 X39.287 Y-35.012 E760.21983
G1 X39.526 Y-34.911 E760.23062
G1 X39.692 Y-34.794 E760.23907
G1 X39.807 Y-34.688 E760.24557
G1 X39.984 Y-34.456 E760.2577
G1 X40.102 Y-34.178 E760.27026
G1 X40.155 Y-33.776 E760.28711
G1 X40.155 Y33.778 E763.09568
G1 X40.102 Y34.18 E763.11253
G1 X40.061 Y34.302 E763.11787
G1 X39.982 Y34.462 E763.12527
G1 X39.903 Y34.58 E763.13115
G1 X39.76 Y34.736 E763.13992
G1 X39.638 Y34.837 E763.14648
G1 X39.498 Y34.925 E763.15332
G1 X39.257 Y35.027 E763.16416
G1 X38.853 Y35.08 E763.18106
G1 X-38.845 Y35.08 E766.41132
G1 X-39.284 Y35.014 E766.42973
G1 X-39.549 Y34.895 E766.44175
G1 X-39.783 Y34.715 E766.45397
G1 X-39.896 Y34.586 E766.46104
G1 X-39.981 Y34.459 E766.46734
G1 X-40.059 Y34.302 E766.47457
G1 X-40.1 Y34.18 E766.47987
G1 X-40.153 Y33.778 E766.49668
G1 X-40.153 Y-33.776 E769.30521
G1 X-40.1 Y-34.178 E769.32202
G1 X-40.059 Y-34.3 E769.32734
G1 X-39.9 Y-34.579 E769.34065
G1 X-39.757 Y-34.735 E769.34942
G1 X-39.636 Y-34.835 E769.35592
G1 X-39.5 Y-34.921 E769.36259
G1 X-39.254 Y-35.025 E769.37367
G1 X-38.851 Y-35.078 E769.39057
G1 X38.847 Y-35.078 E772.62087
G0 F18000 X38.888 Y-35.578
; TYPE:WALL-OUTER
G1 F2100 X39.408 Y-35.5 E772.64274
G1 X39.621 Y-35.422 E772.65217
G1 X39.777 Y-35.344 E772.65942
G1 X40.006 Y-35.184 E772.67103
G1 X40.172 Y-35.031 E772.68042
G1 X40.319 Y-34.854 E772.68998
G1 X40.421 Y-34.702 E772.69759
G1 X40.521 Y-34.498 E772.70704
G1 X40.592 Y-34.289 E772.71622
G1 X40.655 Y-33.81 E772.7363
G1 X40.655 Y33.812 E775.5477
G1 X40.592 Y34.291 E775.56778
G1 X40.521 Y34.5 E775.57694
G1 X40.419 Y34.708 E775.58656
G1 X40.296 Y34.892 E775.59573
G1 X40.108 Y35.097 E775.60727
G1 X39.934 Y35.242 E775.61666
G1 X39.737 Y35.365 E775.62628
G1 X39.528 Y35.462 E775.63582
G1 X39.366 Y35.517 E775.64289
G1 X38.887 Y35.58 E775.66294
G1 X-38.886 Y35.58 E778.89632
G1 X-39.405 Y35.502 E778.91809
G1 X-39.614 Y35.425 E778.9273
G1 X-39.813 Y35.32 E778.9366
G1 X-40.01 Y35.181 E778.94656
G1 X-40.137 Y35.07 E778.95352
G1 X-40.29 Y34.895 E778.96312
G1 X-40.419 Y34.703 E778.97268
G1 X-40.519 Y34.5 E778.98203
G1 X-40.59 Y34.291 E778.99116
G1 X-40.653 Y33.812 E779.0112
G1 X-40.653 Y-33.81 E781.82255
G1 X-40.59 Y-34.289 E781.8426
G1 X-40.519 Y-34.498 E781.85173
G1 X-40.419 Y-34.701 E781.86111
G1 X-40.293 Y-34.889 E781.87048
G1 X-40.101 Y-35.099 E781.88228
G1 X-39.932 Y-35.24 E781.8914
G1 X-39.735 Y-35.363 E781.90104
G1 X-39.525 Y-35.46 E781.91064
G1 X-39.363 Y-35.515 E781.91774
G1 X-38.885 Y-35.578 E781.93778
G1 X38.888 Y-35.578 E785.1712
G0 F18000 X38.999 Y-34.609
; TYPE:FILL
G1 F2400 X39 Y34.616 E788.04924
G0 F18000 X38.5 Y34.639
G1 F2400 X38.499 Y-34.637 E790.92936
G0 F18000 X37.999 Y-34.637
G1 F2400 X38 Y34.639 E793.80952
G0 F18000 X37.5 Y34.639
G1 F2400 X37.499 Y-34.637 E796.68964
G0 F18000 X36.999 Y-34.637
G1 F2400 X37 Y34.639 E799.56981
G0 F18000 X36.5 Y34.639
G1 F2400 X36.499 Y-34.637 E802.44992
G0 F18000 X35.999 Y-34.637
G1 F2400 X36 Y34.639 E805.33009
G0 F18000 X35.5 Y34.639
G1 F2400 X35.499 Y-34.637 E808.21021
G0 F18000 X34.999 Y-34.637
G1 F2400 X35 Y34.639 E811.09037
G0 F18000 X34.5 Y34.639
G1 F2400 X34.499 Y-34.637 E813.97049
G0 F18000 X33.999 Y-34.637
G1 F2400 X34 Y34.639 E816.85065
G0 F18000 X33.5 Y34.639
G1 F2400 X33.499 Y-34.637 E819.73077
G0 F18000 X32.999 Y-34.637
G1 F2400 X33 Y34.639 E822.61093
G0 F18000 X32.5 Y34.639
G1 F2400 X32.499 Y-34.637 E825.49105
G0 F18000 X31.999 Y-34.637
G1 F2400 X32 Y34.639 E828.37121
G0 F18000 X31.5 Y34.639
G1 F2400 X31.499 Y-34.637 E831.25133
G0 F18000 X30.999 Y-34.637
G1 F2400 X31 Y34.639 E834.13149
G0 F18000 X30.5 Y34.639
G1 F2400 X30.499 Y-34.637 E837.01161
G0 F18000 X29.999 Y-34.637
G1 F2400 X30 Y34.639 E839.89177
G0 F18000 X29.5 Y34.64
G1 F2400 X29.499 Y-34.637 E842.77193
G0 F18000 X28.999 Y-34.637
G1 F2400 X29 Y34.64 E845.65214
G0 F18000 X28.5 Y34.64
G1 F2400 X28.499 Y-34.637 E848.5323
G0 F18000 X27.999 Y-34.637
G1 F2400 X28 Y34.64 E851.4125
G0 F18000 X27.5 Y34.64
G1 F2400 X27.499 Y-34.637 E854.29266
G0 F18000 X26.999 Y-34.637
G1 F2400 X27 Y34.64 E857.17287
G0 F18000 X26.5 Y34.64
G1 F2400 X26.499 Y-34.637 E860.05303
G0 F18000 X25.999 Y-34.637
G1 F2400 X26 Y34.64 E862.93323
G0 F18000 X25.5 Y34.64
G1 F2400 X25.499 Y-34.637 E865.81339
G0 F18000 X24.999 Y-34.637
G1 F2400 X25 Y34.64 E868.6936
G0 F18000 X24.5 Y34.64
G1 F2400 X24.499 Y-34.637 E871.57376
G0 F18000 X23.999 Y-34.637
G1 F2400 X24 Y34.64 E874.45396
G0 F18000 X23.5 Y34.64
G1 F2400 X23.499 Y-34.637 E877.33412
G0 F18000 X22.999 Y-34.637
G1 F2400 X23 Y34.64 E880.21432
G0 F18000 X22.5 Y34.64
G1 F2400 X22.499 Y-34.637 E883.09449
G0 F18000 X21.999 Y-34.637
G1 F2400 X22 Y34.64 E885.97469
G0 F18000 X21.5 Y34.64
G1 F2400 X21.499 Y-34.637 E888.85485
G0 F18000 X20.999 Y-34.637
G1 F2400 X21 Y34.64 E891.73505
G0 F18000 X20.5 Y34.64
G1 F2400 X20.499 Y-34.637 E894.61521
G0 F18000 X19.999 Y-34.637
G1 F2400 X20 Y34.64 E897.49542
G0 F18000 X19.5 Y34.64
G1 F2400 X19.499 Y-34.637 E900.37558
G0 F18000 X18.999 Y-34.637
G1 F2400 X19 Y34.64 E903.25578
G0 F18000 X18.5 Y34.64
G1 F2400 X18.499 Y-34.637 E906.13594
G0 F18000 X17.999 Y-34.637
G1 F2400 X18 Y34.64 E909.01615
G0 F18000 X17.5 Y34.64
G1 F2400 X17.499 Y-34.637 E911.89631
G0 F18000 X16.999 Y-34.637
G1 F2400 X17 Y34.64 E914.77651
G0 F18000 X16.5 Y34.64
G1 F2400 X16.499 Y-34.637 E917.65667
G0 F18000 X15.999 Y-34.637
G1 F2400 X16 Y34.64 E920.53687
G0 F18000 X15.5 Y34.64
G1 F2400 X15.499 Y-34.637 E923.41704
G0 F18000 X14.999 Y-34.637
G1 F2400 X15 Y34.64 E926.29724
G0 F18000 X14.5 Y34.64
G1 F2400 X14.499 Y-34.637 E929.1774
G0 F18000 X13.999 Y-34.637
G1 F2400 X14 Y34.64 E932.0576
G0 F18000 X13.5 Y34.64
G1 F2400 X13.499 Y-34.637 E934.93776
G0 F18000 X12.999 Y-34.637
G1 F2400 X13 Y34.64 E937.81797
G0 F18000 X12.5 Y34.64
G1 F2400 X12.499 Y-34.637 E940.69813
G0 F18000 X11.999 Y-34.637
G1 F2400 X12 Y34.64 E943.57833
G0 F18000 X11.5 Y34.64
G1 F2400 X11.499 Y-34.637 E946.45849
G0 F18000 X10.999 Y-34.637
G1 F2400 X11 Y34.64 E949.3387
G0 F18000 X10.5 Y34.64
G1 F2400 X10.499 Y-34.637 E952.21886
G0 F18000 X9.999 Y-34.637
G1 F2400 X10 Y34.64 E955.09906
G0 F18000 X9.5 Y34.64
G1 F2400 X9.499 Y-34.637 E957.97922
G0 F18000 X8.999 Y-34.637
G1 F2400 X9 Y34.64 E960.85943
G0 F18000 X8.5 Y34.64
G1 F2400 X8.499 Y-34.637 E963.73959
G0 F18000 X7.999 Y-34.637
G1 F2400 X8 Y34.64 E966.61979
G0 F18000 X7.5 Y34.64
G1 F2400 X7.499 Y-34.637 E969.49995
G0 F18000 X6.999 Y-34.637
G1 F2400 X7 Y34.64 E972.38015
G0 F18000 X6.5 Y34.64
G1 F2400 X6.499 Y-34.637 E975.26032
G0 F18000 X5.999 Y-34.637
G1 F2400 X6 Y34.64 E978.14052
G0 F18000 X5.5 Y34.64
G1 F2400 X5.499 Y-34.637 E981.02068
G0 F18000 X4.999 Y-34.637
G1 F2400 X5 Y34.64 E983.90088
G0 F18000 X4.5 Y34.64
G1 F2400 X4.499 Y-34.637 E986.78104
G0 F18000 X3.999 Y-34.637
G1 F2400 X4 Y34.64 E989.66125
G0 F18000 X3.5 Y34.64
G1 F2400 X3.499 Y-34.637 E992.54141
G0 F18000 X2.999 Y-34.637
G1 F2400 X3 Y34.64 E995.42161
G0 F18000 X2.5 Y34.64
G1 F2400 X2.499 Y-34.637 E998.30177
G0 F18000 X1.999 Y-34.637
G1 F2400 X2 Y34.64 E1001.18198
G0 F18000 X1.5 Y34.64
G1 F2400 X1.499 Y-34.637 E1004.06214
G0 F18000 X0.999 Y-34.637
G1 F2400 X1 Y34.64 E1006.94234
G0 F18000 X0.5 Y34.64
G1 F2400 X0.499 Y-34.637 E1009.8225
G0 F18000 X0 Y-34.637
G1 F2400 X0 Y34.639 E1012.70266
G0 F18000 X-0.499 Y34.639
G1 F2400 X-0.5 Y-34.638 E1015.58282
G0 F18000 X-1 Y-34.638
G1 F2400 X-0.999 Y34.639 E1018.46303
G0 F18000 X-1.499 Y34.639
G1 F2400 X-1.5 Y-34.638 E1021.34319
G0 F18000 X-2 Y-34.638
G1 F2400 X-1.999 Y34.639 E1024.22339
G0 F18000 X-2.499 Y34.639
G1 F2400 X-2.5 Y-34.638 E1027.10355
G0 F18000 X-3 Y-34.638
G1 F2400 X-2.999 Y34.639 E1029.98376
G0 F18000 X-3.499 Y34.639
G1 F2400 X-3.5 Y-34.638 E1032.86392
G0 F18000 X-4 Y-34.638
G1 F2400 X-3.999 Y34.639 E1035.74412
G0 F18000 X-4.499 Y34.639
G1 F2400 X-4.5 Y-34.638 E1038.62428
G0 F18000 X-5 Y-34.638
G1 F2400 X-4.999 Y34.639 E1041.50448
G0 F18000 X-5.499 Y34.639
G1 F2400 X-5.5 Y-34.638 E1044.38465
G0 F18000 X-6 Y-34.638
G1 F2400 X-5.999 Y34.639 E1047.26485
G0 F18000 X-6.499 Y34.639
G1 F2400 X-6.5 Y-34.638 E1050.14501
G0 F18000 X-7 Y-34.638
G1 F2400 X-6.999 Y34.639 E1053.02521
G0 F18000 X-7.499 Y34.639
G1 F2400 X-7.5 Y-34.638 E1055.90537
G0 F18000 X-8 Y-34.638
G1 F2400 X-7.999 Y34.639 E1058.78558
G0 F18000 X-8.499 Y34.639
G1 F2400 X-8.5 Y-34.638 E1061.66574
G0 F18000 X-9 Y-34.638
G1 F2400 X-8.999 Y34.639 E1064.54594
G0 F18000 X-9.499 Y34.639
G1 F2400 X-9.5 Y-34.638 E1067.4261
G0 F18000 X-10 Y-34.638
G1 F2400 X-9.999 Y34.639 E1070.30631
G0 F18000 X-10.499 Y34.639
G1 F2400 X-10.5 Y-34.638 E1073.18647
G0 F18000 X-11 Y-34.638
G1 F2400 X-10.999 Y34.639 E1076.06667
G0 F18000 X-11.499 Y34.639
G1 F2400 X-11.5 Y-34.638 E1078.94683
G0 F18000 X-12 Y-34.638
G1 F2400 X-11.999 Y34.639 E1081.82704
G0 F18000 X-12.499 Y34.639
G1 F2400 X-12.5 Y-34.638 E1084.7072
G0 F18000 X-13 Y-34.638
G1 F2400 X-12.999 Y34.639 E1087.5874
G0 F18000 X-13.499 Y34.639
G1 F2400 X-13.5 Y-34.638 E1090.46756
G0 F18000 X-14 Y-34.638
G1 F2400 X-13.999 Y34.639 E1093.34776
G0 F18000 X-14.499 Y34.639
G1 F2400 X-14.5 Y-34.638 E1096.22793
G0 F18000 X-15 Y-34.638
G1 F2400 X-14.999 Y34.639 E1099.10813
G0 F18000 X-15.499 Y34.639
G1 F2400 X-15.5 Y-34.638 E1101.98829
G0 F18000 X-16 Y-34.638
G1 F2400 X-15.999 Y34.639 E1104.86849
G0 F18000 X-16.499 Y34.639
G1 F2400 X-16.5 Y-34.638 E1107.74865
G0 F18000 X-17 Y-34.638
G1 F2400 X-16.999 Y34.639 E1110.62886
G0 F18000 X-17.499 Y34.639
G1 F2400 X-17.5 Y-34.638 E1113.50902
G0 F18000 X-18 Y-34.638
G1 F2400 X-17.999 Y34.639 E1116.38922
G0 F18000 X-18.499 Y34.639
G1 F2400 X-18.5 Y-34.638 E1119.26938
G0 F18000 X-19 Y-34.638
G1 F2400 X-18.999 Y34.639 E1122.14959
G0 F18000 X-19.499 Y34.639
G1 F2400 X-19.5 Y-34.638 E1125.02975
G0 F18000 X-20 Y-34.638
G1 F2400 X-19.999 Y34.639 E1127.90995
G0 F18000 X-20.499 Y34.639
G1 F2400 X-20.5 Y-34.638 E1130.79011
G0 F18000 X-21 Y-34.638
G1 F2400 X-20.999 Y34.639 E1133.67031
G0 F18000 X-21.499 Y34.639
G1 F2400 X-21.5 Y-34.638 E1136.55048
G0 F18000 X-22 Y-34.638
G1 F2400 X-21.999 Y34.639 E1139.43068
G0 F18000 X-22.499 Y34.639
G1 F2400 X-22.5 Y-34.638 E1142.31084
G0 F18000 X-23 Y-34.638
G1 F2400 X-22.999 Y34.639 E1145.19104
G0 F18000 X-23.499 Y34.639
G1 F2400 X-23.5 Y-34.638 E1148.0712
G0 F18000 X-24 Y-34.638
G1 F2400 X-23.999 Y34.639 E1150.95141
G0 F18000 X-24.499 Y34.639
G1 F2400 X-24.5 Y-34.638 E1153.83157
G0 F18000 X-25 Y-34.638
G1 F2400 X-24.999 Y34.639 E1156.71177
G0 F18000 X-25.499 Y34.639
G1 F2400 X-25.5 Y-34.638 E1159.59193
G0 F18000 X-26 Y-34.638
G1 F2400 X-25.999 Y34.639 E1162.47214
G0 F18000 X-26.499 Y34.639
G1 F2400 X-26.5 Y-34.638 E1165.3523
G0 F18000 X-27 Y-34.638
G1 F2400 X-26.999 Y34.639 E1168.2325
G0 F18000 X-27.499 Y34.639
G1 F2400 X-27.5 Y-34.638 E1171.11266
G0 F18000 X-28 Y-34.638
G1 F2400 X-27.999 Y34.639 E1173.99287
G0 F18000 X-28.499 Y34.639
G1 F2400 X-28.5 Y-34.638 E1176.87303
G0 F18000 X-29 Y-34.638
G1 F2400 X-28.999 Y34.639 E1179.75323
G0 F18000 X-29.499 Y34.639
G1 F2400 X-29.5 Y-34.638 E1182.63339
G0 F18000 X-30 Y-34.637
G1 F2400 X-29.999 Y34.639 E1185.51355
G0 F18000 X-30.499 Y34.639
G1 F2400 X-30.5 Y-34.637 E1188.39367
G0 F18000 X-31 Y-34.637
G1 F2400 X-30.999 Y34.639 E1191.27383
G0 F18000 X-31.499 Y34.639
G1 F2400 X-31.5 Y-34.637 E1194.15395
G0 F18000 X-32 Y-34.637
G1 F2400 X-31.999 Y34.639 E1197.03411
G0 F18000 X-32.499 Y34.639
G1 F2400 X-32.5 Y-34.637 E1199.91423
G0 F18000 X-33 Y-34.637
G1 F2400 X-32.999 Y34.639 E1202.7944
G0 F18000 X-33.499 Y34.639
G1 F2400 X-33.5 Y-34.637 E1205.67452
G0 F18000 X-34 Y-34.637
G1 F2400 X-33.999 Y34.639 E1208.55468
G0 F18000 X-34.499 Y34.639
G1 F2400 X-34.5 Y-34.637 E1211.4348
G0 F18000 X-35 Y-34.637
G1 F2400 X-34.999 Y34.639 E1214.31496
G0 F18000 X-35.499 Y34.639
G1 F2400 X-35.5 Y-34.637 E1217.19508
G0 F18000 X-36 Y-34.637
G1 F2400 X-35.999 Y34.639 E1220.07524
G0 F18000 X-36.499 Y34.639
G1 F2400 X-36.5 Y-34.637 E1222.95536
G0 F18000 X-37 Y-34.637
G1 F2400 X-36.999 Y34.639 E1225.83552
G0 F18000 X-37.499 Y34.639
G1 F2400 X-37.5 Y-34.637 E1228.71564
G0 F18000 X-38 Y-34.637
G1 F2400 X-37.999 Y34.639 E1231.5958
G0 F18000 X-38.499 Y34.639
G1 F2400 X-38.5 Y-34.637 E1234.47592
G0 F18000 X-39 Y-34.613
G1 F2400 X-38.999 Y34.611 E1237.35392
G0 F18000 X-39.499 Y34.368
G1 F2400 X-39.5 Y-34.358 E1240.21117
G0 F18000 X39.499 Y-34.363
G0 X39.499 Y-34.363
G1 F2400 X39.5 Y34.36 E1243.06835
G0 F18000 X39.5 Y34.36 Z0.8
G0 X-39.705 Y-34.971
G0 X-39.705 Y-34.971
G0 X-39.909 Y-35.255
G0 X-39.909 Y-35.255 Z1
; LAYER:2
M106 S153
G0 X-39.909 Y-35.255 Z0.7
G0 X-39.624 Y-34.843
; TYPE:WALL-INNER
G1 F2400 X-39.482 Y-34.93 E1243.07525
G1 X-39.252 Y-35.025 E1243.08558
G1 X-38.851 Y-35.078 E1243.10239
G1 X38.853 Y-35.078 E1246.33295
G1 X39.244 Y-35.027 E1246.34934
G1 X39.517 Y-34.916 E1246.36159
G1 X39.705 Y-34.782 E1246.37119
G1 X39.82 Y-34.673 E1246.37778
G1 X39.983 Y-34.457 E1246.38903
G1 X40.061 Y-34.3 E1246.39632
G1 X40.102 Y-34.178 E1246.40167
G1 X40.155 Y-33.776 E1246.41852
G1 X40.155 Y33.778 E1249.22709
G1 X40.102 Y34.18 E1249.24395
G1 X40.061 Y34.302 E1249.24928
G1 X39.982 Y34.462 E1249.25668
G1 X39.904 Y34.578 E1249.26247
G1 X39.746 Y34.748 E1249.27209
G1 X39.624 Y34.847 E1249.27859
G1 X39.485 Y34.932 E1249.28533
G1 X39.255 Y35.027 E1249.29564
G1 X38.853 Y35.08 E1249.31246
G1 X-38.851 Y35.08 E1252.54297
G1 X-39.238 Y35.029 E1252.55915
G1 X-39.427 Y34.959 E1252.56748
G1 X-39.568 Y34.882 E1252.5741
G1 X-39.783 Y34.715 E1252.58536
G1 X-39.896 Y34.586 E1252.59243
G1 X-39.981 Y34.459 E1252.59873
G1 X-40.059 Y34.302 E1252.60596
G1 X-40.1 Y34.18 E1252.61126
G1 X-40.153 Y33.778 E1252.62807
G1 X-40.153 Y-33.776 E1255.4366
G1 X-40.1 Y-34.178 E1255.45342
G1 X-40.059 Y-34.3 E1255.45873
G1 X-39.981 Y-34.457 E1255.46598
G1 X-39.901 Y-34.577 E1255.47194
G1 X-39.744 Y-34.745 E1255.48147
G1 X-39.624 Y-34.843 E1255.48788
G0 F18000 X-39.909 Y-35.255
; TYPE:WALL-OUTER
G1 F2100 X-39.718 Y-35.372 E1255.49718
G1 X-39.363 Y-35.515 E1255.51307
G1 X-38.885 Y-35.578 E1255.53311
G1 X38.887 Y-35.578 E1258.76649
G1 X39.363 Y-35.516 E1258.78645
G1 X39.775 Y-35.346 E1258.80498
G1 X40.026 Y-35.167 E1258.8178
G1 X40.185 Y-35.016 E1258.82692
G1 X40.421 Y-34.7 E1258.84331
G1 X40.521 Y-34.498 E1258.85268
G1 X40.592 Y-34.289 E1258.86186
G1 X40.655 Y-33.81 E1258.88195
G1 X40.655 Y33.812 E1261.69334
G1 X40.592 Y34.291 E1261.71342
G1 X40.521 Y34.5 E1261.72259
G1 X40.419 Y34.708 E1261.7322
G1 X40.298 Y34.888 E1261.74119
G1 X40.087 Y35.114 E1261.75402
G1 X39.909 Y35.259 E1261.76353
G1 X39.72 Y35.375 E1261.77272
G1 X39.366 Y35.517 E1261.78854
G1 X38.887 Y35.58 E1261.80858
G1 X-38.885 Y35.58 E1265.04192
G1 X-39.362 Y35.517 E1265.06188
G1 X-39.632 Y35.416 E1265.07381
G1 X-39.836 Y35.306 E1265.08339
G1 X-40.14 Y35.067 E1265.09941
G1 X-40.29 Y34.895 E1265.10884
G1 X-40.419 Y34.703 E1265.1184
G1 X-40.519 Y34.5 E1265.12775
G1 X-40.59 Y34.291 E1265.13688
G1 X-40.653 Y33.812 E1265.15691
G1 X-40.653 Y-33.81 E1267.96827
G1 X-40.59 Y-34.289 E1267.98831
G1 X-40.519 Y-34.498 E1267.99745
G1 X-40.419 Y-34.701 E1268.00682
G1 X-40.291 Y-34.892 E1268.01635
G1 X-40.089 Y-35.109 E1268.02864
G1 X-39.909 Y-35.255 E1268.03825
G0 F18000 X-39.338 Y-34.5
; TYPE:FILL
G1 F2400 X39.339 Y-34.5 E1271.30926
G0 F18000 X39.681 Y-34
G1 F2400 X-39.673 Y-34 E1274.60838
G0 F18000 X-39.713 Y-33.5
G1 F2400 X39.715 Y-33.5 E1277.91061
G0 F18000 X39.715 Y-33
G1 F2400 X-39.713 Y-33 E1281.2128
G0 F18000 X-39.713 Y-32.499
G1 F2400 X39.715 Y-32.5 E1284.51503
G0 F18000 X39.715 Y-32
G1 F2400 X-39.713 Y-31.999 E1287.81722
G0 F18000 X-39.713 Y-31.499
G1 F2400 X39.715 Y-31.5 E1291.11946
G0 F18000 X39.715 Y-31
G1 F2400 X-39.713 Y-30.999 E1294.42165
G0 F18000 X-39.713 Y-30.499
G1 F2400 X39.715 Y-30.5 E1297.72388
G0 F18000 X39.715 Y-30
G1 F2400 X-39.713 Y-29.999 E1301.02607
G0 F18000 X-39.713 Y-29.499
G1 F2400 X39.715 Y-29.5 E1304.3283
G0 F18000 X39.715 Y-29
G1 F2400 X-39.713 Y-28.999 E1307.63049
G0 F18000 X-39.713 Y-28.499
G1 F2400 X39.715 Y-28.5 E1310.93273
G0 F18000 X39.715 Y-28
G1 F2400 X-39.713 Y-27.999 E1314.23492
G0 F18000 X-39.713 Y-27.499
G1 F2400 X39.715 Y-27.5 E1317.53715
G0 F18000 X39.715 Y-27
G1 F2400 X-39.713 Y-26.999 E1320.83934
G0 F18000 X-39.713 Y-26.499
G1 F2400 X39.715 Y-26.5 E1324.14157
G0 F18000 X39.715 Y-26
G1 F2400 X-39.713 Y-25.999 E1327.44376
G0 F18000 X-39.713 Y-25.499
G1 F2400 X39.715 Y-25.5 E1330.746
G0 F18000 X39.715 Y-25
G1 F2400 X-39.713 Y-24.999 E1334.04819
G0 F18000 X-39.713 Y-24.499
G1 F2400 X39.715 Y-24.5 E1337.35042
G0 F18000 X39.715 Y-24
G1 F2400 X-39.713 Y-23.999 E1340.65261
G0 F18000 X-39.713 Y-23.499
G1 F2400 X39.715 Y-23.5 E1343.95484
G0 F18000 X39.715 Y-23
G1 F2400 X-39.713 Y-22.999 E1347.25703
G0 F18000 X-39.713 Y-22.499
G1 F2400 X39.715 Y-22.5 E1350.55927
G0 F18000 X39.715 Y-22
G1 F2400 X-39.713 Y-21.999 E1353.86146
G0 F18000 X-39.713 Y-21.499
G1 F2400 X39.715 Y-21.5 E1357.16369
G0 F18000 X39.715 Y-21
G1 F2400 X-39.713 Y-20.999 E1360.46588
G0 F18000 X-39.713 Y-20.499
G1 F2400 X39.715 Y-20.5 E1363.76811
G0 F18000 X39.715 Y-20
G1 F2400 X-39.713 Y-19.999 E1367.0703
G0 F18000 X-39.713 Y-19.499
G1 F2400 X39.715 Y-19.5 E1370.37254
G0 F18000 X39.715 Y-19
G1 F2400 X-39.713 Y-18.999 E1373.67473
G0 F18000 X-39.713 Y-18.499
G1 F2400 X39.715 Y-18.5 E1376.97696
G0 F18000 X39.715 Y-18
G1 F2400 X-39.713 Y-17.999 E1380.27915
G0 F18000 X-39.713 Y-17.499
G1 F2400 X39.715 Y-17.5 E1383.58138
G0 F18000 X39.715 Y-17
G1 F2400 X-39.713 Y-16.999 E1386.88357
G0 F18000 X-39.713 Y-16.499
G1 F2400 X39.715 Y-16.5 E1390.18581
G0 F18000 X39.715 Y-16
G1 F2400 X-39.713 Y-15.999 E1393.488
G0 F18000 X-39.713 Y-15.499
G1 F2400 X39.715 Y-15.5 E1396.79023
G0 F18000 X39.715 Y-15
G1 F2400 X-39.713 Y-14.999 E1400.09242
G0 F18000 X-39.713 Y-14.499
G1 F2400 X39.715 Y-14.5 E1403.39465
G0 F18000 X39.715 Y-14
G1 F2400 X-39.713 Y-13.999 E1406.69684
G0 F18000 X-39.713 Y-13.499
G1 F2400 X39.715 Y-13.5 E1409.99908
G0 F18000 X39.715 Y-13
G1 F2400 X-39.713 Y-12.999 E1413.30127
G0 F18000 X-39.713 Y-12.499
G1 F2400 X39.715 Y-12.5 E1416.6035
G0 F18000 X39.715 Y-12
G1 F2400 X-39.713 Y-11.999 E1419.90569
G0 F18000 X-39.713 Y-11.499
G1 F2400 X39.715 Y-11.5 E1423.20792
G0 F18000 X39.715 Y-11
G1 F2400 X-39.713 Y-10.999 E1426.51012
G0 F18000 X-39.713 Y-10.499
G1 F2400 X39.715 Y-10.5 E1429.81235
G0 F18000 X39.715 Y-10
G1 F2400 X-39.713 Y-9.999 E1433.11454
G0 F18000 X-39.713 Y-9.499
G1 F2400 X39.715 Y-9.5 E1436.41677
G0 F18000 X39.715 Y-9
G1 F2400 X-39.713 Y-8.999 E1439.71896
G0 F18000 X-39.713 Y-8.499
G1 F2400 X39.715 Y-8.5 E1443.02119
G0 F18000 X39.715 Y-8
G1 F2400 X-39.713 Y-7.999 E1446.32339
G0 F18000 X-39.713 Y-7.499
G1 F2400 X39.715 Y-7.5 E1449.62562
G0 F18000 X39.715 Y-7
G1 F2400 X-39.713 Y-6.999 E1452.92781
G0 F18000 X-39.713 Y-6.499
G1 F2400 X39.715 Y-6.5 E1456.23004
G0 F18000 X39.715 Y-6
G1 F2400 X-39.713 Y-5.999 E1459.53223
G0 F18000 X-39.713 Y-5.499
G1 F2400 X39.715 Y-5.5 E1462.83446
G0 F18000 X39.715 Y-5
G1 F2400 X-39.713 Y-4.999 E1466.13666
G0 F18000 X-39.713 Y-4.499
G1 F2400 X39.715 Y-4.5 E1469.43889
G0 F18000 X39.715 Y-4
G1 F2400 X-39.713 Y-3.999 E1472.74108
G0 F18000 X-39.713 Y-3.499
G1 F2400 X39.715 Y-3.5 E1476.04331
G0 F18000 X39.715 Y-3
G1 F2400 X-39.713 Y-2.999 E1479.3455
G0 F18000 X-39.713 Y-2.499
G1 F2400 X39.715 Y-2.5 E1482.64774
G0 F18000 X39.715 Y-2
G1 F2400 X-39.713 Y-1.999 E1485.94993
G0 F18000 X-39.713 Y-1.499
G1 F2400 X39.715 Y-1.5 E1489.25216
G0 F18000 X39.715 Y-1
G1 F2400 X-39.713 Y-0.999 E1492.55435
G0 F18000 X-39.713 Y-0.499
G1 F2400 X39.715 Y-0.5 E1495.85658
G0 F18000 X39.715 Y0
G1 F2400 X-39.713 Y0 E1499.15877
G0 F18000 X-39.713 Y0.5
G1 F2400 X39.715 Y0.499 E1502.46101
G0 F18000 X39.715 Y0.999
G1 F2400 X-39.713 Y1 E1505.7632
G0 F18000 X-39.713 Y1.5
G1 F2400 X39.715 Y1.499 E1509.06543
G0 F18000 X39.715 Y1.999
G1 F2400 X-39.713 Y2 E1512.36762
G0 F18000 X-39.713 Y2.5
G1 F2400 X39.715 Y2.499 E1515.66985
G0 F18000 X39.715 Y2.999
G1 F2400 X-39.713 Y3 E1518.97204
G0 F18000 X-39.713 Y3.5
G1 F2400 X39.715 Y3.499 E1522.27428
G0 F18000 X39.715 Y3.999
G1 F2400 X-39.713 Y4 E1525.57647
G0 F18000 X-39.713 Y4.5
G1 F2400 X39.715 Y4.499 E1528.8787
G0 F18000 X39.715 Y4.999
G1 F2400 X-39.713 Y5 E1532.18089
G0 F18000 X-39.713 Y5.5
G1 F2400 X39.715 Y5.499 E1535.48312
G0 F18000 X39.715 Y5.999
G1 F2400 X-39.713 Y6 E1538.78531
G0 F18000 X-39.713 Y6.5
G1 F2400 X39.715 Y6.499 E1542.08755
G0 F18000 X39.715 Y6.999
G1 F2400 X-39.713 Y7 E1545.38974
G0 F18000 X-39.713 Y7.5
G1 F2400 X39.715 Y7.499 E1548.69197
G0 F18000 X39.715 Y7.999
G1 F2400 X-39.713 Y8 E1551.99416
G0 F18000 X-39.713 Y8.5
G1 F2400 X39.715 Y8.499 E1555.29639
G0 F18000 X39.715 Y8.999
G1 F2400 X-39.713 Y9 E1558.59858
G0 F18000 X-39.713 Y9.5
G1 F2400 X39.715 Y9.499 E1561.90082
G0 F18000 X39.715 Y9.999
G1 F2400 X-39.713 Y10 E1565.20301
G0 F18000 X-39.713 Y10.5
G1 F2400 X39.715 Y10.499 E1568.50524
G0 F18000 X39.715 Y10.999
G1 F2400 X-39.713 Y11 E1571.80743
G0 F18000 X-39.713 Y11.5
G1 F2400 X39.715 Y11.499 E1575.10966
G0 F18000 X39.715 Y11.999
G1 F2400 X-39.713 Y12 E1578.41185
G0 F18000 X-39.713 Y12.5
G1 F2400 X39.715 Y12.499 E1581.71409
G0 F18000 X39.715 Y12.999
G1 F2400 X-39.713 Y13 E1585.01628
G0 F18000 X-39.713 Y13.5
G1 F2400 X39.715 Y13.499 E1588.31851
G0 F18000 X39.715 Y13.999
G1 F2400 X-39.713 Y14 E1591.6207
G0 F18000 X-39.713 Y14.5
G1 F2400 X39.715 Y14.499 E1594.92293
G0 F18000 X39.715 Y14.999
G1 F2400 X-39.713 Y15 E1598.22512
G0 F18000 X-39.713 Y15.5
G1 F2400 X39.715 Y15.499 E1601.52736
G0 F18000 X39.715 Y15.999
G1 F2400 X-39.713 Y16 E1604.82955
G0 F18000 X-39.713 Y16.5
G1 F2400 X39.715 Y16.499 E1608.13178
G0 F18000 X39.715 Y16.999
G1 F2400 X-39.713 Y17 E1611.43397
G0 F18000 X-39.713 Y17.5
G1 F2400 X39.715 Y17.499 E1614.7362
G0 F18000 X39.715 Y17.999
G1 F2400 X-39.713 Y18 E1618.0384
G0 F18000 X-39.713 Y18.5
G1 F2400 X39.715 Y18.499 E1621.34063
G0 F18000 X39.715 Y18.999
G1 F2400 X-39.713 Y19 E1624.64282
G0 F18000 X-39.713 Y19.5
G1 F2400 X39.715 Y19.499 E1627.94505
G0 F18000 X39.715 Y19.999
G1 F2400 X-39.713 Y20 E1631.24724
G0 F18000 X-39.713 Y20.5
G1 F2400 X39.715 Y20.499 E1634.54947
G0 F18000 X39.715 Y20.999
G1 F2400 X-39.713 Y21 E1637.85167
G0 F18000 X-39.713 Y21.5
G1 F2400 X39.715 Y21.499 E1641.1539
G0 F18000 X39.715 Y21.999
G1 F2400 X-39.713 Y22 E1644.45609
G0 F18000 X-39.713 Y22.5
G1 F2400 X39.715 Y22.499 E1647.75832
G0 F18000 X39.715 Y22.999
G1 F2400 X-39.713 Y23 E1651.06051
G0 F18000 X-39.713 Y23.5
G1 F2400 X39.715 Y23.499 E1654.36274
G0 F18000 X39.715 Y23.999
G1 F2400 X-39.713 Y24 E1657.66494
G0 F18000 X-39.713 Y24.5
G1 F2400 X39.715 Y24.499 E1660.96717
G0 F18000 X39.715 Y24.999
G1 F2400 X-39.713 Y25 E1664.26936
G0 F18000 X-39.713 Y25.5
G1 F2400 X39.715 Y25.499 E1667.57159
G0 F18000 X39.715 Y25.999
G1 F2400 X-39.713 Y26 E1670.87378
G0 F18000 X-39.713 Y26.5
G1 F2400 X39.715 Y26.499 E1674.17602
G0 F18000 X39.715 Y26.999
G1 F2400 X-39.713 Y27 E1677.47821
G0 F18000 X-39.713 Y27.5
G1 F2400 X39.715 Y27.499 E1680.78044
G0 F18000 X39.715 Y27.999
G1 F2400 X-39.713 Y28 E1684.08263
G0 F18000 X-39.713 Y28.5
G1 F2400 X39.715 Y28.499 E1687.38486
G0 F18000 X39.715 Y28.999
G1 F2400 X-39.713 Y29 E1690.68705
G0 F18000 X-39.713 Y29.5
G1 F2400 X39.715 Y29.499 E1693.98929
G0 F18000 X39.715 Y29.999
G1 F2400 X-39.713 Y30 E1697.29148
G0 F18000 X-39.713 Y30.5
G1 F2400 X39.715 Y30.499 E1700.59371
G0 F18000 X39.715 Y30.999
G1 F2400 X-39.713 Y31 E1703.8959
G0 F18000 X-39.713 Y31.5
G1 F2400 X39.715 Y31.499 E1707.19813
G0 F18000 X39.715 Y31.999
G1 F2400 X-39.713 Y32 E1710.50032
G0 F18000 X-39.713 Y32.5
G1 F2400 X39.715 Y32.499 E1713.80256
G0 F18000 X39.715 Y33
G1 F2400 X-39.713 Y33 E1717.10475
G0 F18000 X-39.713 Y33.5
G1 F2400 X39.715 Y33.5 E1720.40698
G0 F18000 X39.676 Y34
G1 F2400 X-39.679 Y34 E1723.70614
G0 F18000 X-39.342 Y34.5
G1 F2400 X39.343 Y34.5 E1726.97748
G0 F18000 X39.343 Y34.5 Z1
G0 X-39.691 Y-34.979
G0 X-39.691 Y-34.979
G0 X-39.893 Y-35.265
G0 X-39.893 Y-35.265 Z1.2
; LAYER:3
G0 X-39.893 Y-35.265 Z0.9
G0 X-39.61 Y-34.852
; TYPE:WALL-INNER
G1 F2400 X-39.464 Y-34.938 E1726.9845
G1 X-39.252 Y-35.025 E1726.99401
G1 X-38.851 Y-35.078 E1727.01082
G1 X38.853 Y-35.078 E1730.24138
G1 X39.241 Y-35.027 E1730.25765
G1 X39.44 Y-34.951 E1730.26651
G1 X39.708 Y-34.779 E1730.27975
G1 X39.83 Y-34.661 E1730.2868
G1 X39.925 Y-34.541 E1730.29317
G1 X40.028 Y-34.362 E1730.30175
G1 X40.104 Y-34.162 E1730.31065
G1 X40.155 Y-33.776 E1730.32683
G1 X40.155 Y33.778 E1733.1354
G1 X40.102 Y34.18 E1733.15226
G1 X40.061 Y34.302 E1733.15759
G1 X39.982 Y34.462 E1733.16499
G1 X39.907 Y34.574 E1733.17058
G1 X39.729 Y34.762 E1733.18131
G1 X39.618 Y34.85 E1733.18717
G1 X39.467 Y34.94 E1733.19444
G1 X39.255 Y35.027 E1733.20393
G1 X38.853 Y35.08 E1733.22075
G1 X-38.851 Y35.08 E1736.45126
G1 X-39.238 Y35.029 E1736.46744
G1 X-39.442 Y34.951 E1736.47647
G1 X-39.579 Y34.875 E1736.48293
G1 X-39.784 Y34.713 E1736.49373
G1 X-39.896 Y34.586 E1736.50071
G1 X-39.981 Y34.459 E1736.50701
G1 X-40.059 Y34.302 E1736.51424
G1 X-40.1 Y34.18 E1736.51954
G1 X-40.153 Y33.778 E1736.53635
G1 X-40.153 Y-33.776 E1739.34488
G1 X-40.1 Y-34.178 E1739.36169
G1 X-40.059 Y-34.3 E1739.36701
G1 X-39.904 Y-34.572 E1739.37999
G1 X-39.726 Y-34.76 E1739.39072
G1 X-39.61 Y-34.852 E1739.39685
G0 F18000 X-39.893 Y-35.265
; TYPE:WALL-OUTER
G1 F2100 X-39.69 Y-35.386 E1739.40665
G1 X-39.364 Y-35.515 E1739.42121
G1 X-38.885 Y-35.578 E1739.44129
G1 X38.887 Y-35.578 E1742.67468
G1 X39.361 Y-35.516 E1742.69455
G1 X39.662 Y-35.401 E1742.70795
G1 X39.896 Y-35.265 E1742.7192
G1 X40.037 Y-35.157 E1742.72659
G1 X40.201 Y-34.998 E1742.73608
G1 X40.34 Y-34.821 E1742.74544
G1 X40.48 Y-34.579 E1742.75706
G1 X40.593 Y-34.284 E1742.7702
G1 X40.655 Y-33.81 E1742.79007
G1 X40.655 Y33.812 E1745.60147
G1 X40.592 Y34.291 E1745.62155
G1 X40.521 Y34.5 E1745.63071
G1 X40.419 Y34.708 E1745.64032
G1 X40.299 Y34.888 E1745.6493
G1 X40.069 Y35.13 E1745.66315
G1 X39.893 Y35.269 E1745.67244
G1 X39.698 Y35.384 E1745.68181
G1 X39.367 Y35.517 E1745.69661
G1 X38.887 Y35.58 E1745.71669
G1 X-38.885 Y35.58 E1748.95004
G1 X-39.358 Y35.518 E1748.96982
G1 X-39.659 Y35.403 E1748.98316
G1 X-39.852 Y35.295 E1748.9923
G1 X-40.14 Y35.067 E1749.00752
G1 X-40.29 Y34.895 E1749.01695
G1 X-40.419 Y34.703 E1749.0265
G1 X-40.519 Y34.5 E1749.03586
G1 X-40.59 Y34.291 E1749.04498
G1 X-40.653 Y33.812 E1749.06502
G1 X-40.653 Y-33.81 E1751.87638
G1 X-40.59 Y-34.289 E1751.89642
G1 X-40.519 Y-34.498 E1751.90556
G1 X-40.419 Y-34.701 E1751.91493
G1 X-40.294 Y-34.888 E1751.92425
G1 X-40.066 Y-35.128 E1751.93798
G1 X-39.893 Y-35.265 E1751.94713
G0 F18000 X-39.5 Y-34.352
; TYPE:FILL
G1 F2400 X-39.499 Y34.365 E1754.80405
G0 F18000 X-38.999 Y34.615
G1 F2400 X-39 Y-34.613 E1757.68217
G0 F18000 X-38.5 Y-34.637
G1 F2400 X-38.499 Y34.639 E1760.56233
G0 F18000 X-37.999 Y34.639
G1 F2400 X-38 Y-34.637 E1763.44245
G0 F18000 X-37.5 Y-34.637
G1 F2400 X-37.499 Y34.639 E1766.32262
G0 F18000 X-36.999 Y34.639
G1 F2400 X-37 Y-34.637 E1769.20274
G0 F18000 X-36.5 Y-34.637
G1 F2400 X-36.499 Y34.639 E1772.0829
G0 F18000 X-35.999 Y34.639
G1 F2400 X-36 Y-34.637 E1774.96302
G0 F18000 X-35.5 Y-34.637
G1 F2400 X-35.499 Y34.639 E1777.84318
G0 F18000 X-34.999 Y34.639
G1 F2400 X-35 Y-34.637 E1780.7233
G0 F18000 X-34.5 Y-34.637
G1 F2400 X-34.499 Y34.639 E1783.60346
G0 F18000 X-33.999 Y34.639
G1 F2400 X-34 Y-34.637 E1786.48358
G0 F18000 X-33.5 Y-34.637
G1 F2400 X-33.499 Y34.639 E1789.36374
G0 F18000 X-32.999 Y34.639
G1 F2400 X-33 Y-34.637 E1792.24386
G0 F18000 X-32.5 Y-34.637
G1 F2400 X-32.499 Y34.639 E1795.12402
G0 F18000 X-31.999 Y34.639
G1 F2400 X-32 Y-34.637 E1798.00414
G0 F18000 X-31.5 Y-34.637
G1 F2400 X-31.499 Y34.639 E1800.8843
G0 F18000 X-30.999 Y34.639
G1 F2400 X-31 Y-34.637 E1803.76442
G0 F18000 X-30.5 Y-34.637
G1 F2400 X-30.499 Y34.639 E1806.64458
G0 F18000 X-29.999 Y34.639
G1 F2400 X-30 Y-34.637 E1809.5247
G0 F18000 X-29.5 Y-34.638
G1 F2400 X-29.499 Y34.639 E1812.40491
G0 F18000 X-28.999 Y34.639
G1 F2400 X-29 Y-34.638 E1815.28507
G0 F18000 X-28.5 Y-34.638
G1 F2400 X-28.499 Y34.639 E1818.16527
G0 F18000 X-27.999 Y34.639
G1 F2400 X-28 Y-34.638 E1821.04543
G0 F18000 X-27.5 Y-34.638
G1 F2400 X-27.499 Y34.639 E1823.92564
G0 F18000 X-26.999 Y34.639
G1 F2400 X-27 Y-34.638 E1826.8058
G0 F18000 X-26.5 Y-34.638
G1 F2400 X-26.499 Y34.639 E1829.686
G0 F18000 X-25.999 Y34.639
G1 F2400 X-26 Y-34.638 E1832.56616
G0 F18000 X-25.5 Y-34.638
G1 F2400 X-25.499 Y34.639 E1835.44636
G0 F18000 X-24.999 Y34.639
G1 F2400 X-25 Y-34.638 E1838.32653
G0 F18000 X-24.5 Y-34.638
G1 F2400 X-24.499 Y34.639 E1841.20673
G0 F18000 X-23.999 Y34.639
G1 F2400 X-24 Y-34.638 E1844.08689
G0 F18000 X-23.5 Y-34.638
G1 F2400 X-23.499 Y34.639 E1846.96709
G0 F18000 X-22.999 Y34.639
G1 F2400 X-23 Y-34.638 E1849.84725
G0 F18000 X-22.5 Y-34.638
G1 F2400 X-22.499 Y34.639 E1852.72746
G0 F18000 X-21.999 Y34.639
G1 F2400 X-22 Y-34.638 E1855.60762
G0 F18000 X-21.5 Y-34.638
G1 F2400 X-21.499 Y34.639 E1858.48782
G0 F18000 X-20.999 Y34.639
G1 F2400 X-21 Y-34.638 E1861.36798
G0 F18000 X-20.5 Y-34.638
G1 F2400 X-20.499 Y34.639 E1864.24819
G0 F18000 X-19.999 Y34.639
G1 F2400 X-20 Y-34.638 E1867.12835
G0 F18000 X-19.5 Y-34.638
G1 F2400 X-19.499 Y34.639 E1870.00855
G0 F18000 X-18.999 Y34.639
G1 F2400 X-19 Y-34.638 E1872.88871
G0 F18000 X-18.5 Y-34.638
G1 F2400 X-18.499 Y34.639 E1875.76891
G0 F18000 X-17.999 Y34.639
G1 F2400 X-18 Y-34.638 E1878.64908
G0 F18000 X-17.5 Y-34.638
G1 F2400 X-17.499 Y34.639 E1881.52928
G0 F18000 X-16.999 Y34.639
G1 F2400 X-17 Y-34.638 E1884.40944
G0 F18000 X-16.5 Y-34.638
G1 F2400 X-16.499 Y34.639 E1887.28964
G0 F18000 X-15.999 Y34.639
G1 F2400 X-16 Y-34.638 E1890.1698
G0 F18000 X-15.5 Y-34.638
G1 F2400 X-15.499 Y34.639 E1893.05001
G0 F18000 X-14.999 Y34.639
G1 F2400 X-15 Y-34.638 E1895.93017
G0 F18000 X-14.5 Y-34.638
G1 F2400 X-14.499 Y34.639 E1898.81037
G0 F18000 X-13.999 Y34.639
G1 F2400 X-14 Y-34.638 E1901.69053
G0 F18000 X-13.5 Y-34.638
G1 F2400 X-13.499 Y34.639 E1904.57074
G0 F18000 X-12.999 Y34.639
G1 F2400 X-13 Y-34.638 E1907.4509
G0 F18000 X-12.5 Y-34.638
G1 F2400 X-12.499 Y34.639 E1910.3311
G0 F18000 X-11.999 Y34.639
G1 F2400 X-12 Y-34.638 E1913.21126
G0 F18000 X-11.5 Y-34.638
G1 F2400 X-11.499 Y34.639 E1916.09147
G0 F18000 X-10.999 Y34.639
G1 F2400 X-11 Y-34.638 E1918.97163
G0 F18000 X-10.5 Y-34.638
G1 F2400 X-10.499 Y34.639 E1921.85183
G0 F18000 X-9.999 Y34.639
G1 F2400 X-10 Y-34.638 E1924.73199
G0 F18000 X-9.5 Y-34.638
G1 F2400 X-9.499 Y34.639 E1927.61219
G0 F18000 X-8.999 Y34.639
G1 F2400 X-9 Y-34.638 E1930.49236
G0 F18000 X-8.5 Y-34.638
G1 F2400 X-8.499 Y34.639 E1933.37256
G0 F18000 X-7.999 Y34.639
G1 F2400 X-8 Y-34.638 E1936.25272
G0 F18000 X-7.5 Y-34.638
G1 F2400 X-7.499 Y34.639 E1939.13292
G0 F18000 X-6.999 Y34.639
G1 F2400 X-7 Y-34.638 E1942.01308
G0 F18000 X-6.5 Y-34.638
G1 F2400 X-6.499 Y34.639 E1944.89329
G0 F18000 X-5.999 Y34.639
G1 F2400 X-6 Y-34.638 E1947.77345
G0 F18000 X-5.5 Y-34.638
G1 F2400 X-5.499 Y34.639 E1950.65365
G0 F18000 X-4.999 Y34.639
G1 F2400 X-5 Y-34.638 E1953.53381
G0 F18000 X-4.5 Y-34.638
G1 F2400 X-4.499 Y34.639 E1956.41402
G0 F18000 X-3.999 Y34.639
G1 F2400 X-4 Y-34.638 E1959.29418
G0 F18000 X-3.5 Y-34.638
G1 F2400 X-3.499 Y34.639 E1962.17438
G0 F18000 X-2.999 Y34.639
G1 F2400 X-3 Y-34.638 E1965.05454
G0 F18000 X-2.5 Y-34.638
G1 F2400 X-2.499 Y34.639 E1967.93474
G0 F18000 X-1.999 Y34.639
G1 F2400 X-2 Y-34.638 E1970.81491
G0 F18000 X-1.5 Y-34.638
G1 F2400 X-1.499 Y34.639 E1973.69511
G0 F18000 X-0.999 Y34.639
G1 F2400 X-1 Y-34.638 E1976.57527
G0 F18000 X-0.5 Y-34.638
G1 F2400 X-0.499 Y34.639 E1979.45547
G0 F18000 X0 Y34.639
G1 F2400 X0 Y-34.638 E1982.33563
G0 F18000 X0.499 Y-34.637
G1 F2400 X0.5 Y34.64 E1985.21584
G0 F18000 X1 Y34.64
G1 F2400 X0.999 Y-34.637 E1988.096
G0 F18000 X1.499 Y-34.637
G1 F2400 X1.5 Y34.64 E1990.9762
G0 F18000 X2 Y34.64
G1 F2400 X1.999 Y-34.637 E1993.85636
G0 F18000 X2.499 Y-34.637
G1 F2400 X2.5 Y34.64 E1996.73657
G0 F18000 X3 Y34.64
G1 F2400 X2.999 Y-34.637 E1999.61673
G0 F18000 X3.499 Y-34.637
G1 F2400 X3.5 Y34.64 E2002.49693
G0 F18000 X4 Y34.64
G1 F2400 X3.999 Y-34.637 E2005.37709
G0 F18000 X4.499 Y-34.637
G1 F2400 X4.5 Y34.64 E2008.25729
G0 F18000 X5 Y34.64
G1 F2400 X4.999 Y-34.637 E2011.13746
G0 F18000 X5.499 Y-34.637
G1 F2400 X5.5 Y34.64 E2014.01766
G0 F18000 X6 Y34.64
G1 F2400 X5.999 Y-34.637 E2016.89782
G0 F18000 X6.499 Y-34.637
G1 F2400 X6.5 Y34.64 E2019.77802
G0 F18000 X7 Y34.64
G1 F2400 X6.999 Y-34.637 E2022.65818
G0 F18000 X7.499 Y-34.637
G1 F2400 X7.5 Y34.64 E2025.53839
G0 F18000 X8 Y34.64
G1 F2400 X7.999 Y-34.637 E2028.41855
G0 F18000 X8.499 Y-34.637
G1 F2400 X8.5 Y34.64 E2031.29875
G0 F18000 X9 Y34.64
G1 F2400 X8.999 Y-34.637 E2034.17891
G0 F18000 X9.499 Y-34.637
G1 F2400 X9.5 Y34.64 E2037.05912
G0 F18000 X10 Y34.64
G1 F2400 X9.999 Y-34.637 E2039.93928
G0 F18000 X10.499 Y-34.637
G1 F2400 X10.5 Y34.64 E2042.81948
G0 F18000 X11 Y34.64
G1 F2400 X10.999 Y-34.637 E2045.69964
G0 F18000 X11.499 Y-34.637
G1 F2400 X11.5 Y34.64 E2048.57985
G0 F18000 X12 Y34.64
G1 F2400 X11.999 Y-34.637 E2051.46001
G0 F18000 X12.499 Y-34.637
G1 F2400 X12.5 Y34.64 E2054.34021
G0 F18000 X13 Y34.64
G1 F2400 X12.999 Y-34.637 E2057.22037
G0 F18000 X13.499 Y-34.637
G1 F2400 X13.5 Y34.64 E2060.10057
G0 F18000 X14 Y34.64
G1 F2400 X13.999 Y-34.637 E2062.98074
G0 F18000 X14.499 Y-34.637
G1 F2400 X14.5 Y34.64 E2065.86094
G0 F18000 X15 Y34.64
G1 F2400 X14.999 Y-34.637 E2068.7411
G0 F18000 X15.499 Y-34.637
G1 F2400 X15.5 Y34.64 E2071.6213
G0 F18000 X16 Y34.64
G1 F2400 X15.999 Y-34.637 E2074.50146
G0 F18000 X16.499 Y-34.637
G1 F2400 X16.5 Y34.64 E2077.38167
G0 F18000 X17 Y34.64
G1 F2400 X16.999 Y-34.637 E2080.26183
G0 F18000 X17.499 Y-34.637
G1 F2400 X17.5 Y34.64 E2083.14203
G0 F18000 X18 Y34.64
G1 F2400 X17.999 Y-34.637 E2086.02219
G0 F18000 X18.499 Y-34.637
G1 F2400 X18.5 Y34.64 E2088.9024
G0 F18000 X19 Y34.64
G1 F2400 X18.999 Y-34.637 E2091.78256
G0 F18000 X19.499 Y-34.637
G1 F2400 X19.5 Y34.64 E2094.66276
G0 F18000 X20 Y34.64
G1 F2400 X19.999 Y-34.637 E2097.54292
G0 F18000 X20.499 Y-34.637
G1 F2400 X20.5 Y34.64 E2100.42312
G0 F18000 X21 Y34.64
G1 F2400 X20.999 Y-34.637 E2103.30329
G0 F18000 X21.499 Y-34.637
G1 F2400 X21.5 Y34.64 E2106.18349
G0 F18000 X22 Y34.64
G1 F2400 X21.999 Y-34.637 E2109.06365
G0 F18000 X22.499 Y-34.637
G1 F2400 X22.5 Y34.64 E2111.94385
G0 F18000 X23 Y34.64
G1 F2400 X22.999 Y-34.637 E2114.82401
G0 F18000 X23.499 Y-34.637
G1 F2400 X23.5 Y34.64 E2117.70422
G0 F18000 X24 Y34.64
G1 F2400 X23.999 Y-34.637 E2120.58438
G0 F18000 X24.499 Y-34.637
G1 F2400 X24.5 Y34.64 E2123.46458
G0 F18000 X25 Y34.64
G1 F2400 X24.999 Y-34.637 E2126.34474
G0 F18000 X25.499 Y-34.637
G1 F2400 X25.5 Y34.64 E2129.22495
G0 F18000 X26 Y34.64
G1 F2400 X25.999 Y-34.637 E2132.10511
G0 F18000 X26.499 Y-34.637
G1 F2400 X26.5 Y34.64 E2134.98531
G0 F18000 X27 Y34.64
G1 F2400 X26.999 Y-34.637 E2137.86547
G0 F18000 X27.499 Y-34.637
G1 F2400 X27.5 Y34.64 E2140.74568
G0 F18000 X28 Y34.64
G1 F2400 X27.999 Y-34.637 E2143.62584
G0 F18000 X28.499 Y-34.637
G1 F2400 X28.5 Y34.64 E2146.50604
G0 F18000 X29 Y34.64
G1 F2400 X28.999 Y-34.637 E2149.3862
G0 F18000 X29.499 Y-34.637
G1 F2400 X29.5 Y34.64 E2152.2664
G0 F18000 X30 Y34.639
G1 F2400 X29.999 Y-34.637 E2155.14652
G0 F18000 X30.499 Y-34.637
G1 F2400 X30.5 Y34.639 E2158.02669
G0 F18000 X31 Y34.639
G1 F2400 X30.999 Y-34.637 E2160.90681
G0 F18000 X31.499 Y-34.637
G1 F2400 X31.5 Y34.639 E2163.78697
G0 F18000 X32 Y34.639
G1 F2400 X31.999 Y-34.637 E2166.66709
G0 F18000 X32.499 Y-34.637
G1 F2400 X32.5 Y34.639 E2169.54725
G0 F18000 X33 Y34.639
G1 F2400 X32.999 Y-34.637 E2172.42737
G0 F18000 X33.499 Y-34.637
G1 F2400 X33.5 Y34.639 E2175.30753
G0 F18000 X34 Y34.639
G1 F2400 X33.999 Y-34.637 E2178.18765
G0 F18000 X34.499 Y-34.637
G1 F2400 X34.5 Y34.639 E2181.06781
G0 F18000 X35 Y34.639
G1 F2400 X34.999 Y-34.637 E2183.94793
G0 F18000 X35.499 Y-34.637
G1 F2400 X35.5 Y34.639 E2186.82809
G0 F18000 X36 Y34.639
G1 F2400 X35.999 Y-34.637 E2189.70821
G0 F18000 X36.499 Y-34.637
G1 F2400 X36.5 Y34.639 E2192.58837
G0 F18000 X37 Y34.639
G1 F2400 X36.999 Y-34.637 E2195.46849
G0 F18000 X37.499 Y-34.637
G1 F2400 X37.5 Y34.639 E2198.34865
G0 F18000 X38 Y34.639
G1 F2400 X37.999 Y-34.637 E2201.22877
G0 F18000 X38.499 Y-34.637
G1 F2400 X38.5 Y34.639 E2204.10893
G0 F18000 X39 Y34.615
G1 F2400 X38.999 Y-34.614 E2206.9871
G0 F18000 X39.499 Y-34.359
G1 F2400 X39.5 Y34.356 E2209.84394
G0 F18000 X39.5 Y34.356 Z1.2
G0 X38.866 Y-35.127
G0 X38.862 Y-35.527
G0 X38.866 Y-35.228
G0 X38.866 Y-35.228
G0 X38.887 Y-35.578
G0 X38.887 Y-35.578 Z1.4
; LAYER:4
G0 X38.887 Y-35.578 Z1.1
G0 X38.853 Y-35.078
; TYPE:WALL-INNER
G1 F2400 X39.255 Y-35.025 E2209.8608
G1 X39.382 Y-34.982 E2209.86637
G1 X39.533 Y-34.907 E2209.87338
G1 X39.664 Y-34.82 E2209.87992
G1 X39.788 Y-34.711 E2209.88678
G1 X39.897 Y-34.587 E2209.89365
G1 X39.982 Y-34.46 E2209.9
G1 X40.061 Y-34.3 E2209.90742
G1 X40.102 Y-34.178 E2209.91277
G1 X40.155 Y-33.776 E2209.92963
G1 X40.155 Y33.778 E2212.7382
G1 X40.102 Y34.18 E2212.75505
G1 X40.061 Y34.302 E2212.76039
G1 X39.982 Y34.462 E2212.76779
G1 X39.897 Y34.589 E2212.77412
G1 X39.788 Y34.713 E2212.78095
G1 X39.664 Y34.822 E2212.78779
G1 X39.533 Y34.909 E2212.79429
G1 X39.382 Y34.984 E2212.80126
G1 X39.255 Y35.027 E2212.8068
G1 X38.853 Y35.08 E2212.82361
G1 X-38.851 Y35.08 E2216.05413
G1 X-39.252 Y35.027 E2216.0709
G1 X-39.526 Y34.911 E2216.08322
G1 X-39.663 Y34.82 E2216.09
G1 X-39.785 Y34.712 E2216.09671
G1 X-39.896 Y34.586 E2216.10363
G1 X-39.981 Y34.459 E2216.10993
G1 X-40.059 Y34.302 E2216.11716
G1 X-40.1 Y34.18 E2216.12246
G1 X-40.153 Y33.778 E2216.13927
G1 X-40.153 Y-33.776 E2218.9478
G1 X-40.1 Y-34.178 E2218.96462
G1 X-40.059 Y-34.3 E2218.96993
G1 X-39.981 Y-34.457 E2218.97718
G1 X-39.896 Y-34.584 E2218.9835
G1 X-39.785 Y-34.71 E2218.99045
G1 X-39.663 Y-34.818 E2218.99719
G1 X-39.526 Y-34.909 E2219.00401
G1 X-39.252 Y-35.025 E2219.01636
G1 X-38.851 Y-35.078 E2219.03317
G1 X38.853 Y-35.078 E2222.26373
G0 F18000 X38.887 Y-35.578
; TYPE:WALL-OUTER
G1 F2100 X39.366 Y-35.515 E2222.28382
G1 X39.576 Y-35.444 E2222.29303
G1 X39.782 Y-35.342 E2222.30259
G1 X39.972 Y-35.216 E2222.31207
G1 X40.142 Y-35.065 E2222.32152
G1 X40.293 Y-34.895 E2222.33098
G1 X40.419 Y-34.706 E2222.34042
G1 X40.521 Y-34.498 E2222.35005
G1 X40.592 Y-34.289 E2222.35923
G1 X40.655 Y-33.81 E2222.37931
G1 X40.655 Y33.812 E2225.19071
G1 X40.592 Y34.291 E2225.21079
G1 X40.521 Y34.5 E2225.21995
G1 X40.419 Y34.708 E2225.22957
G1 X40.293 Y34.897 E2225.23899
G1 X40.142 Y35.067 E2225.24841
G1 X39.972 Y35.218 E2225.25784
G1 X39.782 Y35.344 E2225.26728
G1 X39.576 Y35.446 E2225.2768
G1 X39.366 Y35.517 E2225.28598
G1 X38.887 Y35.58 E2225.30602
G1 X-38.885 Y35.58 E2228.53936
G1 X-39.363 Y35.517 E2228.55936
G1 X-39.573 Y35.446 E2228.56853
G1 X-39.776 Y35.346 E2228.57788
G1 X-39.968 Y35.218 E2228.58741
G1 X-40.14 Y35.067 E2228.59687
G1 X-40.29 Y34.895 E2228.6063
G1 X-40.419 Y34.703 E2228.61586
G1 X-40.519 Y34.5 E2228.62521
G1 X-40.59 Y34.291 E2228.63434
G1 X-40.653 Y33.812 E2228.65438
G1 X-40.653 Y-33.81 E2231.46573
G1 X-40.59 Y-34.289 E2231.48578
G1 X-40.519 Y-34.498 E2231.49491
G1 X-40.419 Y-34.701 E2231.50428
G1 X-40.29 Y-34.893 E2231.51387
G1 X-40.14 Y-35.065 E2231.52332
G1 X-39.968 Y-35.216 E2231.53281
G1 X-39.776 Y-35.344 E2231.54238
G1 X-39.573 Y-35.444 E2231.55177
G1 X-39.363 Y-35.515 E2231.56098
G1 X-38.885 Y-35.578 E2231.58101
G1 X38.887 Y-35.578 E2234.8144
G0 F18000 X39.342 Y-34.5
; TYPE:FILL
G1 F2400 X-39.347 Y-34.5 E2238.08587
G0 F18000 X-39.673 Y-34
G1 F2400 X39.681 Y-34 E2241.38502
G0 F18000 X39.715 Y-33.5
G1 F2400 X-39.713 Y-33.5 E2244.68721
G0 F18000 X-39.713 Y-33
G1 F2400 X39.715 Y-33 E2247.98944
G0 F18000 X39.715 Y-32.5
G1 F2400 X-39.713 Y-32.499 E2251.29164
G0 F18000 X-39.713 Y-31.999
G1 F2400 X39.715 Y-32 E2254.59387
G0 F18000 X39.715 Y-31.5
G1 F2400 X-39.713 Y-31.499 E2257.89606
G0 F18000 X-39.713 Y-30.999
G1 F2400 X39.715 Y-31 E2261.19829
G0 F18000 X39.715 Y-30.5
G1 F2400 X-39.713 Y-30.499 E2264.50048
G0 F18000 X-39.713 Y-29.999
G1 F2400 X39.715 Y-30 E2267.80272
G0 F18000 X39.715 Y-29.5
G1 F2400 X-39.713 Y-29.499 E2271.10491
G0 F18000 X-39.713 Y-28.999
G1 F2400 X39.715 Y-29 E2274.40714
G0 F18000 X39.715 Y-28.5
G1 F2400 X-39.713 Y-28.499 E2277.70933
G0 F18000 X-39.713 Y-27.999
G1 F2400 X39.715 Y-28 E2281.01156
G0 F18000 X39.715 Y-27.5
G1 F2400 X-39.713 Y-27.499 E2284.31375
G0 F18000 X-39.713 Y-26.999
G1 F2400 X39.715 Y-27 E2287.61599
G0 F18000 X39.715 Y-26.5
G1 F2400 X-39.713 Y-26.499 E2290.91818
G0 F18000 X-39.713 Y-25.999
G1 F2400 X39.715 Y-26 E2294.22041
G0 F18000 X39.715 Y-25.5
G1 F2400 X-39.713 Y-25.499 E2297.5226
G0 F18000 X-39.713 Y-24.999
G1 F2400 X39.715 Y-25 E2300.82483
G0 F18000 X39.715 Y-24.5
G1 F2400 X-39.713 Y-24.499 E2304.12702
G0 F18000 X-39.713 Y-23.999
G1 F2400 X39.715 Y-24 E2307.42926
G0 F18000 X39.715 Y-23.5
G1 F2400 X-39.713 Y-23.499 E2310.73145
G0 F18000 X-39.713 Y-22.999
G1 F2400 X39.715 Y-23 E2314.03368
G0 F18000 X39.715 Y-22.5
G1 F2400 X-39.713 Y-22.499 E2317.33587
G0 F18000 X-39.713 Y-21.999
G1 F2400 X39.715 Y-22 E2320.6381
G0 F18000 X39.715 Y-21.5
G1 F2400 X-39.713 Y-21.499 E2323.94029
G0 F18000 X-39.713 Y-20.999
G1 F2400 X39.715 Y-21 E2327.24253
G0 F18000 X39.715 Y-20.5
G1 F2400 X-39.713 Y-20.499 E2330.54472
G0 F18000 X-39.713 Y-19.999
G1 F2400 X39.715 Y-20 E2333.84695
G0 F18000 X39.715 Y-19.5
G1 F2400 X-39.713 Y-19.499 E2337.14914
G0 F18000 X-39.713 Y-18.999
G1 F2400 X39.715 Y-19 E2340.45137
G0 F18000 X39.715 Y-18.5
G1 F2400 X-39.713 Y-18.499 E2343.75356
G0 F18000 X-39.713 Y-17.999
G1 F2400 X39.715 Y-18 E2347.0558
G0 F18000 X39.715 Y-17.5
G1 F2400 X-39.713 Y-17.499 E2350.35799
G0 F18000 X-39.713 Y-16.999
G1 F2400 X39.715 Y-17 E2353.66022
G0 F18000 X39.715 Y-16.5
G1 F2400 X-39.713 Y-16.499 E2356.96241
G0 F18000 X-39.713 Y-15.999
G1 F2400 X39.715 Y-16 E2360.26464
G0 F18000 X39.715 Y-15.5
G1 F2400 X-39.713 Y-15.499 E2363.56683
G0 F18000 X-39.713 Y-14.999
G1 F2400 X39.715 Y-15 E2366.86907
G0 F18000 X39.715 Y-14.5
G1 F2400 X-39.713 Y-14.499 E2370.17126
G0 F18000 X-39.713 Y-13.999
G1 F2400 X39.715 Y-14 E2373.47349
G0 F18000 X39.715 Y-13.5
G1 F2400 X-39.713 Y-13.499 E2376.77568
G0 F18000 X-39.713 Y-12.999
G1 F2400 X39.715 Y-13 E2380.07791
G0 F18000 X39.715 Y-12.5
G1 F2400 X-39.713 Y-12.499 E2383.3801
G0 F18000 X-39.713 Y-11.999
G1 F2400 X39.715 Y-12 E2386.68234
G0 F18000 X39.715 Y-11.5
G1 F2400 X-39.713 Y-11.499 E2389.98453
G0 F18000 X-39.713 Y-10.999
G1 F2400 X39.715 Y-11 E2393.28676
G0 F18000 X39.715 Y-10.5
G1 F2400 X-39.713 Y-10.499 E2396.58895
G0 F18000 X-39.713 Y-9.999
G1 F2400 X39.715 Y-10 E2399.89118
G0 F18000 X39.715 Y-9.5
G1 F2400 X-39.713 Y-9.499 E2403.19338
G0 F18000 X-39.713 Y-8.999
G1 F2400 X39.715 Y-9 E2406.49561
G0 F18000 X39.715 Y-8.5
G1 F2400 X-39.713 Y-8.499 E2409.7978
G0 F18000 X-39.713 Y-7.999
G1 F2400 X39.715 Y-8 E2413.10003
G0 F18000 X39.715 Y-7.5
G1 F2400 X-39.713 Y-7.499 E2416.40222
G0 F18000 X-39.713 Y-6.999
G1 F2400 X39.715 Y-7 E2419.70445
G0 F18000 X39.715 Y-6.5
G1 F2400 X-39.713 Y-6.499 E2423.00665
G0 F18000 X-39.713 Y-5.999
G1 F2400 X39.715 Y-6 E2426.30888
G0 F18000 X39.715 Y-5.5
G1 F2400 X-39.713 Y-5.499 E2429.61107
G0 F18000 X-39.713 Y-4.999
G1 F2400 X39.715 Y-5 E2432.9133
G0 F18000 X39.715 Y-4.5
G1 F2400 X-39.713 Y-4.499 E2436.21549
G0 F18000 X-39.713 Y-3.999
G1 F2400 X39.715 Y-4 E2439.51772
G0 F18000 X39.715 Y-3.5
G1 F2400 X-39.713 Y-3.499 E2442.81992
G0 F18000 X-39.713 Y-2.999
G1 F2400 X39.715 Y-3 E2446.12215
G0 F18000 X39.715 Y-2.5
G1 F2400 X-39.713 Y-2.499 E2449.42434
G0 F18000 X-39.713 Y-1.999
G1 F2400 X39.715 Y-2 E2452.72657
G0 F18000 X39.715 Y-1.5
G1 F2400 X-39.713 Y-1.499 E2456.02876
G0 F18000 X-39.713 Y-0.999
G1 F2400 X39.715 Y-1 E2459.331
G0 F18000 X39.715 Y-0.5
G1 F2400 X-39.713 Y-0.499 E2462.63319
G0 F18000 X-39.713 Y0
G1 F2400 X39.715 Y0 E2465.93542
G0 F18000 X39.715 Y0.499
G1 F2400 X-39.713 Y0.5 E2469.23761
G0 F18000 X-39.713 Y1
G1 F2400 X39.715 Y0.999 E2472.53984
G0 F18000 X39.715 Y1.499
G1 F2400 X-39.713 Y1.5 E2475.84203
G0 F18000 X-39.713 Y2
G1 F2400 X39.715 Y1.999 E2479.14427
G0 F18000 X39.715 Y2.499
G1 F2400 X-39.713 Y2.5 E2482.44646
G0 F18000 X-39.713 Y3
G1 F2400 X39.715 Y2.999 E2485.74869
G0 F18000 X39.715 Y3.499
G1 F2400 X-39.713 Y3.5 E2489.05088
G0 F18000 X-39.713 Y4
G1 F2400 X39.715 Y3.999 E2492.35311
G0 F18000 X39.715 Y4.499
G1 F2400 X-39.713 Y4.5 E2495.6553
G0 F18000 X-39.713 Y5
G1 F2400 X39.715 Y4.999 E2498.95754
G0 F18000 X39.715 Y5.499
G1 F2400 X-39.713 Y5.5 E2502.25973
G0 F18000 X-39.713 Y6
G1 F2400 X39.715 Y5.999 E2505.56196
G0 F18000 X39.715 Y6.499
G1 F2400 X-39.713 Y6.5 E2508.86415
G0 F18000 X-39.713 Y7
G1 F2400 X39.715 Y6.999 E2512.16638
G0 F18000 X39.715 Y7.499
G1 F2400 X-39.713 Y7.5 E2515.46857
G0 F18000 X-39.713 Y8
G1 F2400 X39.715 Y7.999 E2518.77081
G0 F18000 X39.715 Y8.499
G1 F2400 X-39.713 Y8.5 E2522.073
G0 F18000 X-39.713 Y9
G1 F2400 X39.715 Y8.999 E2525.37523
G0 F18000 X39.715 Y9.499
G1 F2400 X-39.713 Y9.5 E2528.67742
G0 F18000 X-39.713 Y10
G1 F2400 X39.715 Y9.999 E2531.97965
G0 F18000 X39.715 Y10.499
G1 F2400 X-39.713 Y10.5 E2535.28184
G0 F18000 X-39.713 Y11
G1 F2400 X39.715 Y10.999 E2538.58408
G0 F18000 X39.715 Y11.499
G1 F2400 X-39.713 Y11.5 E2541.88627
G0 F18000 X-39.713 Y12
G1 F2400 X39.715 Y11.999 E2545.1885
G0 F18000 X39.715 Y12.499
G1 F2400 X-39.713 Y12.5 E2548.49069
G0 F18000 X-39.713 Y13
G1 F2400 X39.715 Y12.999 E2551.79292
G0 F18000 X39.715 Y13.499
G1 F2400 X-39.713 Y13.5 E2555.09511
G0 F18000 X-39.713 Y14
G1 F2400 X39.715 Y13.999 E2558.39735
G0 F18000 X39.715 Y14.499
G1 F2400 X-39.713 Y14.5 E2561.69954
G0 F18000 X-39.713 Y15
G1 F2400 X39.715 Y14.999 E2565.00177
G0 F18000 X39.715 Y15.499
G1 F2400 X-39.713 Y15.5 E2568.30396
G0 F18000 X-39.713 Y16
G1 F2400 X39.715 Y15.999 E2571.60619
G0 F18000 X39.715 Y16.499
G1 F2400 X-39.713 Y16.5 E2574.90838
G0 F18000 X-39.713 Y17
G1 F2400 X39.715 Y16.999 E2578.21062
G0 F18000 X39.715 Y17.499
G1 F2400 X-39.713 Y17.5 E2581.51281
G0 F18000 X-39.713 Y18
G1 F2400 X39.715 Y17.999 E2584.81504
G0 F18000 X39.715 Y18.499
G1 F2400 X-39.713 Y18.5 E2588.11723
G0 F18000 X-39.713 Y19
G1 F2400 X39.715 Y18.999 E2591.41946
G0 F18000 X39.715 Y19.499
G1 F2400 X-39.713 Y19.5 E2594.72165
G0 F18000 X-39.713 Y20
G1 F2400 X39.715 Y19.999 E2598.02389
G0 F18000 X39.715 Y20.499
G1 F2400 X-39.713 Y20.5 E2601.32608
G0 F18000 X-39.713 Y21
G1 F2400 X39.715 Y20.999 E2604.62831
G0 F18000 X39.715 Y21.499
G1 F2400 X-39.713 Y21.5 E2607.9305
G0 F18000 X-39.713 Y22
G1 F2400 X39.715 Y21.999 E2611.23273
G0 F18000 X39.715 Y22.499
G1 F2400 X-39.713 Y22.5 E2614.53493
G0 F18000 X-39.713 Y23
G1 F2400 X39.715 Y22.999 E2617.83716
G0 F18000 X39.715 Y23.499
G1 F2400 X-39.713 Y23.5 E2621.13935
G0 F18000 X-39.713 Y24
G1 F2400 X39.715 Y23.999 E2624.44158
G0 F18000 X39.715 Y24.499
G1 F2400 X-39.713 Y24.5 E2627.74377
G0 F18000 X-39.713 Y25
G1 F2400 X39.715 Y24.999 E2631.046
G0 F18000 X39.715 Y25.499
G1 F2400 X-39.713 Y25.5 E2634.3482
G0 F18000 X-39.713 Y26
G1 F2400 X39.715 Y25.999 E2637.65043
G0 F18000 X39.715 Y26.499
G1 F2400 X-39.713 Y26.5 E2640.95262
G0 F18000 X-39.713 Y27
G1 F2400 X39.715 Y26.999 E2644.25485
G0 F18000 X39.715 Y27.499
G1 F2400 X-39.713 Y27.5 E2647.55704
G0 F18000 X-39.713 Y28
G1 F2400 X39.715 Y27.999 E2650.85927
G0 F18000 X39.715 Y28.499
G1 F2400 X-39.713 Y28.5 E2654.16147
G0 F18000 X-39.713 Y29
G1 F2400 X39.715 Y28.999 E2657.4637
G0 F18000 X39.715 Y29.499
G1 F2400 X-39.713 Y29.5 E2660.76589
G0 F18000 X-39.713 Y30
G1 F2400 X39.715 Y29.999 E2664.06812
G0 F18000 X39.715 Y30.499
G1 F2400 X-39.713 Y30.5 E2667.37031
G0 F18000 X-39.713 Y31
G1 F2400 X39.715 Y30.999 E2670.67255
G0 F18000 X39.715 Y31.499
G1 F2400 X-39.713 Y31.5 E2673.97474
G0 F18000 X-39.713 Y32
G1 F2400 X39.715 Y31.999 E2677.27697
G0 F18000 X39.715 Y32.499
G1 F2400 X-39.713 Y32.5 E2680.57916
G0 F18000 X-39.713 Y33
G1 F2400 X39.715 Y33 E2683.88139
G0 F18000 X39.715 Y33.5
G1 F2400 X-39.713 Y33.5 E2687.18358
G0 F18000 X-39.679 Y34
G1 F2400 X39.676 Y34 E2690.48278
G0 F18000 X39.346 Y34.5
G1 F2400 X-39.346 Y34.5 E2693.75437
G0 F18000 X-39.346 Y34.5 Z1.4
G0 X-40.161 Y-34.432
G0 X-40.161 Y-34.432
G0 X-40.476 Y-34.584
G0 X-40.476 Y-34.584 Z1.6
; LAYER:5
G0 X-40.476 Y-34.584 Z1.3
G0 X-40.023 Y-34.369
; TYPE:WALL-INNER
G1 F2400 X-39.948 Y-34.504 E2693.76076
G1 X-39.788 Y-34.708 E2693.7715
G1 X-39.663 Y-34.818 E2693.7784
G1 X-39.526 Y-34.909 E2693.78521
G1 X-39.252 Y-35.025 E2693.79757
G1 X-38.851 Y-35.078 E2693.81438
G1 X38.853 Y-35.078 E2697.04494
G1 X39.255 Y-35.025 E2697.06179
G1 X39.372 Y-34.986 E2697.06692
G1 X39.669 Y-34.816 E2697.08115
G1 X39.883 Y-34.603 E2697.0937
G1 X40.018 Y-34.383 E2697.10443
G1 X40.103 Y-34.176 E2697.11374
G1 X40.155 Y-33.776 E2697.13051
G1 X40.155 Y33.778 E2699.93907
G1 X40.104 Y34.164 E2699.95526
G1 X40.025 Y34.371 E2699.96445
G1 X39.95 Y34.506 E2699.97085
G1 X39.851 Y34.638 E2699.97769
G1 X39.713 Y34.776 E2699.98577
G1 X39.585 Y34.872 E2699.99239
G1 X39.372 Y34.988 E2700.00244
G1 X39.255 Y35.027 E2700.00753
G1 X38.853 Y35.08 E2700.02434
G1 X-38.851 Y35.08 E2703.25486
G1 X-39.252 Y35.027 E2703.27163
G1 X-39.526 Y34.911 E2703.28395
G1 X-39.654 Y34.826 E2703.29028
G1 X-39.83 Y34.66 E2703.30028
G1 X-39.928 Y34.535 E2703.30682
G1 X-40.012 Y34.394 E2703.31359
G1 X-40.101 Y34.178 E2703.32325
G1 X-40.153 Y33.778 E2703.33997
G1 X-40.153 Y-33.776 E2706.1485
G1 X-40.102 Y-34.162 E2706.16464
G1 X-40.023 Y-34.369 E2706.17382
G0 F18000 X-40.476 Y-34.584
; TYPE:WALL-OUTER
G1 F2100 X-40.368 Y-34.777 E2706.18297
G1 X-40.143 Y-35.062 E2706.19804
G1 X-39.968 Y-35.216 E2706.2077
G1 X-39.776 Y-35.344 E2706.21727
G1 X-39.573 Y-35.444 E2706.22666
G1 X-39.363 Y-35.515 E2706.23587
G1 X-38.885 Y-35.578 E2706.25591
G1 X38.887 Y-35.578 E2709.48929
G1 X39.366 Y-35.515 E2709.50938
G1 X39.571 Y-35.446 E2709.51837
G1 X39.972 Y-35.216 E2709.53759
G1 X40.142 Y-35.065 E2709.54704
G1 X40.288 Y-34.9 E2709.5562
G1 X40.463 Y-34.615 E2709.5701
G1 X40.592 Y-34.289 E2709.58468
G1 X40.655 Y-33.81 E2709.60477
G1 X40.655 Y33.812 E2712.41616
G1 X40.593 Y34.286 E2712.43603
G1 X40.478 Y34.586 E2712.44937
G1 X40.37 Y34.779 E2712.45855
G1 X40.235 Y34.96 E2712.46791
G1 X40.035 Y35.16 E2712.47964
G1 X39.858 Y35.292 E2712.48879
G1 X39.571 Y35.448 E2712.50233
G1 X39.366 Y35.517 E2712.51129
G1 X38.887 Y35.58 E2712.53133
G1 X-38.885 Y35.58 E2715.76467
G1 X-39.363 Y35.517 E2715.78467
G1 X-39.573 Y35.446 E2715.79384
G1 X-39.776 Y35.346 E2715.80319
G1 X-39.962 Y35.221 E2715.81245
G1 X-40.202 Y34.995 E2715.82609
G1 X-40.34 Y34.82 E2715.8353
G1 X-40.461 Y34.617 E2715.84507
G1 X-40.59 Y34.291 E2715.85959
G1 X-40.653 Y33.812 E2715.87963
G1 X-40.653 Y-33.81 E2718.69099
G1 X-40.591 Y-34.284 E2718.71082
G1 X-40.476 Y-34.584 E2718.72414
G0 F18000 X-39.5 Y-34.36
; TYPE:FILL
G1 F2400 X-39.499 Y34.355 E2721.58098
G0 F18000 X-38.999 Y34.615
G1 F2400 X-39 Y-34.612 E2724.45906
G0 F18000 X-38.5 Y-34.637
G1 F2400 X-38.499 Y34.639 E2727.33922
G0 F18000 X-37.999 Y34.639
G1 F2400 X-37.999 Y33.019 E2727.40653
G0 F18000 X-38.212 Y32.865
G1 F2400 X-37.592 Y31.792 E2727.45802
G0 F18000 X-37.593 Y31.654
G1 F2400 X-38.213 Y31.654 E2727.48375
G0 F18000 X-37.592 Y31.515
G1 F2400 X-38.212 Y30.441 E2727.53525
G0 F18000 X-38.213 Y29.988
G1 F2400 X-37.593 Y29.988 E2727.56103
G0 F18000 X-38.212 Y29.533
G1 F2400 X-37.592 Y28.459 E2727.61255
G0 F18000 X-37.593 Y28.322
G1 F2400 X-38.213 Y28.322 E2727.63829
G0 F18000 X-37.592 Y28.183
G1 F2400 X-38.212 Y27.109 E2727.68979
G0 F18000 X-38.213 Y26.656
G1 F2400 X-37.593 Y26.656 E2727.71556
G0 F18000 X-38.212 Y26.202
G1 F2400 X-37.592 Y25.128 E2727.76708
G0 F18000 X-37.593 Y24.99
G1 F2400 X-38.213 Y24.99 E2727.79282
G0 F18000 X-37.592 Y24.851
G1 F2400 X-38.213 Y23.777 E2727.84434
G0 F18000 X-38.213 Y23.324
G1 F2400 X-37.593 Y23.324 E2727.87012
G0 F18000 X-38.212 Y22.869
G1 F2400 X-37.592 Y21.795 E2727.92164
G0 F18000 X-37.593 Y21.658
G1 F2400 X-38.213 Y21.658 E2727.94738
G0 F18000 X-37.592 Y21.52
G1 F2400 X-38.212 Y20.445 E2727.99891
G0 F18000 X-38.213 Y19.992
G1 F2400 X-34.593 Y19.992 E2728.14941
G0 F18000 X-34.592 Y20.051
G1 F2400 X-38.212 Y13.781 E2728.45036
G0 F18000 X-38.213 Y13.328
G1 F2400 X-34.593 Y13.328 E2728.60086
G0 F18000 X-34.592 Y13.387
G1 F2400 X-38.212 Y7.117 E2728.90181
G0 F18000 X-38.213 Y6.664
G1 F2400 X-34.593 Y6.664 E2729.05231
G0 F18000 X-34.592 Y6.724
G1 F2400 X-38.212 Y0.454 E2729.35326
G0 F18000 X-38.213 Y0
G1 F2400 X-34.593 Y0 E2729.50376
G0 F18000 X-34.592 Y-0.059
G1 F2400 X-38.212 Y6.21 E2729.80471
G0 F18000 X-38.213 Y4.998
G1 F2400 X-34.593 Y4.998 E2729.95521
G0 F18000 X-34.592 Y6.604
G1 F2400 X-38.212 Y12.874 E2730.25619
G0 F18000 X-38.213 Y11.662
G1 F2400 X-34.593 Y11.662 E2730.40669
G0 F18000 X-34.592 Y13.268
G1 F2400 X-38.212 Y19.538 E2730.70768
G0 F18000 X-38.213 Y18.326
G1 F2400 X-34.593 Y18.326 E2730.85818
G0 F18000 X-34.592 Y19.932
G1 F2400 X-35.29 Y21.14 E2730.91616
G0 F18000 X-35.5 Y21.019
G1 F2400 X-35.499 Y32.639 E2731.39926
G0 F18000 X-35.499 Y33.019
G1 F2400 X-35.499 Y34.639 E2731.46662
G0 F18000 X-35.999 Y34.639
G1 F2400 X-35.999 Y33.019 E2731.53393
G0 F18000 X-35.999 Y32.639
G1 F2400 X-36 Y21.019 E2732.01699
G0 F18000 X-35.887 Y21.14
G1 F2400 X-38.212 Y17.113 E2732.21026
G0 F18000 X-38.213 Y16.66
G1 F2400 X-34.593 Y16.66 E2732.36076
G0 F18000 X-34.592 Y16.719
G1 F2400 X-38.212 Y10.449 E2732.6617
G0 F18000 X-38.213 Y9.996
G1 F2400 X-34.593 Y9.996 E2732.81221
G0 F18000 X-34.592 Y10.055
G1 F2400 X-38.212 Y3.785 E2733.11315
G0 F18000 X-38.213 Y3.332
G1 F2400 X-34.593 Y3.332 E2733.26366
G0 F18000 X-34.592 Y3.391
G1 F2400 X-38.212 Y-2.878 E2733.56457
G0 F18000 X-38.213 Y-3.331
G1 F2400 X-34.593 Y-3.331 E2733.71507
G0 F18000 X-34.592 Y-3.272
G1 F2400 X-38.212 Y-9.542 E2734.01601
G0 F18000 X-38.213 Y-9.995
G1 F2400 X-34.593 Y-9.995 E2734.16652
G0 F18000 X-34.592 Y-9.935
G1 F2400 X-38.212 Y-16.205 E2734.46746
G0 F18000 X-38.213 Y-16.659
G1 F2400 X-34.593 Y-16.659 E2734.61797
G0 F18000 X-34.592 Y-16.599
G1 F2400 X-38.212 Y-22.869 E2734.91891
G0 F18000 X-38.213 Y-23.323
G1 F2400 X-34.593 Y-23.323 E2735.06941
G0 F18000 X-34.592 Y-23.263
G1 F2400 X-37.406 Y-28.137 E2735.30334
G0 F18000 X-37.5 Y-28.017
G1 F2400 X-37.5 Y-32.637 E2735.49538
G0 F18000 X-37.5 Y-33.017
G1 F2400 X-37.5 Y-34.637 E2735.56269
G0 F18000 X-38 Y-34.637
G1 F2400 X-38 Y-33.017 E2735.63004
G0 F18000 X-38.211 Y-32.865
G1 F2400 X-37.591 Y-31.791 E2735.6816
G0 F18000 X-37.593 Y-31.653
G1 F2400 X-38.213 Y-31.653 E2735.70733
G0 F18000 X-37.593 Y-31.514
G1 F2400 X-38.213 Y-30.44 E2735.75887
G0 F18000 X-38.213 Y-29.987
G1 F2400 X-37.593 Y-29.987 E2735.78465
G0 F18000 X-38.212 Y-29.533
G1 F2400 X-37.592 Y-28.459 E2735.8362
G0 F18000 X-37.593 Y-28.321
G1 F2400 X-38.213 Y-28.321 E2735.86194
G0 F18000 X-37.592 Y-28.183
G1 F2400 X-38.212 Y-27.109 E2735.91348
G0 F18000 X-38.213 Y-26.655
G1 F2400 X-34.593 Y-26.655 E2736.06398
G0 F18000 X-34.592 Y-26.595
G1 F2400 X-35.482 Y-28.137 E2736.13794
G0 F18000 X-35.5 Y-28.017
G1 F2400 X-35.5 Y-32.637 E2736.32998
G0 F18000 X-35.5 Y-33.017
G1 F2400 X-35.5 Y-34.637 E2736.39729
G0 F18000 X-36 Y-34.637
G1 F2400 X-36 Y-33.017 E2736.46464
G0 F18000 X-36 Y-32.637
G1 F2400 X-36 Y-28.017 E2736.65672
G0 F18000 X-35.695 Y-28.137
G1 F2400 X-38.213 Y-23.777 E2736.86602
G0 F18000 X-38.213 Y-24.989
G1 F2400 X-34.593 Y-24.989 E2737.01652
G0 F18000 X-34.592 Y-23.383
G1 F2400 X-38.212 Y-17.113 E2737.31751
G0 F18000 X-38.213 Y-18.325
G1 F2400 X-34.593 Y-18.325 E2737.46801
G0 F18000 X-34.592 Y-16.719
G1 F2400 X-38.212 Y-10.449 E2737.76899
G0 F18000 X-38.213 Y-11.661
G1 F2400 X-34.593 Y-11.661 E2737.91949
G0 F18000 X-34.592 Y-10.055
G1 F2400 X-38.212 Y-3.785 E2738.22048
G0 F18000 X-38.213 Y-4.997
G1 F2400 X-34.593 Y-4.997 E2738.37098
G0 F18000 X-34.592 Y-6.603
G1 F2400 X-38.212 Y-12.873 E2738.67193
G0 F18000 X-38.213 Y-13.327
G1 F2400 X-34.593 Y-13.327 E2738.82243
G0 F18000 X-34.592 Y-13.268
G1 F2400 X-38.212 Y-19.537 E2739.12334
G0 F18000 X-38.213 Y-19.991
G1 F2400 X-34.593 Y-19.991 E2739.27384
G0 F18000 X-34.593 Y-20.05
G1 F2400 X-38.212 Y-13.781 E2739.57477
G0 F18000 X-38.213 Y-14.993
G1 F2400 X-34.593 Y-14.993 E2739.72527
G0 F18000 X-34.593 Y-13.387
G1 F2400 X-38.212 Y-7.117 E2740.02623
G0 F18000 X-38.213 Y-6.663
G1 F2400 X-34.593 Y-6.663 E2740.17673
G0 F18000 X-34.592 Y-6.723
G1 F2400 X-38.212 Y-0.454 E2740.47768
G0 F18000 X-38.213 Y-1.665
G1 F2400 X-34.593 Y-1.665 E2740.62818
G0 F18000 X-34.592 Y0.06
G1 F2400 X-38.212 Y-6.209 E2740.92909
G0 F18000 X-38.213 Y-8.329
G1 F2400 X-34.593 Y-8.329 E2741.07959
G0 F18000 X-34.592 Y-3.391
G1 F2400 X-38.212 Y2.878 E2741.38054
G0 F18000 X-38.213 Y1.666
G1 F2400 X-34.593 Y1.666 E2741.53104
G0 F18000 X-34.592 Y3.272
G1 F2400 X-38.212 Y9.542 E2741.83202
G0 F18000 X-38.213 Y8.33
G1 F2400 X-34.593 Y8.33 E2741.98253
G0 F18000 X-34.592 Y9.935
G1 F2400 X-38.212 Y16.205 E2742.28351
G0 F18000 X-38.213 Y14.994
G1 F2400 X-34.593 Y14.994 E2742.43401
G0 F18000 X-34.592 Y16.599
G1 F2400 X-37.213 Y21.14 E2742.65197
G0 F18000 X-37 Y21.019
G1 F2400 X-36.999 Y32.639 E2743.13508
G0 F18000 X-37.013 Y32.519
G1 F2400 X-36.655 Y33.139 E2743.16484
G0 F18000 X-36.499 Y33.019
G1 F2400 X-36.499 Y34.639 E2743.23219
G0 F18000 X-36.999 Y34.639
G1 F2400 X-36.999 Y33.019 E2743.29951
G0 F18000 X-37.499 Y33.019
G1 F2400 X-37.499 Y34.639 E2743.36686
G0 F18000 X-36.446 Y33.139
G0 X-36.446 Y33.139
G1 F2400 X-36.088 Y32.519 E2743.39659
G0 F18000 X-36.499 Y32.639
G1 F2400 X-36.5 Y21.019 E2743.87965
G0 F18000 X-37.5 Y21.019
G1 F2400 X-37.499 Y32.639 E2744.36275
G0 F18000 X-35.089 Y32.519
G1 F2400 X-34.625 Y33.139 E2744.39244
G1 X-34.164 Y32.519 E2744.42452
G0 F18000 X-33.999 Y32.639
G1 F2400 X-34 Y-32.637 E2747.13834
G0 F18000 X-34.163 Y-32.517
G1 F2400 X-34.521 Y-33.137 E2747.16805
G0 F18000 X-34.5 Y-33.017
G1 F2400 X-34.5 Y-34.637 E2747.23536
G0 F18000 X-35 Y-34.637
G1 F2400 X-35 Y-33.017 E2747.30271
G0 F18000 X-34.732 Y-33.136
G1 F2400 X-35.09 Y-32.516 E2747.33246
G0 F18000 X-35 Y-32.637
G1 F2400 X-35 Y-28.017 E2747.52453
G0 F18000 X-34.592 Y-26.715
G1 F2400 X-38.212 Y-20.445 E2747.82552
G0 F18000 X-38.213 Y-21.657
G1 F2400 X-34.593 Y-21.657 E2747.97602
G0 F18000 X-34.592 Y-19.932
G1 F2400 X-38.212 Y-26.201 E2748.27693
G0 F18000 X-37 Y-28.017
G1 F2400 X-37 Y-32.637 E2748.46897
G0 F18000 X-37.014 Y-32.516
G1 F2400 X-36.656 Y-33.136 E2748.49869
G0 F18000 X-36.5 Y-33.017
G1 F2400 X-36.5 Y-34.637 E2748.56601
G0 F18000 X-37 Y-34.637
G1 F2400 X-37 Y-33.017 E2748.63336
G0 F18000 X-36.445 Y-33.137
G1 F2400 X-36.087 Y-32.517 E2748.66312
G0 F18000 X-36.5 Y-32.637
G1 F2400 X-36.5 Y-28.017 E2748.8552
G0 F18000 X-34.5 Y-32.637
G1 F2400 X-34.499 Y32.639 E2751.56906
G0 F18000 X-34.499 Y33.019
G1 F2400 X-34.499 Y34.639 E2751.63641
G0 F18000 X-34.999 Y34.639
G1 F2400 X-34.999 Y33.019 E2751.70372
G0 F18000 X-34.999 Y32.639
G1 F2400 X-35 Y21.019 E2752.18678
G0 F18000 X-33.165 Y32.519
G1 F2400 X-32.701 Y33.139 E2752.21647
G1 X-32.241 Y32.52 E2752.2485
G0 F18000 X-31.999 Y32.639
G1 F2400 X-32 Y-32.637 E2754.96232
G0 F18000 X-32.24 Y-32.517
G1 F2400 X-32.598 Y-33.137 E2754.99203
G0 F18000 X-32.5 Y-33.017
G1 F2400 X-32.5 Y-34.637 E2755.05934
G0 F18000 X-33 Y-34.637
G1 F2400 X-33 Y-33.017 E2755.12669
G0 F18000 X-32.809 Y-33.137
G1 F2400 X-33.167 Y-32.516 E2755.15647
G0 F18000 X-33 Y-32.637
G1 F2400 X-32.999 Y32.639 E2757.87033
G0 F18000 X-32.999 Y33.019
G1 F2400 X-32.999 Y34.639 E2757.93768
G0 F18000 X-33.499 Y34.639
G1 F2400 X-33.499 Y33.019 E2758.00499
G0 F18000 X-33.499 Y32.639
G1 F2400 X-33.5 Y-32.637 E2760.71881
G0 F18000 X-33.5 Y-33.017
G1 F2400 X-33.5 Y-34.637 E2760.78612
G0 F18000 X-34 Y-34.637
G1 F2400 X-34 Y-33.017 E2760.85347
G0 F18000 X-32.5 Y-32.637
G0 X-32.5 Y-32.637
G1 F2400 X-32.499 Y32.639 E2763.56733
G0 F18000 X-32.499 Y33.019
G1 F2400 X-32.499 Y34.639 E2763.63468
G0 F18000 X-31.999 Y34.639
G1 F2400 X-31.999 Y33.019 E2763.70199
G0 F18000 X-31.499 Y33.019
G1 F2400 X-31.499 Y34.639 E2763.76935
G0 F18000 X-30.999 Y34.639
G1 F2400 X-30.999 Y33.019 E2763.83666
G0 F18000 X-30.884 Y33.138
G1 F2400 X-31.242 Y32.518 E2763.86636
G0 F18000 X-30.999 Y32.639
G1 F2400 X-31 Y-32.637 E2766.58018
G0 F18000 X-31.243 Y-32.517
G1 F2400 X-30.885 Y-33.137 E2766.60991
G0 F18000 X-31 Y-33.017
G1 F2400 X-31 Y-34.637 E2766.67722
G0 F18000 X-31.5 Y-34.637
G1 F2400 X-31.5 Y-33.017 E2766.74458
G0 F18000 X-31.5 Y-32.637
G1 F2400 X-31.499 Y32.639 E2769.45844
G0 F18000 X-30.675 Y33.14
G1 F2400 X-30.317 Y32.519 E2769.4882
G0 F18000 X-30.499 Y32.639
G1 F2400 X-30.5 Y-32.637 E2772.20202
G0 F18000 X-30.316 Y-32.517
G1 F2400 X-30.674 Y-33.137 E2772.23173
G0 F18000 X-30.5 Y-33.017
G1 F2400 X-30.5 Y-34.637 E2772.29904
G0 F18000 X-30 Y-34.637
G1 F2400 X-30 Y-33.017 E2772.36639
G0 F18000 X-30 Y-32.637
G1 F2400 X-29.999 Y32.639 E2775.08025
G0 F18000 X-29.999 Y33.019
G1 F2400 X-29.999 Y34.639 E2775.1476
G0 F18000 X-30.499 Y34.639
G1 F2400 X-30.499 Y33.019 E2775.21491
G0 F18000 X-29.499 Y33.019
G1 F2400 X-29.499 Y34.639 E2775.28227
G0 F18000 X-28.999 Y34.639
G1 F2400 X-28.999 Y33.019 E2775.34958
G0 F18000 X-28.96 Y33.139
G1 F2400 X-29.318 Y32.518 E2775.37932
G0 F18000 X-29.499 Y32.639
G1 F2400 X-29.5 Y-32.637 E2778.09314
G0 F18000 X-29.319 Y-32.517
G1 F2400 X-28.961 Y-33.137 E2778.12287
G0 F18000 X-29 Y-33.018
G1 F2400 X-29 Y-34.638 E2778.19018
G0 F18000 X-29.5 Y-34.638
G1 F2400 X-29.5 Y-33.018 E2778.25753
G0 F18000 X-29 Y-32.637
G1 F2400 X-28.999 Y32.639 E2780.97139
G0 F18000 X-28.499 Y32.639
G1 F2400 X-28.5 Y-32.637 E2783.68521
G0 F18000 X-28.392 Y-32.517
G1 F2400 X-28.75 Y-33.137 E2783.71492
G0 F18000 X-28.5 Y-33.018
G1 F2400 X-28.5 Y-34.638 E2783.78223
G0 F18000 X-28 Y-34.638
G1 F2400 X-28 Y-33.018 E2783.84958
G0 F18000 X-28 Y-32.637
G1 F2400 X-27.999 Y32.639 E2786.56344
G0 F18000 X-27.999 Y33.019
G1 F2400 X-27.999 Y34.639 E2786.63079
G0 F18000 X-28.499 Y34.639
G1 F2400 X-28.499 Y33.019 E2786.6981
G0 F18000 X-28.751 Y33.139
G1 F2400 X-28.393 Y32.519 E2786.72783
G0 F18000 X-27.499 Y32.639
G1 F2400 X-27.5 Y-32.637 E2789.44165
G0 F18000 X-27.395 Y-32.517
G1 F2400 X-27.037 Y-33.137 E2789.47138
G0 F18000 X-27 Y-33.018
G1 F2400 X-27 Y-34.638 E2789.53869
G0 F18000 X-27.5 Y-34.638
G1 F2400 X-27.5 Y-33.018 E2789.60604
G0 F18000 X-27 Y-32.637
G1 F2400 X-26.999 Y32.639 E2792.3199
G0 F18000 X-26.999 Y33.019
G1 F2400 X-26.999 Y34.639 E2792.38725
G0 F18000 X-27.499 Y34.639
G1 F2400 X-27.499 Y33.019 E2792.45456
G0 F18000 X-27.036 Y33.139
G1 F2400 X-27.109 Y32.829 E2792.48422
G1 X-26.47 Y32.519 E2792.51373
G0 F18000 X-26.499 Y32.639
G1 F2400 X-26.5 Y-32.637 E2795.22755
G0 F18000 X-26.468 Y-32.517
G1 F2400 X-26.826 Y-33.137 E2795.25726
G0 F18000 X-26.5 Y-33.018
G1 F2400 X-26.5 Y-34.638 E2795.32457
G0 F18000 X-26 Y-34.638
G1 F2400 X-26 Y-33.018 E2795.39192
G0 F18000 X-26 Y-32.637
G1 F2400 X-25.999 Y32.639 E2798.10578
G0 F18000 X-25.999 Y33.019
G1 F2400 X-25.999 Y34.639 E2798.17313
G0 F18000 X-26.499 Y34.639
G1 F2400 X-26.499 Y33.019 E2798.24044
G0 F18000 X-25.499 Y33.019
G1 F2400 X-25.499 Y34.639 E2798.30779
G0 F18000 X-24.999 Y34.639
G1 F2400 X-24.999 Y33.019 E2798.3751
G0 F18000 X-24.904 Y33.139
G1 F2400 X-24.546 Y32.519 E2798.40483
G0 F18000 X-24.499 Y32.639
G1 F2400 X-24.5 Y-32.637 E2801.11865
G0 F18000 X-24.544 Y-32.517
G1 F2400 X-24.902 Y-33.137 E2801.14836
G0 F18000 X-25 Y-33.018
G1 F2400 X-25 Y-34.638 E2801.21567
G0 F18000 X-25.5 Y-34.638
G1 F2400 X-25.5 Y-33.018 E2801.28302
G0 F18000 X-25.5 Y-32.637
G1 F2400 X-25.499 Y32.639 E2803.99688
G0 F18000 X-25.47 Y32.519
G1 F2400 X-25.112 Y33.139 E2804.02665
G0 F18000 X-24.999 Y32.639
G1 F2400 X-25 Y-32.637 E2806.74047
G0 F18000 X-25.471 Y-32.517
G1 F2400 X-25.113 Y-33.137 E2806.77019
G0 F18000 X-24.5 Y-33.018
G1 F2400 X-24.5 Y-34.638 E2806.8375
G0 F18000 X-24 Y-34.638
G1 F2400 X-24 Y-33.018 E2806.90486
G0 F18000 X-24 Y-32.637
G1 F2400 X-23.999 Y32.639 E2809.61872
G0 F18000 X-23.999 Y33.019
G1 F2400 X-23.999 Y34.639 E2809.68607
G0 F18000 X-24.499 Y34.639
G1 F2400 X-24.499 Y33.019 E2809.75338
G0 F18000 X-23.499 Y33.019
G1 F2400 X-23.499 Y34.639 E2809.82073
G0 F18000 X-22.999 Y34.639
G1 F2400 X-22.999 Y33.019 E2809.88804
G0 F18000 X-22.98 Y33.139
G1 F2400 X-22.622 Y32.519 E2809.91777
G0 F18000 X-22.499 Y32.639
G1 F2400 X-22.5 Y-32.637 E2812.63159
G0 F18000 X-22.621 Y-32.517
G1 F2400 X-22.979 Y-33.137 E2812.6613
G0 F18000 X-23 Y-33.018
G1 F2400 X-23 Y-34.638 E2812.72861
G0 F18000 X-23.5 Y-34.638
G1 F2400 X-23.5 Y-33.018 E2812.79596
G0 F18000 X-23.19 Y-33.136
G1 F2400 X-23.548 Y-32.516 E2812.8257
G0 F18000 X-23.5 Y-32.637
G1 F2400 X-23.499 Y32.639 E2815.53956
G0 F18000 X-23.547 Y32.519
G1 F2400 X-23.189 Y33.139 E2815.56933
G0 F18000 X-22.999 Y32.639
G1 F2400 X-23 Y-32.637 E2818.28315
G0 F18000 X-22.5 Y-33.018
G1 F2400 X-22.5 Y-34.638 E2818.35046
G0 F18000 X-22 Y-34.638
G1 F2400 X-22 Y-33.018 E2818.41781
G0 F18000 X-22 Y-32.637
G1 F2400 X-21.999 Y32.639 E2821.13167
G0 F18000 X-21.999 Y33.019
G1 F2400 X-21.999 Y34.639 E2821.19902
G0 F18000 X-22.499 Y34.639
G1 F2400 X-22.499 Y33.019 E2821.26633
G0 F18000 X-21.499 Y33.019
G1 F2400 X-21.499 Y34.639 E2821.33369
G0 F18000 X-20.999 Y34.639
G1 F2400 X-20.999 Y33.019 E2821.401
G0 F18000 X-21.056 Y33.139
G1 F2400 X-20.698 Y32.519 E2821.43072
G0 F18000 X-20.499 Y32.639
G1 F2400 X-20.5 Y11.966 E2822.29017
G0 F18000 X-20.521 Y12.219
G1 F2400 X-19.818 Y11.001 E2822.3486
G0 F18000 X-20 Y11.14
G1 F2400 X-20 Y-16.531 E2823.49898
G0 F18000 X-20.436 Y-16.66
G1 F2400 X-19.245 Y-16.66 E2823.5485
G0 F18000 X-19.24 Y-16.665
G1 F2400 X-19.996 Y-17.974 E2823.61129
G0 F18000 X-20 Y-17.851
G1 F2400 X-20 Y-32.637 E2824.22598
G0 F18000 X-19.7 Y-32.516
G1 F2400 X-19.342 Y-33.136 E2824.25571
G0 F18000 X-19.5 Y-33.018
G1 F2400 X-19.5 Y-34.638 E2824.32302
G0 F18000 X-20 Y-34.638
G1 F2400 X-20 Y-33.018 E2824.39037
G0 F18000 X-20.5 Y-33.018
G1 F2400 X-20.5 Y-34.638 E2824.45768
G0 F18000 X-21 Y-34.638
G1 F2400 X-21 Y-33.018 E2824.52503
G0 F18000 X-21.055 Y-33.137
G1 F2400 X-20.697 Y-32.517 E2824.5548
G0 F18000 X-20.5 Y-32.637
G1 F2400 X-20.5 Y-17.348 E2825.19044
G0 F18000 X-20.5 Y-17.031
G1 F2400 X-20.5 Y11.636 E2826.38227
G0 F18000 X-20.624 Y11.662
G1 F2400 X-19.054 Y11.662 E2826.44755
G0 F18000 X-19.5 Y11.211
G1 F2400 X-19.5 Y-16.6 E2827.60375
G0 F18000 X-19.216 Y-16.695
G1 F2400 X-19.095 Y-16.904 E2827.61376
G0 F18000 X-19.5 Y-17.782
G1 F2400 X-19.5 Y-32.637 E2828.23131
G0 F18000 X-19 Y-32.637
G1 F2400 X-18.999 Y32.639 E2830.94518
G0 F18000 X-18.775 Y32.519
G1 F2400 X-19.133 Y33.139 E2830.97492
G0 F18000 X-18.999 Y33.019
G1 F2400 X-18.999 Y34.639 E2831.04227
G0 F18000 X-19.499 Y34.639
G1 F2400 X-19.499 Y33.019 E2831.10958
G0 F18000 X-19.341 Y33.139
G1 F2400 X-19.699 Y32.519 E2831.13929
G0 F18000 X-19.499 Y32.639
G1 F2400 X-19.5 Y12.391 E2831.98106
G0 F18000 X-19.668 Y12.581
G1 F2400 X-20.428 Y11.265 E2832.04419
G0 F18000 X-20 Y12.461
G1 F2400 X-19.999 Y32.639 E2832.88309
G0 F18000 X-19.999 Y33.019
G1 F2400 X-19.999 Y34.639 E2832.95044
G0 F18000 X-20.499 Y34.639
G1 F2400 X-20.499 Y33.019 E2833.01775
G0 F18000 X-20.999 Y32.639
G1 F2400 X-21 Y-32.637 E2835.73157
G0 F18000 X-21.5 Y-32.637
G1 F2400 X-21.499 Y32.639 E2838.44543
G0 F18000 X-21.623 Y32.519
G1 F2400 X-21.265 Y33.139 E2838.4752
G0 F18000 X-18.499 Y33.019
G1 F2400 X-18.499 Y34.639 E2838.54255
G0 F18000 X-17.999 Y34.639
G1 F2400 X-17.999 Y33.019 E2838.60986
G0 F18000 X-17.999 Y32.639
G1 F2400 X-18 Y-32.637 E2841.32368
G0 F18000 X-17.777 Y-32.517
G1 F2400 X-17.419 Y-33.137 E2841.35341
G0 F18000 X-17.5 Y-33.018
G1 F2400 X-17.5 Y-34.638 E2841.42072
G0 F18000 X-18 Y-34.638
G1 F2400 X-18 Y-33.018 E2841.48807
G0 F18000 X-18.5 Y-33.018
G1 F2400 X-18.5 Y-34.638 E2841.55538
G0 F18000 X-19 Y-34.638
G1 F2400 X-19 Y-33.018 E2841.62273
G0 F18000 X-19.131 Y-33.137
G1 F2400 X-18.773 Y-32.517 E2841.6525
G0 F18000 X-18.5 Y-32.637
G1 F2400 X-18.499 Y32.639 E2844.36636
G0 F18000 X-17.775 Y32.519
G1 F2400 X-17.417 Y33.139 E2844.39612
G0 F18000 X-17.499 Y33.019
G1 F2400 X-17.499 Y34.639 E2844.46347
G0 F18000 X-16.999 Y34.639
G1 F2400 X-16.999 Y33.019 E2844.53079
G0 F18000 X-17.209 Y33.139
G1 F2400 X-16.851 Y32.52 E2844.56048
G0 F18000 X-16.999 Y32.639
G1 F2400 X-17 Y-32.637 E2847.2743
G0 F18000 X-16.85 Y-32.517
G1 F2400 X-17.208 Y-33.137 E2847.30401
G0 F18000 X-17 Y-33.018
G1 F2400 X-17 Y-34.638 E2847.37132
G0 F18000 X-16.5 Y-34.638
G1 F2400 X-16.5 Y-33.018 E2847.43867
G0 F18000 X-16.5 Y-32.637
G1 F2400 X-16.499 Y32.639 E2850.15253
G0 F18000 X-16.499 Y33.019
G1 F2400 X-16.499 Y34.639 E2850.21988
G0 F18000 X-15.999 Y34.639
G1 F2400 X-15.999 Y33.019 E2850.28719
G0 F18000 X-15.999 Y32.639
G1 F2400 X-16 Y-32.637 E2853.00101
G0 F18000 X-15.853 Y-32.517
G1 F2400 X-15.495 Y-33.137 E2853.03074
G0 F18000 X-15.5 Y-33.018
G1 F2400 X-15.5 Y-34.638 E2853.09805
G0 F18000 X-16 Y-34.638
G1 F2400 X-16 Y-33.018 E2853.1654
G0 F18000 X-15.5 Y-32.637
G1 F2400 X-15.499 Y32.639 E2855.87926
G0 F18000 X-15.852 Y32.518
G1 F2400 X-15.494 Y33.138 E2855.90903
G0 F18000 X-15.499 Y33.019
G1 F2400 X-15.499 Y34.639 E2855.97638
G0 F18000 X-14.999 Y34.639
G1 F2400 X-14.999 Y33.019 E2856.04369
G0 F18000 X-15.285 Y33.139
G1 F2400 X-14.927 Y32.519 E2856.07342
G0 F18000 X-14.999 Y32.639
G1 F2400 X-15 Y-32.637 E2858.78724
G0 F18000 X-14.926 Y-32.517
G1 F2400 X-15.284 Y-33.137 E2858.81695
G0 F18000 X-15 Y-33.018
G1 F2400 X-15 Y-34.638 E2858.88426
G0 F18000 X-14.5 Y-34.638
G1 F2400 X-14.5 Y-33.018 E2858.95161
G0 F18000 X-14.5 Y-32.638
G1 F2400 X-14.499 Y32.639 E2861.66551
G0 F18000 X-14.499 Y33.019
G1 F2400 X-14.499 Y34.639 E2861.73286
G0 F18000 X-13.999 Y34.639
G1 F2400 X-13.999 Y33.019 E2861.80017
G0 F18000 X-13.999 Y32.639
G1 F2400 X-14 Y-32.638 E2864.51403
G0 F18000 X-13.929 Y-32.517
G1 F2400 X-13.571 Y-33.137 E2864.54376
G0 F18000 X-13.5 Y-33.018
G1 F2400 X-13.5 Y-34.638 E2864.61107
G0 F18000 X-14 Y-34.638
G1 F2400 X-14 Y-33.018 E2864.67842
G0 F18000 X-13.5 Y-32.638
G1 F2400 X-13.499 Y32.639 E2867.39233
G0 F18000 X-13.499 Y33.019
G1 F2400 X-13.499 Y34.639 E2867.45968
G0 F18000 X-12.999 Y34.639
G1 F2400 X-12.999 Y33.019 E2867.52699
G0 F18000 X-12.999 Y32.639
G1 F2400 X-13 Y-32.638 E2870.24085
G0 F18000 X-13.002 Y-32.517
G1 F2400 X-13.36 Y-33.137 E2870.27056
G0 F18000 X-13 Y-33.018
G1 F2400 X-13 Y-34.638 E2870.33787
G0 F18000 X-12.5 Y-34.638
G1 F2400 X-12.5 Y-33.018 E2870.40522
G0 F18000 X-12.5 Y-32.638
G1 F2400 X-12.499 Y32.639 E2873.11912
G0 F18000 X-12.499 Y33.019
G1 F2400 X-12.499 Y34.639 E2873.18647
G0 F18000 X-11.999 Y34.639
G1 F2400 X-11.999 Y33.019 E2873.25378
G0 F18000 X-11.646 Y33.139
G1 F2400 X-12.004 Y32.519 E2873.28349
G0 F18000 X-11.999 Y32.639
G1 F2400 X-12 Y-32.638 E2875.99735
G0 F18000 X-12.005 Y-32.517
G1 F2400 X-11.647 Y-33.137 E2876.02708
G0 F18000 X-11.5 Y-33.018
G1 F2400 X-11.5 Y-34.638 E2876.09439
G0 F18000 X-12 Y-34.638
G1 F2400 X-12 Y-33.018 E2876.16174
G0 F18000 X-11.436 Y-33.137
G1 F2400 X-11.078 Y-32.517 E2876.19151
G0 F18000 X-11 Y-32.638
G1 F2400 X-10.999 Y32.639 E2878.90541
G0 F18000 X-11.08 Y32.519
G1 F2400 X-11.438 Y33.139 E2878.93515
G0 F18000 X-11.499 Y33.019
G1 F2400 X-11.499 Y34.639 E2879.00251
G0 F18000 X-10.999 Y34.639
G1 F2400 X-10.999 Y33.019 E2879.06982
G0 F18000 X-10.499 Y33.019
G1 F2400 X-10.499 Y34.639 E2879.13717
G0 F18000 X-9.999 Y34.639
G1 F2400 X-9.999 Y33.019 E2879.20448
G0 F18000 X-9.722 Y33.139
G1 F2400 X-10.08 Y32.519 E2879.23419
G0 F18000 X-9.999 Y32.639
G1 F2400 X-10 Y-32.638 E2881.94805
G0 F18000 X-10.081 Y-32.517
G1 F2400 X-9.616 Y-33.135 E2881.97779
G1 X-9.155 Y-32.516 E2882.00988
G0 F18000 X-9 Y-32.638
G1 F2400 X-8.999 Y32.639 E2884.72378
G0 F18000 X-9.156 Y32.519
G1 F2400 X-9.514 Y33.139 E2884.75353
G0 F18000 X-9.499 Y33.019
G1 F2400 X-9.499 Y34.639 E2884.82088
G0 F18000 X-8.999 Y34.639
G1 F2400 X-8.999 Y33.019 E2884.88819
G0 F18000 X-8.499 Y33.019
G1 F2400 X-8.499 Y34.639 E2884.95554
G0 F18000 X-7.999 Y34.639
G1 F2400 X-7.999 Y33.019 E2885.02285
G0 F18000 X-7.799 Y33.139
G1 F2400 X-8.157 Y32.519 E2885.05256
G0 F18000 X-7.999 Y32.639
G1 F2400 X-8 Y-32.638 E2887.76642
G0 F18000 X-8.158 Y-32.516
G1 F2400 X-7.693 Y-33.135 E2887.79613
G1 X-7.231 Y-32.517 E2887.82821
G0 F18000 X-7 Y-32.638
G1 F2400 X-6.999 Y32.639 E2890.54211
G0 F18000 X-7.232 Y32.519
G1 F2400 X-7.59 Y33.139 E2890.57186
G0 F18000 X-7.499 Y33.019
G1 F2400 X-7.499 Y34.639 E2890.63921
G0 F18000 X-6.999 Y34.639
G1 F2400 X-6.999 Y33.019 E2890.70652
G0 F18000 X-6.499 Y33.019
G1 F2400 X-6.499 Y34.639 E2890.77387
G0 F18000 X-5.999 Y34.639
G1 F2400 X-5.999 Y33.019 E2890.84118
G0 F18000 X-5.875 Y33.139
G1 F2400 X-6.233 Y32.519 E2890.87089
G0 F18000 X-5.999 Y32.639
G1 F2400 X-6 Y-32.638 E2893.58475
G0 F18000 X-6.234 Y-32.516
G1 F2400 X-5.876 Y-33.136 E2893.61448
G0 F18000 X-6 Y-33.018
G1 F2400 X-6 Y-34.638 E2893.68179
G0 F18000 X-6.5 Y-34.638
G1 F2400 X-6.5 Y-33.018 E2893.74914
G0 F18000 X-6.5 Y-32.638
G1 F2400 X-6.499 Y32.639 E2896.46304
G0 F18000 X-5.666 Y33.139
G1 F2400 X-5.308 Y32.519 E2896.49277
G0 F18000 X-5.499 Y32.639
G1 F2400 X-5.5 Y-32.638 E2899.20663
G0 F18000 X-5.307 Y-32.517
G1 F2400 X-5.665 Y-33.137 E2899.23634
G0 F18000 X-5.5 Y-33.018
G1 F2400 X-5.5 Y-34.638 E2899.30365
G0 F18000 X-5 Y-34.638
G1 F2400 X-5 Y-33.018 E2899.371
G0 F18000 X-5 Y-32.638
G1 F2400 X-4.999 Y32.639 E2902.08491
G0 F18000 X-4.999 Y33.019
G1 F2400 X-4.999 Y34.639 E2902.15226
G0 F18000 X-5.499 Y34.639
G1 F2400 X-5.499 Y33.019 E2902.21957
G0 F18000 X-4.499 Y33.019
G1 F2400 X-4.499 Y34.639 E2902.28692
G0 F18000 X-3.999 Y34.639
G1 F2400 X-3.999 Y33.019 E2902.35423
G0 F18000 X-3.951 Y33.139
G1 F2400 X-4.309 Y32.519 E2902.38394
G0 F18000 X-4.499 Y32.639
G1 F2400 X-4.5 Y-32.638 E2905.0978
G0 F18000 X-4.311 Y-32.516
G1 F2400 X-3.953 Y-33.137 E2905.12756
G0 F18000 X-4 Y-33.018
G1 F2400 X-4 Y-34.638 E2905.19487
G0 F18000 X-4.5 Y-34.638
G1 F2400 X-4.5 Y-33.018 E2905.26223
G0 F18000 X-4 Y-32.638
G1 F2400 X-3.999 Y32.639 E2907.97613
G0 F18000 X-3.499 Y32.639
G1 F2400 X-3.5 Y-32.638 E2910.68999
G0 F18000 X-3.384 Y-32.517
G1 F2400 X-3.742 Y-33.137 E2910.7197
G0 F18000 X-3.5 Y-33.018
G1 F2400 X-3.5 Y-34.638 E2910.78701
G0 F18000 X-3 Y-34.638
G1 F2400 X-3 Y-33.018 E2910.85436
G0 F18000 X-3 Y-32.638
G1 F2400 X-2.999 Y32.639 E2913.56826
G0 F18000 X-2.999 Y33.019
G1 F2400 X-2.999 Y34.639 E2913.63561
G0 F18000 X-3.499 Y34.639
G1 F2400 X-3.499 Y33.019 E2913.70292
G0 F18000 X-3.743 Y33.139
G1 F2400 X-3.385 Y32.519 E2913.73265
G0 F18000 X-2.499 Y32.639
G1 F2400 X-2.5 Y-32.638 E2916.44651
G0 F18000 X-2.387 Y-32.517
G1 F2400 X-2.029 Y-33.137 E2916.47624
G0 F18000 X-2 Y-33.018
G1 F2400 X-2 Y-34.638 E2916.54355
G0 F18000 X-2.5 Y-34.638
G1 F2400 X-2.5 Y-33.018 E2916.6109
G0 F18000 X-2 Y-32.638
G1 F2400 X-1.999 Y32.639 E2919.32481
G0 F18000 X-1.999 Y33.019
G1 F2400 X-1.999 Y34.639 E2919.39216
G0 F18000 X-2.499 Y34.639
G1 F2400 X-2.499 Y33.019 E2919.45947
G0 F18000 X-2.027 Y33.139
G1 F2400 X-2.1 Y32.829 E2919.48912
G1 X-1.461 Y32.519 E2919.51863
G0 F18000 X-1.499 Y32.639
G1 F2400 X-1.5 Y-32.638 E2922.23249
G0 F18000 X-1.46 Y-32.517
G1 F2400 X-1.818 Y-33.137 E2922.2622
G0 F18000 X-1.5 Y-33.018
G1 F2400 X-1.5 Y-34.638 E2922.32951
G0 F18000 X-1 Y-34.638
G1 F2400 X-1 Y-33.018 E2922.39686
G0 F18000 X-1 Y-32.638
G1 F2400 X-0.999 Y32.639 E2925.11076
G0 F18000 X-0.999 Y33.019
G1 F2400 X-0.999 Y34.639 E2925.17812
G0 F18000 X-1.499 Y34.639
G1 F2400 X-1.499 Y33.019 E2925.24543
G0 F18000 X-0.499 Y33.019
G1 F2400 X-0.499 Y34.639 E2925.31278
G0 F18000 X0 Y34.639
G1 F2400 X0 Y33.019 E2925.38009
G0 F18000 X0.103 Y33.139
G1 F2400 X0.461 Y32.519 E2925.40982
G0 F18000 X0.5 Y32.64
G1 F2400 X0.499 Y-32.637 E2928.12368
G0 F18000 X0.463 Y-32.517
G1 F2400 X0.105 Y-33.137 E2928.15339
G0 F18000 X0 Y-33.018
G1 F2400 X0 Y-34.638 E2928.2207
G0 F18000 X0.499 Y-34.637
G1 F2400 X0.499 Y-33.017 E2928.28805
G0 F18000 X0.999 Y-33.017
G1 F2400 X0.999 Y-34.637 E2928.35536
G0 F18000 X1.499 Y-34.637
G1 F2400 X1.499 Y-33.017 E2928.42271
G0 F18000 X1.818 Y-33.137
G1 F2400 X1.46 Y-32.517 E2928.45245
G0 F18000 X1.499 Y-32.637
G1 F2400 X1.499 Y-17.755 E2929.07118
G0 F18000 X1.302 Y-17.735
G1 F2400 X2.056 Y-16.429 E2929.13387
G0 F18000 X1.999 Y-16.546
G1 F2400 X2 Y11.212 E2930.28792
G0 F18000 X1.5 Y11.34
G1 F2400 X1.499 Y-16.672 E2931.45248
G0 F18000 X1.325 Y-16.66
G1 F2400 X2.481 Y-16.66 E2931.50054
G0 F18000 X2.499 Y-16.885
G1 F2400 X2.5 Y11.556 E2932.68298
G0 F18000 X2.674 Y11.662
G1 F2400 X1.132 Y11.662 E2932.74705
G0 F18000 X1.104 Y11.909
G1 F2400 X1.478 Y12.556 E2932.77812
G0 F18000 X1.5 Y12.424
G1 F2400 X1.5 Y32.64 E2933.6186
G0 F18000 X1.461 Y32.519
G1 F2400 X1.923 Y33.139 E2933.64837
G1 X2.385 Y32.519 E2933.68048
G0 F18000 X2.5 Y32.64
G1 F2400 X2.5 Y12.208 E2934.5299
G0 F18000 X2.692 Y11.995
G1 F2400 X2.399 Y12.503 E2934.55426
G0 F18000 X2 Y12.549
G1 F2400 X2 Y32.64 E2935.38955
G0 F18000 X2 Y33.02
G1 F2400 X2 Y34.64 E2935.4569
G0 F18000 X1.5 Y34.64
G1 F2400 X1.5 Y33.02 E2935.52421
G0 F18000 X1 Y33.02
G1 F2400 X1 Y34.64 E2935.59156
G0 F18000 X0.5 Y34.64
G1 F2400 X0.5 Y33.02 E2935.65887
G0 F18000 X-0.104 Y33.139
G1 F2400 X-0.462 Y32.518 E2935.68862
G0 F18000 X-0.499 Y32.639
G1 F2400 X-0.5 Y-32.638 E2938.40248
G0 F18000 X-0.463 Y-32.517
G1 F2400 X-0.105 Y-33.137 E2938.43221
G0 F18000 X-0.5 Y-33.018
G1 F2400 X-0.5 Y-34.638 E2938.49952
G0 F18000 X0 Y-32.638
G0 X0 Y-32.638
G1 F2400 X0 Y32.639 E2941.21342
G0 F18000 X1 Y32.64
G1 F2400 X0.999 Y-32.637 E2943.92728
G0 F18000 X1.999 Y-32.637
G1 F2400 X1.999 Y-17.883 E2944.54068
G0 F18000 X2.529 Y-17.708
G1 F2400 X1.788 Y-16.426 E2944.60222
G0 F18000 X2.499 Y-17.547
G1 F2400 X2.499 Y-32.637 E2945.22955
G0 F18000 X2.387 Y-32.517
G1 F2400 X2.029 Y-33.137 E2945.25926
G0 F18000 X1.999 Y-33.017
G1 F2400 X1.999 Y-34.637 E2945.32657
G0 F18000 X2.499 Y-34.637
G1 F2400 X2.499 Y-33.017 E2945.39392
G0 F18000 X2.999 Y-33.017
G1 F2400 X2.999 Y-34.637 E2945.46123
G0 F18000 X3.499 Y-34.637
G1 F2400 X3.499 Y-33.017 E2945.52858
G0 F18000 X3.742 Y-33.137
G1 F2400 X3.384 Y-32.517 E2945.55833
G0 F18000 X3.499 Y-32.637
G1 F2400 X3.5 Y32.64 E2948.27223
G0 F18000 X3.385 Y32.519
G1 F2400 X3.847 Y33.139 E2948.302
G1 X4.309 Y32.519 E2948.33411
G0 F18000 X4.5 Y32.64
G1 F2400 X4.499 Y-32.637 E2951.04797
G0 F18000 X4.311 Y-32.516
G1 F2400 X3.953 Y-33.137 E2951.07771
G0 F18000 X3.999 Y-33.017
G1 F2400 X3.999 Y-34.637 E2951.14502
G0 F18000 X4.499 Y-34.637
G1 F2400 X4.499 Y-33.017 E2951.21238
G0 F18000 X4.999 Y-33.017
G1 F2400 X4.999 Y-34.637 E2951.27969
G0 F18000 X5.499 Y-34.637
G1 F2400 X5.499 Y-33.017 E2951.34704
G0 F18000 X5.665 Y-33.137
G1 F2400 X5.307 Y-32.517 E2951.37678
G0 F18000 X5.499 Y-32.637
G1 F2400 X5.5 Y32.64 E2954.09068
G0 F18000 X5.308 Y32.519
G1 F2400 X5.666 Y33.139 E2954.12045
G0 F18000 X5.5 Y33.02
G1 F2400 X5.5 Y34.64 E2954.1878
G0 F18000 X5 Y34.64
G1 F2400 X5 Y33.02 E2954.25511
G0 F18000 X5 Y32.64
G1 F2400 X4.999 Y-32.637 E2956.96897
G0 F18000 X3.999 Y-32.637
G1 F2400 X4 Y32.64 E2959.68287
G0 F18000 X4 Y33.02
G1 F2400 X4 Y34.64 E2959.75023
G0 F18000 X3.5 Y34.64
G1 F2400 X3.5 Y33.02 E2959.81754
G0 F18000 X3 Y33.02
G1 F2400 X3 Y34.64 E2959.88489
G0 F18000 X2.5 Y34.64
G1 F2400 X2.5 Y33.02 E2959.9522
G0 F18000 X3 Y32.64
G1 F2400 X2.999 Y-32.637 E2962.66606
G0 F18000 X5.876 Y-33.136
G1 F2400 X6.234 Y-32.516 E2962.69582
G0 F18000 X5.999 Y-32.637
G1 F2400 X6 Y32.64 E2965.40973
G0 F18000 X6.233 Y32.519
G1 F2400 X5.875 Y33.139 E2965.43947
G0 F18000 X6 Y33.02
G1 F2400 X6 Y34.64 E2965.50682
G0 F18000 X6.5 Y34.64
G1 F2400 X6.5 Y33.02 E2965.57413
G0 F18000 X6.5 Y32.64
G1 F2400 X6.499 Y-32.637 E2968.28799
G0 F18000 X6.499 Y-33.017
G1 F2400 X6.499 Y-34.637 E2968.3553
G0 F18000 X5.999 Y-34.637
G1 F2400 X5.999 Y-33.017 E2968.42266
G0 F18000 X6.999 Y-33.017
G1 F2400 X6.999 Y-34.637 E2968.48997
G0 F18000 X7.499 Y-34.637
G1 F2400 X7.499 Y-33.017 E2968.55732
G0 F18000 X7.589 Y-33.136
G1 F2400 X7.231 Y-32.516 E2968.58706
G0 F18000 X6.999 Y-32.637
G1 F2400 X7 Y32.64 E2971.30096
G0 F18000 X7.232 Y32.519
G1 F2400 X7.59 Y33.139 E2971.33073
G0 F18000 X7.5 Y33.02
G1 F2400 X7.5 Y34.64 E2971.39808
G0 F18000 X7 Y34.64
G1 F2400 X7 Y33.02 E2971.46539
G0 F18000 X7.5 Y32.64
G1 F2400 X7.499 Y-32.637 E2974.17925
G0 F18000 X7.999 Y-32.637
G1 F2400 X8 Y32.64 E2976.89315
G0 F18000 X8.157 Y32.519
G1 F2400 X7.799 Y33.139 E2976.9229
G0 F18000 X8 Y33.02
G1 F2400 X8 Y34.64 E2976.99025
G0 F18000 X8.5 Y34.64
G1 F2400 X8.5 Y33.02 E2977.05756
G0 F18000 X8.5 Y32.64
G1 F2400 X8.499 Y-32.637 E2979.77142
G0 F18000 X8.158 Y-32.517
G1 F2400 X7.8 Y-33.137 E2979.80113
G0 F18000 X7.999 Y-33.017
G1 F2400 X7.999 Y-34.637 E2979.86844
G0 F18000 X8.499 Y-34.637
G1 F2400 X8.499 Y-33.017 E2979.93579
G0 F18000 X8.999 Y-33.017
G1 F2400 X8.999 Y-34.637 E2980.0031
G0 F18000 X9.499 Y-34.637
G1 F2400 X9.499 Y-33.017 E2980.07045
G0 F18000 X9.513 Y-33.137
G1 F2400 X9.155 Y-32.516 E2980.10023
G0 F18000 X8.999 Y-32.637
G1 F2400 X9 Y32.64 E2982.81414
G0 F18000 X9.156 Y32.519
G1 F2400 X9.514 Y33.139 E2982.8439
G0 F18000 X9.5 Y33.02
G1 F2400 X9.5 Y34.64 E2982.91125
G0 F18000 X9 Y34.64
G1 F2400 X9 Y33.02 E2982.97856
G0 F18000 X9.5 Y32.64
G1 F2400 X9.499 Y-32.637 E2985.69242
G0 F18000 X9.999 Y-32.637
G1 F2400 X10 Y32.64 E2988.40633
G0 F18000 X10.08 Y32.519
G1 F2400 X9.722 Y33.139 E2988.43607
G0 F18000 X10 Y33.02
G1 F2400 X10 Y34.64 E2988.50342
G0 F18000 X10.5 Y34.64
G1 F2400 X10.5 Y33.02 E2988.57073
G0 F18000 X10.5 Y32.64
G1 F2400 X10.499 Y-32.637 E2991.28459
G0 F18000 X10.499 Y-33.017
G1 F2400 X10.499 Y-34.637 E2991.3519
G0 F18000 X9.999 Y-34.637
G1 F2400 X9.999 Y-33.017 E2991.41926
G0 F18000 X9.723 Y-33.137
G1 F2400 X10.081 Y-32.517 E2991.44902
G0 F18000 X10.999 Y-32.637
G1 F2400 X11 Y32.64 E2994.16292
G0 F18000 X11.08 Y32.519
G1 F2400 X11.438 Y33.139 E2994.19269
G0 F18000 X11.5 Y33.02
G1 F2400 X11.5 Y34.64 E2994.26004
G0 F18000 X11 Y34.64
G1 F2400 X11 Y33.02 E2994.32735
G0 F18000 X11.5 Y32.64
G1 F2400 X11.499 Y-32.637 E2997.04121
G0 F18000 X11.499 Y-33.017
G1 F2400 X11.499 Y-34.637 E2997.10852
G0 F18000 X10.999 Y-34.637
G1 F2400 X10.999 Y-33.017 E2997.17587
G0 F18000 X11.436 Y-33.137
G1 F2400 X11.362 Y-32.825 E2997.20571
G1 X12.005 Y-32.517 E2997.23536
G0 F18000 X11.999 Y-32.637
G1 F2400 X12 Y32.64 E2999.94926
G0 F18000 X12.004 Y32.519
G1 F2400 X11.646 Y33.139 E2999.979
G0 F18000 X12 Y33.02
G1 F2400 X12 Y34.64 E3000.04635
G0 F18000 X12.5 Y34.64
G1 F2400 X12.5 Y33.02 E3000.11366
G0 F18000 X12.5 Y32.64
G1 F2400 X12.499 Y-32.637 E3002.82752
G0 F18000 X12.499 Y-33.017
G1 F2400 X12.499 Y-34.637 E3002.89484
G0 F18000 X11.999 Y-34.637
G1 F2400 X11.999 Y-33.017 E3002.96219
G0 F18000 X12.999 Y-33.017
G1 F2400 X12.999 Y-34.637 E3003.0295
G0 F18000 X13.499 Y-34.637
G1 F2400 X13.499 Y-33.017 E3003.09685
G0 F18000 X13.571 Y-33.137
G1 F2400 X13.929 Y-32.517 E3003.12661
G0 F18000 X13.999 Y-32.637
G1 F2400 X14 Y32.64 E3005.84052
G0 F18000 X13.928 Y32.519
G1 F2400 X13.57 Y33.139 E3005.87026
G0 F18000 X13.5 Y33.02
G1 F2400 X13.5 Y34.64 E3005.93761
G0 F18000 X13 Y34.64
G1 F2400 X13 Y33.02 E3006.00492
G0 F18000 X13 Y32.64
G1 F2400 X12.999 Y-32.637 E3008.71878
G0 F18000 X13.002 Y-32.517
G1 F2400 X13.36 Y-33.137 E3008.74851
G0 F18000 X13.499 Y-32.637
G1 F2400 X13.5 Y32.64 E3011.46241
G0 F18000 X13.004 Y32.519
G1 F2400 X13.362 Y33.139 E3011.49218
G0 F18000 X14 Y33.02
G1 F2400 X14 Y34.64 E3011.55953
G0 F18000 X14.5 Y34.64
G1 F2400 X14.5 Y33.02 E3011.62684
G0 F18000 X14.5 Y32.64
G1 F2400 X14.499 Y-32.637 E3014.3407
G0 F18000 X14.499 Y-33.017
G1 F2400 X14.499 Y-34.637 E3014.40801
G0 F18000 X13.999 Y-34.637
G1 F2400 X13.999 Y-33.017 E3014.47536
G0 F18000 X14.999 Y-33.017
G1 F2400 X14.999 Y-34.637 E3014.54267
G0 F18000 X15.499 Y-34.637
G1 F2400 X15.499 Y-33.017 E3014.61003
G0 F18000 X15.495 Y-33.137
G1 F2400 X15.853 Y-32.517 E3014.63979
G0 F18000 X15.999 Y-32.637
G1 F2400 X16 Y32.639 E3017.35365
G0 F18000 X15.851 Y32.519
G1 F2400 X15.493 Y33.139 E3017.3834
G0 F18000 X15.5 Y33.02
G1 F2400 X15.5 Y34.64 E3017.45075
G0 F18000 X15 Y34.64
G1 F2400 X15 Y33.02 E3017.51806
G0 F18000 X15.285 Y33.139
G1 F2400 X14.927 Y32.519 E3017.54777
G0 F18000 X15 Y32.639
G1 F2400 X14.999 Y-32.637 E3020.26159
G0 F18000 X14.926 Y-32.517
G1 F2400 X15.284 Y-33.137 E3020.29132
G0 F18000 X15.499 Y-32.637
G1 F2400 X15.5 Y32.639 E3023.00518
G0 F18000 X16 Y33.02
G1 F2400 X16 Y34.64 E3023.07253
G0 F18000 X16.5 Y34.64
G1 F2400 X16.5 Y33.02 E3023.13984
G0 F18000 X16.5 Y32.639
G1 F2400 X16.5 Y21.019 E3023.6229
G0 F18000 X16.65 Y21.139
G1 F2400 X17.714 Y19.297 E3023.7113
G0 F18000 X17.715 Y19.992
G1 F2400 X16.094 Y19.992 E3023.77866
G0 F18000 X16.094 Y18.771
G1 F2400 X17.714 Y15.965 E3023.91333
G0 F18000 X17.715 Y16.66
G1 F2400 X16.094 Y16.66 E3023.98068
G0 F18000 X16.094 Y17.88
G1 F2400 X17.714 Y20.686 E3024.11538
G0 F18000 X17.5 Y21.019
G1 F2400 X17.5 Y32.639 E3024.59849
