; Generated with MatterSlice 1.0
; filamentDiameter = 1.75
; extrusionWidth = 0.5
; firstLayerExtrusionWidth = 0.4
; layerThickness = 0.2
; firstLayerThickness = 0.3
; automatic settings before start_gcode
G21 ; set units to millimeters
M107 ; fan off
T0 ; set the active extruder to 0
; settings from start_gcode
M104 S190
M190 S60
M109 S190
G28
; automatic settings after start_gcode
T0 ; set the active extruder to 0
G90 ; use absolute coordinates
G92 E0 ; reset the expected extruder position
M82 ; use absolute distance for extrusion
; Layer count: 45
; LAYER:0
M107
G0 F6000 X28.778 Y-33.88 Z0.3
; TYPE:SKIRT
G1 Z0.3
G1 F6600 E0
G1 F720 X29.62 Y-33.716 E0.04279
G1 X30.445 Y-33.44 E0.08617
G1 X31.226 Y-33.056 E0.12957
G1 X31.957 Y-32.568 E0.17339
G1 X32.603 Y-32.002 E0.21621
G1 X33.166 Y-31.36 E0.25877
G1 X33.644 Y-30.648 E0.30152
G1 X34.029 Y-29.873 E0.34464
G1 X34.31 Y-29.053 E0.38784
G1 X34.479 Y-28.208 E0.43079
G1 X34.531 Y-27.46 E0.46814
G1 X34.531 Y27.452 E3.20766
G1 X34.482 Y28.184 E3.24427
G1 X34.318 Y29.021 E3.28682
G1 X34.041 Y29.847 E3.33028
G1 X33.659 Y30.622 E3.37339
G1 X33.184 Y31.338 E3.41626
G1 X32.614 Y31.992 E3.45954
G1 X31.965 Y32.562 E3.50263
G1 X31.247 Y33.046 E3.54583
G1 X30.456 Y33.435 E3.58981
G1 X29.643 Y33.713 E3.63268
G1 X28.795 Y33.881 E3.6758
G1 X28.051 Y33.93 E3.713
G1 X-28.052 Y33.93 E6.51199
G1 X-28.783 Y33.881 E6.54859
G1 X-29.627 Y33.716 E6.59155
G1 X-30.446 Y33.439 E6.63473
G1 X-31.218 Y33.062 E6.67764
G1 X-31.939 Y32.583 E6.72086
G1 X-32.595 Y32.012 E6.76429
G1 X-33.167 Y31.361 E6.80756
G1 X-33.645 Y30.648 E6.85041
G1 X-34.032 Y29.869 E6.89383
G1 X-34.309 Y29.051 E6.93693
G1 X-34.48 Y28.208 E6.97986
G1 X-34.53 Y27.457 E7.01741
G1 X-34.53 Y-27.448 E9.75663
G1 X-34.482 Y-28.183 E9.79343
G1 X-34.317 Y-29.022 E9.83612
G1 X-34.045 Y-29.837 E9.87902
G1 X-33.662 Y-30.62 E9.92253
G1 X-33.181 Y-31.343 E9.96587
G1 X-32.599 Y-32.007 E10.00993
G1 X-31.954 Y-32.572 E10.0527
G1 X-31.234 Y-33.053 E10.09589
G1 X-30.459 Y-33.435 E10.13897
G1 X-29.641 Y-33.713 E10.18204
G1 X-28.789 Y-33.881 E10.22533
G1 X-28.048 Y-33.928 E10.26232
G1 X28.048 Y-33.928 E13.06091
G1 X28.778 Y-33.88 E13.09741
G0 F6000 X28.727 Y-33.483
G1 F720 X29.518 Y-33.329 E13.1376
G1 X30.293 Y-33.069 E13.17837
G1 X31.026 Y-32.709 E13.21909
G1 X31.713 Y-32.25 E13.26028
G1 X32.32 Y-31.719 E13.30049
G1 X32.848 Y-31.115 E13.34047
G1 X33.298 Y-30.446 E13.38066
G1 X33.659 Y-29.719 E13.42111
G1 X33.923 Y-28.948 E13.46172
G1 X34.082 Y-28.154 E13.50207
G1 X34.131 Y-27.446 E13.53742
G1 X34.131 Y27.439 E16.2756
G1 X34.084 Y28.132 E16.31025
G1 X33.931 Y28.919 E16.35025
G1 X33.671 Y29.694 E16.39103
G1 X33.312 Y30.423 E16.43157
G1 X32.865 Y31.095 E16.47184
G1 X32.33 Y31.709 E16.51247
G1 X31.721 Y32.245 E16.55295
G1 X31.046 Y32.699 E16.59353
G1 X30.302 Y33.065 E16.6349
G1 X29.539 Y33.326 E16.67513
G1 X28.742 Y33.483 E16.71565
G1 X28.038 Y33.53 E16.75086
G1 X-28.039 Y33.53 E19.54855
G1 X-28.731 Y33.483 E19.5832
G1 X-29.524 Y33.329 E19.62355
G1 X-30.294 Y33.068 E19.66416
G1 X-31.019 Y32.714 E19.70446
G1 X-31.696 Y32.264 E19.74506
G1 X-32.312 Y31.728 E19.78583
G1 X-32.849 Y31.116 E19.82649
G1 X-33.298 Y30.446 E19.86675
G1 X-33.662 Y29.715 E19.90751
G1 X-33.922 Y28.947 E19.94798
G1 X-34.083 Y28.155 E19.98831
G1 X-34.13 Y27.443 E20.02392
G1 X-34.13 Y-27.435 E22.76179
G1 X-34.085 Y-28.131 E22.79663
G1 X-33.929 Y-28.919 E22.83675
G1 X-33.674 Y-29.686 E22.87711
G1 X-33.315 Y-30.42 E22.91789
G1 X-32.863 Y-31.099 E22.9586
G1 X-32.316 Y-31.724 E23.00004
G1 X-31.71 Y-32.254 E23.0402
G1 X-31.034 Y-32.706 E23.08076
G1 X-30.305 Y-33.064 E23.12126
G1 X-29.537 Y-33.325 E23.16169
G1 X-28.738 Y-33.483 E23.20229
G1 X-28.035 Y-33.528 E23.23739
G1 X28.035 Y-33.528 E26.03468
G1 X28.727 Y-33.483 E26.06927
G0 F6000 X28.295 Y-30.103
; TYPE:WALL-OUTER
G1 F720 X28.643 Y-30.036 E26.08695
G1 X29.004 Y-29.915 E26.10593
G1 X29.324 Y-29.758 E26.12369
G1 X29.64 Y-29.547 E26.14262
G1 X29.91 Y-29.309 E26.16054
G1 X30.145 Y-29.042 E26.17825
G1 X30.353 Y-28.732 E26.19683
G1 X30.514 Y-28.409 E26.21479
G1 X30.633 Y-28.061 E26.23309
G1 X30.705 Y-27.706 E26.25112
G1 X30.731 Y-27.322 E26.27027
G1 X30.731 Y27.318 E28.99622
G1 X30.705 Y27.696 E29.01512
G1 X30.638 Y28.043 E29.03275
G1 X30.517 Y28.404 E29.05175
G1 X30.362 Y28.717 E29.06917
G1 X30.153 Y29.033 E29.08807
G1 X29.916 Y29.305 E29.10607
G1 X29.643 Y29.544 E29.12418
G1 X29.333 Y29.754 E29.14286
G1 X29 Y29.917 E29.16135
G1 X28.656 Y30.035 E29.1795
G1 X28.302 Y30.105 E29.1975
G1 X27.919 Y30.13 E29.21665
G1 X-27.918 Y30.13 E32.00237
G1 X-28.296 Y30.104 E32.02132
G1 X-28.65 Y30.035 E32.03936
G1 X-28.991 Y29.92 E32.05736
G1 X-29.324 Y29.757 E32.07591
G1 X-29.634 Y29.552 E32.09449
G1 X-29.907 Y29.314 E32.1126
G1 X-30.149 Y29.038 E32.13094
G1 X-30.351 Y28.737 E32.14906
G1 X-30.516 Y28.405 E32.16757
G1 X-30.632 Y28.062 E32.18565
G1 X-30.705 Y27.703 E32.20394
G1 X-30.73 Y27.324 E32.22289
G1 X-30.73 Y-27.318 E34.949
G1 X-30.706 Y-27.693 E34.96779
G1 X-30.636 Y-28.047 E34.98583
G1 X-30.52 Y-28.395 E35.00416
G1 X-30.357 Y-28.729 E35.02273
G1 X-30.158 Y-29.028 E35.04066
G1 X-29.906 Y-29.314 E35.05968
G1 X-29.635 Y-29.552 E35.07767
G1 X-29.331 Y-29.756 E35.09592
G1 X-29.004 Y-29.916 E35.11406
G1 X-28.66 Y-30.033 E35.13216
G1 X-28.303 Y-30.104 E35.15028
G1 X-27.92 Y-30.128 E35.16938
G1 X27.918 Y-30.128 E37.9551
G1 X28.295 Y-30.103 E37.97395
G0 F6000 X28.239 Y-29.706
; TYPE:WALL-INNER
G1 F720 X28.546 Y-29.647 E37.98953
G1 X28.848 Y-29.546 E38.0054
G1 X29.124 Y-29.41 E38.02073
G1 X29.399 Y-29.226 E38.03721
G1 X29.627 Y-29.026 E38.05231
G1 X29.826 Y-28.799 E38.06733
G1 X30.007 Y-28.53 E38.08347
G1 X30.144 Y-28.255 E38.09875
G1 X30.248 Y-27.952 E38.11469
G1 X30.307 Y-27.653 E38.12984
G1 X30.331 Y-27.31 E38.14695
G1 X30.331 Y27.306 E40.8717
G1 X30.308 Y27.64 E40.8884
G1 X30.249 Y27.946 E40.90395
G1 X30.148 Y28.247 E40.91979
G1 X30.013 Y28.521 E40.93503
G1 X29.834 Y28.79 E40.95115
G1 X29.635 Y29.019 E40.96629
G1 X29.396 Y29.229 E40.98216
G1 X29.134 Y29.405 E40.99791
G1 X28.847 Y29.546 E41.01386
G1 X28.553 Y29.647 E41.02937
G1 X28.246 Y29.708 E41.04498
G1 X27.907 Y29.73 E41.06193
G1 X-27.906 Y29.73 E43.84645
G1 X-28.24 Y29.707 E43.86321
G1 X-28.551 Y29.647 E43.87906
G1 X-28.843 Y29.548 E43.89449
G1 X-29.123 Y29.411 E43.91008
G1 X-29.391 Y29.233 E43.92618
G1 X-29.621 Y29.033 E43.94142
G1 X-29.833 Y28.791 E43.9575
G1 X-30.005 Y28.535 E43.97292
G1 X-30.145 Y28.252 E43.98869
G1 X-30.245 Y27.958 E44.0042
G1 X-30.307 Y27.651 E44.01984
G1 X-30.33 Y27.312 E44.03679
G1 X-30.33 Y-27.307 E46.76175
G1 X-30.309 Y-27.637 E46.77829
G1 X-30.247 Y-27.95 E46.79425
G1 X-30.148 Y-28.245 E46.8098
G1 X-30.01 Y-28.528 E46.82554
G1 X-29.84 Y-28.784 E46.84088
G1 X-29.623 Y-29.031 E46.85729
G1 X-29.398 Y-29.229 E46.87224
G1 X-29.127 Y-29.41 E46.88848
G1 X-28.852 Y-29.545 E46.90374
G1 X-28.557 Y-29.645 E46.91925
G1 X-28.246 Y-29.707 E46.93503
G1 X-27.911 Y-29.728 E46.95173
G1 X27.907 Y-29.728 E49.73646
G1 X28.239 Y-29.706 E49.75305
G0 F6000 X29.187 Y-29.2
; TYPE:FILL
G1 F720 X-29.19 Y-29.2 E52.66549
G0 F6000 X-29.64 Y-28.8
G1 F720 X29.638 Y-28.8 E55.62283
G0 F6000 X29.915 Y-28.4
G1 F720 X-29.916 Y-28.399 E58.60781
G0 F6000 X-30.082 Y-27.999
G1 F720 X30.083 Y-28 E61.60941
G0 F6000 X30.171 Y-27.6
G1 F720 X-30.171 Y-27.599 E64.61988
G0 F6000 X-30.19 Y-27.199
G1 F720 X30.191 Y-27.2 E67.63225
G0 F6000 X30.191 Y-26.8
G1 F720 X-30.19 Y-26.799 E70.64467
G0 F6000 X-30.19 Y-26.399
G1 F720 X30.191 Y-26.4 E73.65704
G0 F6000 X30.191 Y-26
G1 F720 X-30.19 Y-25.999 E76.66947
G0 F6000 X-30.19 Y-25.599
G1 F720 X30.191 Y-25.6 E79.68184
G0 F6000 X30.191 Y-25.2
G1 F720 X-30.19 Y-25.199 E82.69426
G0 F6000 X-30.19 Y-24.799
G1 F720 X30.191 Y-24.8 E85.70663
G0 F6000 X30.191 Y-24.4
G1 F720 X-30.19 Y-24.399 E88.71905
G0 F6000 X-30.19 Y-23.999
G1 F720 X30.191 Y-24 E91.73142
G0 F6000 X30.191 Y-23.6
G1 F720 X-30.19 Y-23.599 E94.74384
G0 F6000 X-30.19 Y-23.199
G1 F720 X30.191 Y-23.2 E97.75621
G0 F6000 X30.191 Y-22.8
G1 F720 X-30.19 Y-22.799 E100.76863
G0 F6000 X-30.19 Y-22.399
G1 F720 X30.191 Y-22.4 E103.781
G0 F6000 X30.191 Y-22
G1 F720 X-30.19 Y-21.999 E106.79342
G0 F6000 X-30.19 Y-21.599
G1 F720 X30.191 Y-21.6 E109.80579
G0 F6000 X30.191 Y-21.2
G1 F720 X-30.19 Y-21.199 E112.81821
G0 F6000 X-30.19 Y-20.799
G1 F720 X30.191 Y-20.8 E115.83058
G0 F6000 X30.191 Y-20.4
G1 F720 X-30.19 Y-20.399 E118.843
G0 F6000 X-30.19 Y-19.999
G1 F720 X30.191 Y-20 E121.85537
G0 F6000 X30.191 Y-19.6
G1 F720 X-30.19 Y-19.599 E124.86779
G0 F6000 X-30.19 Y-19.199
G1 F720 X30.191 Y-19.2 E127.88016
G0 F6000 X30.191 Y-18.8
G1 F720 X-30.19 Y-18.799 E130.89258
G0 F6000 X-30.19 Y-18.399
G1 F720 X30.191 Y-18.4 E133.90495
G0 F6000 X30.191 Y-18
G1 F720 X-30.19 Y-17.999 E136.91737
G0 F6000 X-30.19 Y-17.599
G1 F720 X30.191 Y-17.6 E139.92974
G0 F6000 X30.191 Y-17.2
G1 F720 X-30.19 Y-17.199 E142.94216
G0 F6000 X-30.19 Y-16.799
G1 F720 X30.191 Y-16.8 E145.95453
G0 F6000 X30.191 Y-16.4
G1 F720 X-30.19 Y-16.399 E148.96695
G0 F6000 X-30.19 Y-15.999
G1 F720 X30.191 Y-16 E151.97932
G0 F6000 X30.191 Y-15.6
G1 F720 X-30.19 Y-15.599 E154.99174
G0 F6000 X-30.19 Y-15.199
G1 F720 X30.191 Y-15.2 E158.00412
G0 F6000 X30.191 Y-14.8
G1 F720 X-30.19 Y-14.799 E161.01654
G0 F6000 X-30.19 Y-14.399
G1 F720 X30.191 Y-14.4 E164.02891
G0 F6000 X30.191 Y-14
G1 F720 X-30.19 Y-13.999 E167.04133
G0 F6000 X-30.19 Y-13.599
G1 F720 X30.191 Y-13.6 E170.0537
G0 F6000 X30.191 Y-13.2
G1 F720 X-30.19 Y-13.199 E173.06612
G0 F6000 X-30.19 Y-12.799
G1 F720 X30.191 Y-12.8 E176.07849
G0 F6000 X30.191 Y-12.4
G1 F720 X-30.19 Y-12.399 E179.09091
G0 F6000 X-30.19 Y-11.999
G1 F720 X30.191 Y-12 E182.10328
G0 F6000 X30.191 Y-11.6
G1 F720 X-30.19 Y-11.599 E185.1157
G0 F6000 X-30.19 Y-11.199
G1 F720 X30.191 Y-11.2 E188.12807
G0 F6000 X30.191 Y-10.8
G1 F720 X-30.19 Y-10.799 E191.14049
G0 F6000 X-30.19 Y-10.399
G1 F720 X30.191 Y-10.4 E194.15286
G0 F6000 X30.191 Y-10
G1 F720 X-30.19 Y-9.999 E197.16528
G0 F6000 X-30.19 Y-9.599
G1 F720 X30.191 Y-9.6 E200.17765
G0 F6000 X30.191 Y-9.2
G1 F720 X-30.19 Y-9.199 E203.19007
G0 F6000 X-30.19 Y-8.799
G1 F720 X30.191 Y-8.8 E206.20244
G0 F6000 X30.191 Y-8.4
G1 F720 X-30.19 Y-8.399 E209.21486
G0 F6000 X-30.19 Y-7.999
G1 F720 X30.191 Y-8 E212.22723
G0 F6000 X30.191 Y-7.6
G1 F720 X-30.19 Y-7.599 E215.23965
G0 F6000 X-30.19 Y-7.199
G1 F720 X30.191 Y-7.2 E218.25202
G0 F6000 X30.191 Y-6.8
G1 F720 X-30.19 Y-6.799 E221.26444
G0 F6000 X-30.19 Y-6.399
G1 F720 X30.191 Y-6.4 E224.27681
G0 F6000 X30.191 Y-6
G1 F720 X-30.19 Y-5.999 E227.28923
G0 F6000 X-30.19 Y-5.599
G1 F720 X30.191 Y-5.6 E230.3016
G0 F6000 X30.191 Y-5.2
G1 F720 X-30.19 Y-5.199 E233.31402
G0 F6000 X-30.19 Y-4.799
G1 F720 X30.191 Y-4.8 E236.3264
G0 F6000 X30.191 Y-4.4
G1 F720 X-30.19 Y-4.399 E239.33882
G0 F6000 X-30.19 Y-3.999
G1 F720 X30.191 Y-4 E242.35119
G0 F6000 X30.191 Y-3.6
G1 F720 X-30.19 Y-3.599 E245.36361
G0 F6000 X-30.19 Y-3.199
G1 F720 X30.191 Y-3.2 E248.37598
G0 F6000 X30.191 Y-2.8
G1 F720 X-30.19 Y-2.799 E251.3884
G0 F6000 X-30.19 Y-2.399
G1 F720 X30.191 Y-2.4 E254.40077
G0 F6000 X30.191 Y-2
G1 F720 X-30.19 Y-1.999 E257.41319
G0 F6000 X-30.19 Y-1.599
G1 F720 X30.191 Y-1.6 E260.42556
G0 F6000 X30.191 Y-1.2
G1 F720 X-30.19 Y-1.199 E263.43798
G0 F6000 X-30.19 Y-0.799
G1 F720 X30.191 Y-0.8 E266.45035
G0 F6000 X30.191 Y-0.4
G1 F720 X-30.19 Y-0.399 E269.46277
G0 F6000 X-30.19 Y0
G1 F720 X30.191 Y0 E272.47514
G0 F6000 X30.191 Y0.399
G1 F720 X-30.19 Y0.4 E275.48756
G0 F6000 X-30.19 Y0.8
G1 F720 X30.191 Y0.799 E278.49993
G0 F6000 X30.191 Y1.199
G1 F720 X-30.19 Y1.2 E281.51235
G0 F6000 X-30.19 Y1.6
G1 F720 X30.191 Y1.599 E284.52472
G0 F6000 X30.191 Y1.999
G1 F720 X-30.19 Y2 E287.53714
G0 F6000 X-30.19 Y2.4
G1 F720 X30.191 Y2.399 E290.54951
G0 F6000 X30.191 Y2.799
G1 F720 X-30.19 Y2.8 E293.56193
G0 F6000 X-30.19 Y3.2
G1 F720 X30.191 Y3.199 E296.5743
G0 F6000 X30.191 Y3.599
G1 F720 X-30.19 Y3.6 E299.58672
G0 F6000 X-30.19 Y4
G1 F720 X30.191 Y3.999 E302.59909
G0 F6000 X30.191 Y4.399
G1 F720 X-30.19 Y4.4 E305.61151
G0 F6000 X-30.19 Y4.8
G1 F720 X30.191 Y4.799 E308.62388
G0 F6000 X30.191 Y5.199
G1 F720 X-30.19 Y5.2 E311.6363
G0 F6000 X-30.19 Y5.6
G1 F720 X30.191 Y5.599 E314.64868
G0 F6000 X30.191 Y5.999
G1 F720 X-30.19 Y6 E317.6611
G0 F6000 X-30.19 Y6.4
G1 F720 X30.191 Y6.399 E320.67347
G0 F6000 X30.191 Y6.799
G1 F720 X-30.19 Y6.8 E323.68589
G0 F6000 X-30.19 Y7.2
G1 F720 X30.191 Y7.199 E326.69826
G0 F6000 X30.191 Y7.599
G1 F720 X-30.19 Y7.6 E329.71068
G0 F6000 X-30.19 Y8
G1 F720 X30.191 Y7.999 E332.72305
G0 F6000 X30.191 Y8.399
G1 F720 X-30.19 Y8.4 E335.73547
G0 F6000 X-30.19 Y8.8
G1 F720 X30.191 Y8.799 E338.74784
G0 F6000 X30.191 Y9.199
G1 F720 X-30.19 Y9.2 E341.76026
G0 F6000 X-30.19 Y9.6
G1 F720 X30.191 Y9.599 E344.77263
G0 F6000 X30.191 Y9.999
G1 F720 X-30.19 Y10 E347.78505
G0 F6000 X-30.19 Y10.4
G1 F720 X30.191 Y10.399 E350.79742
G0 F6000 X30.191 Y10.799
G1 F720 X-30.19 Y10.8 E353.80984
G0 F6000 X-30.19 Y11.2
G1 F720 X30.191 Y11.199 E356.82221
G0 F6000 X30.191 Y11.599
G1 F720 X-30.19 Y11.6 E359.83463
G0 F6000 X-30.19 Y12
G1 F720 X30.191 Y11.999 E362.847
G0 F6000 X30.191 Y12.399
G1 F720 X-30.19 Y12.4 E365.85942
G0 F6000 X-30.19 Y12.8
G1 F720 X30.191 Y12.799 E368.87179
G0 F6000 X30.191 Y13.199
G1 F720 X-30.19 Y13.2 E371.88421
G0 F6000 X-30.19 Y13.6
G1 F720 X30.191 Y13.599 E374.89658
G0 F6000 X30.191 Y13.999
G1 F720 X-30.19 Y14 E377.909
G0 F6000 X-30.19 Y14.4
G1 F720 X30.191 Y14.399 E380.92137
G0 F6000 X30.191 Y14.799
G1 F720 X-30.19 Y14.8 E383.93379
G0 F6000 X-30.19 Y15.2
G1 F720 X30.191 Y15.199 E386.94616
G0 F6000 X30.191 Y15.599
G1 F720 X-30.19 Y15.6 E389.95858
G0 F6000 X-30.19 Y16
G1 F720 X30.191 Y15.999 E392.97095
G0 F6000 X30.191 Y16.399
G1 F720 X-30.19 Y16.4 E395.98338
G0 F6000 X-30.19 Y16.8
G1 F720 X30.191 Y16.799 E398.99575
G0 F6000 X30.191 Y17.199
G1 F720 X-30.19 Y17.2 E402.00817
G0 F6000 X-30.19 Y17.6
G1 F720 X30.191 Y17.599 E405.02054
G0 F6000 X30.191 Y17.999
G1 F720 X-30.19 Y18 E408.03296
G0 F6000 X-30.19 Y18.4
G1 F720 X30.191 Y18.399 E411.04533
G0 F6000 X30.191 Y18.799
G1 F720 X-30.19 Y18.8 E414.05775
G0 F6000 X-30.19 Y19.2
G1 F720 X30.191 Y19.199 E417.07012
G0 F6000 X30.191 Y19.599
G1 F720 X-30.19 Y19.6 E420.08254
G0 F6000 X-30.19 Y20
G1 F720 X30.191 Y19.999 E423.09491
G0 F6000 X30.191 Y20.399
G1 F720 X-30.19 Y20.4 E426.10733
G0 F6000 X-30.19 Y20.8
G1 F720 X30.191 Y20.799 E429.1197
G0 F6000 X30.191 Y21.199
G1 F720 X-30.19 Y21.2 E432.13212
G0 F6000 X-30.19 Y21.6
G1 F720 X30.191 Y21.599 E435.14449
G0 F6000 X30.191 Y21.999
G1 F720 X-30.19 Y22 E438.15691
G0 F6000 X-30.19 Y22.4
G1 F720 X30.191 Y22.399 E441.16928
G0 F6000 X30.191 Y22.799
G1 F720 X-30.19 Y22.8 E444.1817
G0 F6000 X-30.19 Y23.2
G1 F720 X30.191 Y23.199 E447.19407
G0 F6000 X30.191 Y23.599
G1 F720 X-30.19 Y23.6 E450.20649
G0 F6000 X-30.19 Y24
G1 F720 X30.191 Y23.999 E453.21886
G0 F6000 X30.191 Y24.399
G1 F720 X-30.19 Y24.4 E456.23128
G0 F6000 X-30.19 Y24.8
G1 F720 X30.191 Y24.799 E459.24365
G0 F6000 X30.191 Y25.199
G1 F720 X-30.19 Y25.2 E462.25607
G0 F6000 X-30.19 Y25.6
G1 F720 X30.191 Y25.599 E465.26844
G0 F6000 X30.191 Y25.999
G1 F720 X-30.19 Y26 E468.28086
G0 F6000 X-30.19 Y26.4
G1 F720 X30.191 Y26.399 E471.29323
G0 F6000 X30.191 Y26.799
G1 F720 X-30.19 Y26.8 E474.30565
G0 F6000 X-30.19 Y27.2
G1 F720 X30.191 Y27.199 E477.31803
G0 F6000 X30.17 Y27.599
G1 F720 X-30.17 Y27.6 E480.3284
G0 F6000 X-30.083 Y28
G1 F720 X30.083 Y27.999 E483.33004
G0 F6000 X29.917 Y28.399
G1 F720 X-29.915 Y28.4 E486.31507
G0 F6000 X-29.639 Y28.8
G1 F720 X29.64 Y28.8 E489.27247
G0 F6000 X29.188 Y29.2
G1 F720 X-29.186 Y29.2 E492.18476
; LAYER:1
G0 F6000 X-29.298 Y29.116 Z0.5
; TYPE:WALL-INNER
G1 F2400 X-29.52 Y28.92 E492.1971
G1 X-29.718 Y28.694 E492.20962
G1 X-29.879 Y28.453 E492.22169
G1 X-30.007 Y28.195 E492.23369
G1 X-30.103 Y27.908 E492.24628
G1 X-30.16 Y27.623 E492.25837
G1 X-30.18 Y27.313 E492.27129
G1 X-30.18 Y-27.314 E494.54242
G1 X-30.16 Y-27.624 E494.55537
G1 X-30.103 Y-27.909 E494.56749
G1 X-30.008 Y-28.192 E494.57992
G1 X-29.878 Y-28.457 E494.59222
G1 X-29.716 Y-28.698 E494.6043
G1 X-29.511 Y-28.929 E494.61714
G1 X-29.303 Y-29.111 E494.62863
G1 X-29.045 Y-29.283 E494.64151
G1 X-28.782 Y-29.41 E494.65363
G1 X-28.5 Y-29.504 E494.66597
G1 X-28.207 Y-29.559 E494.67833
G1 X-27.916 Y-29.578 E494.69041
G1 X27.914 Y-29.578 E497.01151
G1 X28.22 Y-29.558 E497.02426
G1 X28.516 Y-29.5 E497.03679
G1 X28.793 Y-29.406 E497.04894
G1 X29.052 Y-29.278 E497.06093
G1 X29.312 Y-29.102 E497.07396
G1 X29.517 Y-28.923 E497.08525
G1 X29.717 Y-28.696 E497.0978
G1 X29.88 Y-28.451 E497.11
G1 X30.008 Y-28.191 E497.12201
G1 X30.102 Y-27.915 E497.13409
G1 X30.16 Y-27.619 E497.14659
G1 X30.181 Y-27.309 E497.15947
G1 X30.181 Y27.311 E499.43026
G1 X30.161 Y27.62 E499.44313
G1 X30.102 Y27.917 E499.45572
G1 X30.009 Y28.19 E499.46771
G1 X29.878 Y28.454 E499.47997
G1 X29.716 Y28.697 E499.49211
G1 X29.521 Y28.919 E499.50439
G1 X29.296 Y29.117 E499.51685
G1 X29.06 Y29.275 E499.52866
G1 X28.777 Y29.412 E499.54173
G1 X28.503 Y29.504 E499.55375
G1 X28.206 Y29.56 E499.56632
G1 X27.912 Y29.58 E499.57857
G1 X-27.911 Y29.58 E501.89942
G1 X-28.221 Y29.559 E501.91238
G1 X-28.511 Y29.502 E501.9247
G1 X-28.794 Y29.405 E501.93718
G1 X-29.056 Y29.277 E501.94934
G1 X-29.298 Y29.116 E501.96146
G0 F6000 X-29.606 Y29.511
; TYPE:WALL-OUTER
G1 F2100 X-29.876 Y29.274 E501.97643
G1 X-30.112 Y29.004 E501.99137
G1 X-30.313 Y28.703 E502.00644
G1 X-30.471 Y28.383 E502.02129
G1 X-30.587 Y28.039 E502.0364
G1 X-30.657 Y27.686 E502.05137
G1 X-30.68 Y27.33 E502.0662
G1 X-30.68 Y-27.331 E504.33874
G1 X-30.657 Y-27.687 E504.35361
G1 X-30.587 Y-28.04 E504.36861
G1 X-30.47 Y-28.387 E504.38386
G1 X-30.315 Y-28.701 E504.39844
G1 X-30.113 Y-29.003 E504.41355
G1 X-29.863 Y-29.285 E504.42923
G1 X-29.607 Y-29.509 E504.44336
G1 X-29.289 Y-29.72 E504.45922
G1 X-28.967 Y-29.876 E504.47408
G1 X-28.632 Y-29.987 E504.48872
G1 X-28.267 Y-30.056 E504.50413
G1 X-27.933 Y-30.078 E504.51801
G1 X27.931 Y-30.078 E506.84052
G1 X28.289 Y-30.055 E506.85543
G1 X28.639 Y-29.986 E506.87026
G1 X28.984 Y-29.869 E506.88539
G1 X29.304 Y-29.711 E506.90021
G1 X29.615 Y-29.501 E506.91579
G1 X29.875 Y-29.274 E506.93011
G1 X30.112 Y-29.004 E506.94502
G1 X30.313 Y-28.703 E506.96003
G1 X30.471 Y-28.382 E506.97487
G1 X30.588 Y-28.038 E506.98993
G1 X30.657 Y-27.688 E507.00472
G1 X30.681 Y-27.329 E507.01964
G1 X30.681 Y27.331 E509.2921
G1 X30.657 Y27.688 E509.30697
G1 X30.588 Y28.04 E509.32189
G1 X30.471 Y28.384 E509.33699
G1 X30.313 Y28.703 E509.35179
G1 X30.112 Y29.005 E509.36688
G1 X29.876 Y29.274 E509.38175
G1 X29.605 Y29.511 E509.39672
G1 X29.306 Y29.711 E509.41168
G1 X28.967 Y29.876 E509.42735
G1 X28.631 Y29.988 E509.44208
G1 X28.267 Y30.057 E509.45748
G1 X27.93 Y30.08 E509.47152
G1 X-27.929 Y30.08 E511.79387
G1 X-28.29 Y30.056 E511.80895
G1 X-28.637 Y29.987 E511.8237
G1 X-28.99 Y29.867 E511.83924
G1 X-29.302 Y29.713 E511.85375
G1 X-29.606 Y29.511 E511.86896
G0 F6000 X-28.999 Y29.086
; TYPE:FILL
G1 F2400 X-29 Y-29.083 E514.28734
G0 F6000 X-28.5 Y-29.303
G1 F2400 X-28.499 Y29.304 E516.7239
G0 F6000 X-27.999 Y29.383
G1 F2400 X-28 Y-29.382 E519.16706
G0 F6000 X-27.5 Y-29.387
G1 F2400 X-27.499 Y29.389 E521.61064
G0 F6000 X-26.999 Y29.389
G1 F2400 X-27 Y-29.387 E524.05426
G0 F6000 X-26.5 Y-29.387
G1 F2400 X-26.499 Y29.389 E526.49784
G0 F6000 X-25.999 Y29.389
G1 F2400 X-26 Y-29.387 E528.94147
G0 F6000 X-25.5 Y-29.387
G1 F2400 X-25.499 Y29.389 E531.38505
G0 F6000 X-24.999 Y29.389
G1 F2400 X-25 Y-29.387 E533.82867
G0 F6000 X-24.5 Y-29.387
G1 F2400 X-24.499 Y29.389 E536.27225
G0 F6000 X-23.999 Y29.389
G1 F2400 X-24 Y-29.387 E538.71587
G0 F6000 X-23.5 Y-29.387
G1 F2400 X-23.499 Y29.389 E541.15945
G0 F6000 X-22.999 Y29.389
G1 F2400 X-23 Y-29.387 E543.60307
G0 F6000 X-22.5 Y-29.387
G1 F2400 X-22.499 Y29.389 E546.04665
G0 F6000 X-21.999 Y29.389
G1 F2400 X-22 Y-29.387 E548.49028
G0 F6000 X-21.5 Y-29.387
G1 F2400 X-21.499 Y29.389 E550.93386
G0 F6000 X-20.999 Y29.389
G1 F2400 X-21 Y-29.387 E553.37748
G0 F6000 X-20.5 Y-29.387
G1 F2400 X-20.499 Y29.389 E555.82106
G0 F6000 X-19.999 Y29.389
G1 F2400 X-20 Y-29.387 E558.26468
G0 F6000 X-19.5 Y-29.387
G1 F2400 X-19.499 Y29.389 E560.70826
G0 F6000 X-18.999 Y29.389
G1 F2400 X-19 Y-29.387 E563.15188
G0 F6000 X-18.5 Y-29.387
G1 F2400 X-18.499 Y29.389 E565.59547
G0 F6000 X-17.999 Y29.389
G1 F2400 X-18 Y-29.387 E568.03909
G0 F6000 X-17.5 Y-29.387
G1 F2400 X-17.499 Y29.389 E570.48267
G0 F6000 X-16.999 Y29.389
G1 F2400 X-17 Y-29.387 E572.92629
G0 F6000 X-16.5 Y-29.387
G1 F2400 X-16.499 Y29.389 E575.36987
G0 F6000 X-15.999 Y29.389
G1 F2400 X-16 Y-29.387 E577.81349
G0 F6000 X-15.5 Y-29.387
G1 F2400 X-15.499 Y29.389 E580.25707
G0 F6000 X-14.999 Y29.389
G1 F2400 X-15 Y-29.387 E582.7007
G0 F6000 X-14.5 Y-29.388
G1 F2400 X-14.499 Y29.389 E585.14432
G0 F6000 X-13.999 Y29.389
G1 F2400 X-14 Y-29.388 E587.58798
G0 F6000 X-13.5 Y-29.388
G1 F2400 X-13.499 Y29.389 E590.0316
G0 F6000 X-12.999 Y29.389
G1 F2400 X-13 Y-29.388 E592.47527
G0 F6000 X-12.5 Y-29.388
G1 F2400 X-12.499 Y29.389 E594.91889
G0 F6000 X-11.999 Y29.389
G1 F2400 X-12 Y-29.388 E597.36255
G0 F6000 X-11.5 Y-29.388
G1 F2400 X-11.499 Y29.389 E599.80618
G0 F6000 X-10.999 Y29.389
G1 F2400 X-11 Y-29.388 E602.24984
G0 F6000 X-10.5 Y-29.388
G1 F2400 X-10.499 Y29.389 E604.69346
G0 F6000 X-9.999 Y29.389
G1 F2400 X-10 Y-29.388 E607.13712
G0 F6000 X-9.5 Y-29.388
G1 F2400 X-9.499 Y29.389 E609.58075
G0 F6000 X-8.999 Y29.389
G1 F2400 X-9 Y-29.388 E612.02441
G0 F6000 X-8.5 Y-29.388
G1 F2400 X-8.499 Y29.389 E614.46803
G0 F6000 X-7.999 Y29.389
G1 F2400 X-8 Y-29.388 E616.9117
G0 F6000 X-7.5 Y-29.388
G1 F2400 X-7.499 Y29.389 E619.35532
G0 F6000 X-6.999 Y29.389
G1 F2400 X-7 Y-29.388 E621.79898
G0 F6000 X-6.5 Y-29.388
G1 F2400 X-6.499 Y29.389 E624.2426
G0 F6000 X-5.999 Y29.389
G1 F2400 X-6 Y-29.388 E626.68627
G0 F6000 X-5.5 Y-29.388
G1 F2400 X-5.499 Y29.389 E629.12989
G0 F6000 X-4.999 Y29.389
G1 F2400 X-5 Y-29.388 E631.57355
G0 F6000 X-4.5 Y-29.388
G1 F2400 X-4.499 Y29.389 E634.01718
G0 F6000 X-3.999 Y29.389
G1 F2400 X-4 Y-29.388 E636.46084
G0 F6000 X-3.5 Y-29.388
G1 F2400 X-3.499 Y29.389 E638.90446
G0 F6000 X-2.999 Y29.389
G1 F2400 X-3 Y-29.388 E641.34813
G0 F6000 X-2.5 Y-29.388
G1 F2400 X-2.499 Y29.389 E643.79175
G0 F6000 X-1.999 Y29.389
G1 F2400 X-2 Y-29.388 E646.23541
G0 F6000 X-1.5 Y-29.388
G1 F2400 X-1.499 Y29.389 E648.67903
G0 F6000 X-0.999 Y29.389
G1 F2400 X-1 Y-29.388 E651.1227
G0 F6000 X-0.5 Y-29.388
G1 F2400 X-0.499 Y29.389 E653.56632
G0 F6000 X0 Y29.39
G1 F2400 X0 Y-29.387 E656.00998
G0 F6000 X0.499 Y-29.387
G1 F2400 X0.5 Y29.39 E658.45361
G0 F6000 X1 Y29.39
G1 F2400 X0.999 Y-29.387 E660.89727
G0 F6000 X1.499 Y-29.387
G1 F2400 X1.5 Y29.39 E663.34089
G0 F6000 X2 Y29.39
G1 F2400 X1.999 Y-29.387 E665.78455
G0 F6000 X2.499 Y-29.387
G1 F2400 X2.5 Y29.39 E668.22818
G0 F6000 X3 Y29.39
G1 F2400 X2.999 Y-29.387 E670.67184
G0 F6000 X3.499 Y-29.387
G1 F2400 X3.5 Y29.39 E673.11546
G0 F6000 X4 Y29.39
G1 F2400 X3.999 Y-29.387 E675.55913
G0 F6000 X4.499 Y-29.387
G1 F2400 X4.5 Y29.39 E678.00275
G0 F6000 X5 Y29.39
G1 F2400 X4.999 Y-29.387 E680.44641
G0 F6000 X5.499 Y-29.387
G1 F2400 X5.5 Y29.39 E682.89003
G0 F6000 X6 Y29.39
G1 F2400 X5.999 Y-29.387 E685.3337
G0 F6000 X6.499 Y-29.387
G1 F2400 X6.5 Y29.39 E687.77732
G0 F6000 X7 Y29.39
G1 F2400 X6.999 Y-29.387 E690.22098
G0 F6000 X7.499 Y-29.387
G1 F2400 X7.5 Y29.39 E692.66461
G0 F6000 X8 Y29.39
G1 F2400 X7.999 Y-29.387 E695.10827
G0 F6000 X8.499 Y-29.387
G1 F2400 X8.5 Y29.39 E697.55189
G0 F6000 X9 Y29.39
G1 F2400 X8.999 Y-29.387 E699.99556
G0 F6000 X9.499 Y-29.387
G1 F2400 X9.5 Y29.39 E702.43918
G0 F6000 X10 Y29.39
G1 F2400 X9.999 Y-29.387 E704.88284
G0 F6000 X10.499 Y-29.387
G1 F2400 X10.5 Y29.39 E707.32646
G0 F6000 X11 Y29.39
G1 F2400 X10.999 Y-29.387 E709.77013
G0 F6000 X11.499 Y-29.387
G1 F2400 X11.5 Y29.39 E712.21375
G0 F6000 X12 Y29.39
G1 F2400 X11.999 Y-29.387 E714.65741
G0 F6000 X12.499 Y-29.387
G1 F2400 X12.5 Y29.39 E717.10103
G0 F6000 X13 Y29.39
G1 F2400 X12.999 Y-29.387 E719.5447
G0 F6000 X13.499 Y-29.387
G1 F2400 X13.5 Y29.39 E721.98832
G0 F6000 X14 Y29.39
G1 F2400 X13.999 Y-29.387 E724.43198
G0 F6000 X14.499 Y-29.387
G1 F2400 X14.5 Y29.39 E726.87561
G0 F6000 X15 Y29.389
G1 F2400 X14.999 Y-29.387 E729.31923
G0 F6000 X15.499 Y-29.387
G1 F2400 X15.5 Y29.389 E731.76281
G0 F6000 X16 Y29.389
G1 F2400 X15.999 Y-29.387 E734.20643
G0 F6000 X16.499 Y-29.387
G1 F2400 X16.5 Y29.389 E736.65001
G0 F6000 X17 Y29.389
G1 F2400 X16.999 Y-29.387 E739.09363
G0 F6000 X17.499 Y-29.387
G1 F2400 X17.5 Y29.389 E741.53721
G0 F6000 X18 Y29.389
G1 F2400 X17.999 Y-29.387 E743.98084
G0 F6000 X18.499 Y-29.387
G1 F2400 X18.5 Y29.389 E746.42442
G0 F6000 X19 Y29.389
G1 F2400 X18.999 Y-29.387 E748.86804
G0 F6000 X19.499 Y-29.387
G1 F2400 X19.5 Y29.389 E751.31162
G0 F6000 X20 Y29.389
G1 F2400 X19.999 Y-29.387 E753.75524
G0 F6000 X20.499 Y-29.387
G1 F2400 X20.5 Y29.389 E756.19882
G0 F6000 X21 Y29.389
G1 F2400 X20.999 Y-29.387 E758.64244
G0 F6000 X21.499 Y-29.387
G1 F2400 X21.5 Y29.389 E761.08603
G0 F6000 X22 Y29.389
G1 F2400 X21.999 Y-29.387 E763.52965
G0 F6000 X22.499 Y-29.387
G1 F2400 X22.5 Y29.389 E765.97323
G0 F6000 X23 Y29.389
G1 F2400 X22.999 Y-29.387 E768.41685
G0 F6000 X23.499 Y-29.387
G1 F2400 X23.5 Y29.389 E770.86043
G0 F6000 X24 Y29.389
G1 F2400 X23.999 Y-29.387 E773.30405
G0 F6000 X24.499 Y-29.387
G1 F2400 X24.5 Y29.389 E775.74763
G0 F6000 X25 Y29.389
G1 F2400 X24.999 Y-29.387 E778.19126
G0 F6000 X25.499 Y-29.387
G1 F2400 X25.5 Y29.389 E780.63484
G0 F6000 X26 Y29.389
G1 F2400 X25.999 Y-29.387 E783.07846
G0 F6000 X26.499 Y-29.387
G1 F2400 X26.5 Y29.389 E785.52204
G0 F6000 X27 Y29.389
G1 F2400 X26.999 Y-29.387 E787.96566
G0 F6000 X27.499 Y-29.387
G1 F2400 X27.5 Y29.389 E790.40924
G0 F6000 X28 Y29.383
G1 F2400 X27.999 Y-29.382 E792.85241
G0 F6000 X28.499 Y-29.304
G1 F2400 X28.5 Y29.303 E795.28896
G0 F6000 X29 Y29.084
G1 F2400 X28.999 Y-29.083 E797.70726
G0 F6000 X29.499 Y-28.654
G1 F2400 X29.5 Y28.654 E800.08981
G0 F6000 X-29.499 Y28.654
G0 X-29.499 Y28.654
G1 F2400 X-29.5 Y-28.654 E802.4724
; LAYER:2
M106 S153
G0 F6000 X-29.719 Y-28.694 Z0.7
; TYPE:WALL-INNER
G1 F2400 X-29.501 Y-28.938 E802.48601
G1 X-29.303 Y-29.112 E802.49696
G1 X-29.04 Y-29.284 E802.51002
G1 X-28.776 Y-29.412 E802.5222
G1 X-28.493 Y-29.504 E802.53454
G1 X-28.205 Y-29.559 E802.5467
G1 X-27.902 Y-29.578 E802.55928
G1 X27.914 Y-29.578 E804.8798
G1 X28.22 Y-29.558 E804.89255
G1 X28.516 Y-29.5 E804.90508
G1 X28.793 Y-29.406 E804.91723
G1 X29.049 Y-29.28 E804.92907
G1 X29.32 Y-29.096 E804.94267
G1 X29.517 Y-28.923 E804.95354
G1 X29.717 Y-28.696 E804.96608
G1 X29.88 Y-28.451 E804.97828
G1 X30.008 Y-28.191 E804.9903
G1 X30.102 Y-27.915 E805.00238
G1 X30.16 Y-27.619 E805.01488
G1 X30.181 Y-27.309 E805.02775
G1 X30.181 Y27.311 E807.29855
G1 X30.161 Y27.62 E807.31142
G1 X30.102 Y27.917 E807.32401
G1 X30.009 Y28.19 E807.336
G1 X29.878 Y28.454 E807.34825
G1 X29.716 Y28.697 E807.3604
G1 X29.521 Y28.919 E807.37268
G1 X29.296 Y29.117 E807.38514
G1 X29.061 Y29.274 E807.39689
G1 X28.771 Y29.414 E807.41028
G1 X28.496 Y29.505 E807.42232
G1 X28.197 Y29.561 E807.43497
G1 X27.913 Y29.58 E807.4468
G1 X-27.911 Y29.58 E809.7677
G1 X-28.221 Y29.559 E809.78066
G1 X-28.511 Y29.502 E809.79298
G1 X-28.794 Y29.405 E809.80546
G1 X-29.056 Y29.277 E809.81762
G1 X-29.298 Y29.116 E809.82974
G1 X-29.52 Y28.92 E809.84208
G1 X-29.718 Y28.694 E809.8546
G1 X-29.879 Y28.453 E809.86668
G1 X-30.007 Y28.195 E809.87867
G1 X-30.103 Y27.908 E809.89126
G1 X-30.16 Y27.623 E809.90336
G1 X-30.18 Y27.313 E809.91627
G1 X-30.18 Y-27.314 E812.1874
G1 X-30.16 Y-27.624 E812.20035
G1 X-30.103 Y-27.909 E812.21247
G1 X-30.008 Y-28.192 E812.22491
G1 X-29.878 Y-28.457 E812.2372
G1 X-29.719 Y-28.694 E812.24907
G0 F6000 X-30.113 Y-29.004
; TYPE:WALL-OUTER
G1 F2100 X-29.857 Y-29.29 E812.26504
G1 X-29.605 Y-29.512 E812.279
G1 X-29.282 Y-29.723 E812.29502
G1 X-28.967 Y-29.875 E812.30955
G1 X-28.619 Y-29.989 E812.32474
G1 X-28.266 Y-30.056 E812.33965
G1 X-27.917 Y-30.078 E812.35415
G1 X27.931 Y-30.078 E814.676
G1 X28.289 Y-30.055 E814.69091
G1 X28.639 Y-29.986 E814.70573
G1 X28.984 Y-29.869 E814.72086
G1 X29.302 Y-29.712 E814.73559
G1 X29.627 Y-29.491 E814.75191
G1 X29.875 Y-29.274 E814.76558
G1 X30.112 Y-29.004 E814.78049
G1 X30.313 Y-28.703 E814.7955
G1 X30.471 Y-28.382 E814.81034
G1 X30.588 Y-28.038 E814.8254
G1 X30.657 Y-27.688 E814.84019
G1 X30.681 Y-27.329 E814.85511
G1 X30.681 Y27.331 E817.12757
G1 X30.657 Y27.688 E817.14244
G1 X30.588 Y28.04 E817.15736
G1 X30.471 Y28.384 E817.17246
G1 X30.313 Y28.703 E817.18726
G1 X30.112 Y29.005 E817.20235
G1 X29.876 Y29.274 E817.21722
G1 X29.605 Y29.511 E817.23219
G1 X29.304 Y29.713 E817.24726
G1 X28.96 Y29.878 E817.26312
G1 X28.625 Y29.989 E817.2778
G1 X28.258 Y30.059 E817.29333
G1 X27.931 Y30.08 E817.30695
G1 X-27.929 Y30.08 E819.62934
G1 X-28.29 Y30.056 E819.64443
G1 X-28.637 Y29.987 E819.65917
G1 X-28.99 Y29.867 E819.67472
G1 X-29.302 Y29.713 E819.68922
G1 X-29.606 Y29.511 E819.70443
G1 X-29.876 Y29.274 E819.71939
G1 X-30.112 Y29.004 E819.73433
G1 X-30.313 Y28.703 E819.7494
G1 X-30.471 Y28.383 E819.76426
G1 X-30.587 Y28.039 E819.77936
G1 X-30.657 Y27.686 E819.79433
G1 X-30.68 Y27.33 E819.80917
G1 X-30.68 Y-27.331 E822.08171
G1 X-30.657 Y-27.687 E822.09658
G1 X-30.587 Y-28.04 E822.11157
G1 X-30.47 Y-28.387 E822.12682
G1 X-30.315 Y-28.701 E822.1414
G1 X-30.113 Y-29.004 E822.15655
G0 F6000 X-29.62 Y-28.5
; TYPE:FILL
G1 F2400 X29.62 Y-28.5 E824.61943
G0 F6000 X29.872 Y-28
G1 F2400 X-29.872 Y-27.999 E827.10329
G0 F6000 X-29.978 Y-27.499
G1 F2400 X29.978 Y-27.5 E829.59593
G0 F6000 X29.991 Y-27
G1 F2400 X-29.99 Y-26.999 E832.08965
G0 F6000 X-29.99 Y-26.499
G1 F2400 X29.991 Y-26.5 E834.58333
G0 F6000 X29.991 Y-26
G1 F2400 X-29.99 Y-25.999 E837.07705
G0 F6000 X-29.99 Y-25.499
G1 F2400 X29.991 Y-25.5 E839.57073
G0 F6000 X29.991 Y-25
G1 F2400 X-29.99 Y-24.999 E842.06445
G0 F6000 X-29.99 Y-24.499
G1 F2400 X29.991 Y-24.5 E844.55813
G0 F6000 X29.991 Y-24
G1 F2400 X-29.99 Y-23.999 E847.05185
G0 F6000 X-29.99 Y-23.499
G1 F2400 X29.991 Y-23.5 E849.54553
G0 F6000 X29.991 Y-23
G1 F2400 X-29.99 Y-22.999 E852.03925
G0 F6000 X-29.99 Y-22.499
G1 F2400 X29.991 Y-22.5 E854.53293
G0 F6000 X29.991 Y-22
G1 F2400 X-29.99 Y-21.999 E857.02665
G0 F6000 X-29.99 Y-21.499
G1 F2400 X29.991 Y-21.5 E859.52032
G0 F6000 X29.991 Y-21
G1 F2400 X-29.99 Y-20.999 E862.01404
G0 F6000 X-29.99 Y-20.499
G1 F2400 X29.991 Y-20.5 E864.50772
G0 F6000 X29.991 Y-20
G1 F2400 X-29.99 Y-19.999 E867.00144
G0 F6000 X-29.99 Y-19.499
G1 F2400 X29.991 Y-19.5 E869.49512
G0 F6000 X29.991 Y-19
G1 F2400 X-29.99 Y-18.999 E871.98884
G0 F6000 X-29.99 Y-18.499
G1 F2400 X29.991 Y-18.5 E874.48252
G0 F6000 X29.991 Y-18
G1 F2400 X-29.99 Y-17.999 E876.97624
G0 F6000 X-29.99 Y-17.499
G1 F2400 X29.991 Y-17.5 E879.46992
G0 F6000 X29.991 Y-17
G1 F2400 X-29.99 Y-16.999 E881.96364
G0 F6000 X-29.99 Y-16.499
G1 F2400 X29.991 Y-16.5 E884.45732
G0 F6000 X29.991 Y-16
G1 F2400 X-29.99 Y-15.999 E886.95104
G0 F6000 X-29.99 Y-15.499
G1 F2400 X29.991 Y-15.5 E889.44472
G0 F6000 X29.991 Y-15
G1 F2400 X-29.99 Y-14.999 E891.93844
G0 F6000 X-29.99 Y-14.499
G1 F2400 X29.991 Y-14.5 E894.43212
G0 F6000 X29.991 Y-14
G1 F2400 X-29.99 Y-13.999 E896.92584
G0 F6000 X-29.99 Y-13.499
G1 F2400 X29.991 Y-13.5 E899.41952
G0 F6000 X29.991 Y-13
G1 F2400 X-29.99 Y-12.999 E901.91324
G0 F6000 X-29.99 Y-12.499
G1 F2400 X29.991 Y-12.5 E904.40691
G0 F6000 X29.991 Y-12
G1 F2400 X-29.99 Y-11.999 E906.90063
G0 F6000 X-29.99 Y-11.499
G1 F2400 X29.991 Y-11.5 E909.39431
G0 F6000 X29.991 Y-11
G1 F2400 X-29.99 Y-10.999 E911.88803
G0 F6000 X-29.99 Y-10.499
G1 F2400 X29.991 Y-10.5 E914.38171
G0 F6000 X29.991 Y-10
G1 F2400 X-29.99 Y-9.999 E916.87543
G0 F6000 X-29.99 Y-9.499
G1 F2400 X29.991 Y-9.5 E919.36911
G0 F6000 X29.991 Y-9
G1 F2400 X-29.99 Y-8.999 E921.86283
G0 F6000 X-29.99 Y-8.499
G1 F2400 X29.991 Y-8.5 E924.35651
G0 F6000 X29.991 Y-8
G1 F2400 X-29.99 Y-7.999 E926.85023
G0 F6000 X-29.99 Y-7.499
G1 F2400 X29.991 Y-7.5 E929.34391
G0 F6000 X29.991 Y-7
G1 F2400 X-29.99 Y-6.999 E931.83763
G0 F6000 X-29.99 Y-6.499
G1 F2400 X29.991 Y-6.5 E934.33131
G0 F6000 X29.991 Y-6
G1 F2400 X-29.99 Y-5.999 E936.82503
G0 F6000 X-29.99 Y-5.499
G1 F2400 X29.991 Y-5.5 E939.31871
G0 F6000 X29.991 Y-5
G1 F2400 X-29.99 Y-4.999 E941.81243
G0 F6000 X-29.99 Y-4.499
G1 F2400 X29.991 Y-4.5 E944.3061
G0 F6000 X29.991 Y-4
G1 F2400 X-29.99 Y-3.999 E946.79982
G0 F6000 X-29.99 Y-3.499
G1 F2400 X29.991 Y-3.5 E949.2935
G0 F6000 X29.991 Y-3
G1 F2400 X-29.99 Y-2.999 E951.78722
G0 F6000 X-29.99 Y-2.499
G1 F2400 X29.991 Y-2.5 E954.2809
G0 F6000 X29.991 Y-2
G1 F2400 X-29.99 Y-1.999 E956.77462
G0 F6000 X-29.99 Y-1.499
G1 F2400 X29.991 Y-1.5 E959.2683
G0 F6000 X29.991 Y-1
G1 F2400 X-29.99 Y-0.999 E961.76202
G0 F6000 X-29.99 Y-0.499
G1 F2400 X29.991 Y-0.5 E964.2557
G0 F6000 X29.991 Y0
G1 F2400 X-29.99 Y0 E966.74942
G0 F6000 X-29.99 Y0.5
G1 F2400 X29.991 Y0.499 E969.2431
G0 F6000 X29.991 Y0.999
G1 F2400 X-29.99 Y1 E971.73682
G0 F6000 X-29.99 Y1.5
G1 F2400 X29.991 Y1.499 E974.2305
G0 F6000 X29.991 Y1.999
G1 F2400 X-29.99 Y2 E976.72422
G0 F6000 X-29.99 Y2.5
G1 F2400 X29.991 Y2.499 E979.2179
G0 F6000 X29.991 Y2.999
G1 F2400 X-29.99 Y3 E981.71162
G0 F6000 X-29.99 Y3.5
G1 F2400 X29.991 Y3.499 E984.2053
G0 F6000 X29.991 Y3.999
G1 F2400 X-29.99 Y4 E986.69902
G0 F6000 X-29.99 Y4.5
G1 F2400 X29.991 Y4.499 E989.19269
G0 F6000 X29.991 Y4.999
G1 F2400 X-29.99 Y5 E991.68641
G0 F6000 X-29.99 Y5.5
G1 F2400 X29.991 Y5.499 E994.18009
G0 F6000 X29.991 Y5.999
G1 F2400 X-29.99 Y6 E996.67381
G0 F6000 X-29.99 Y6.5
G1 F2400 X29.991 Y6.499 E999.16749
G0 F6000 X29.991 Y6.999
G1 F2400 X-29.99 Y7 E1001.66121
G0 F6000 X-29.99 Y7.5
G1 F2400 X29.991 Y7.499 E1004.15489
G0 F6000 X29.991 Y7.999
G1 F2400 X-29.99 Y8 E1006.64861
G0 F6000 X-29.99 Y8.5
G1 F2400 X29.991 Y8.499 E1009.14229
G0 F6000 X29.991 Y8.999
G1 F2400 X-29.99 Y9 E1011.63601
G0 F6000 X-29.99 Y9.5
G1 F2400 X29.991 Y9.499 E1014.12969
G0 F6000 X29.991 Y9.999
G1 F2400 X-29.99 Y10 E1016.62341
G0 F6000 X-29.99 Y10.5
G1 F2400 X29.991 Y10.499 E1019.11709
G0 F6000 X29.991 Y10.999
G1 F2400 X-29.99 Y11 E1021.61081
G0 F6000 X-29.99 Y11.5
G1 F2400 X29.991 Y11.499 E1024.10449
G0 F6000 X29.991 Y11.999
G1 F2400 X-29.99 Y12 E1026.59821
G0 F6000 X-29.99 Y12.5
G1 F2400 X29.991 Y12.499 E1029.09188
G0 F6000 X29.991 Y12.999
G1 F2400 X-29.99 Y13 E1031.5856
G0 F6000 X-29.99 Y13.5
G1 F2400 X29.991 Y13.499 E1034.07928
G0 F6000 X29.991 Y13.999
G1 F2400 X-29.99 Y14 E1036.573
G0 F6000 X-29.99 Y14.5
G1 F2400 X29.991 Y14.499 E1039.06668
G0 F6000 X29.991 Y14.999
G1 F2400 X-29.99 Y15 E1041.5604
G0 F6000 X-29.99 Y15.5
G1 F2400 X29.991 Y15.499 E1044.05408
G0 F6000 X29.991 Y15.999
G1 F2400 X-29.99 Y16 E1046.5478
G0 F6000 X-29.99 Y16.5
G1 F2400 X29.991 Y16.499 E1049.04148
G0 F6000 X29.991 Y16.999
G1 F2400 X-29.99 Y17 E1051.5352
G0 F6000 X-29.99 Y17.5
G1 F2400 X29.991 Y17.499 E1054.02888
G0 F6000 X29.991 Y17.999
G1 F2400 X-29.99 Y18 E1056.5226
G0 F6000 X-29.99 Y18.5
G1 F2400 X29.991 Y18.499 E1059.01628
G0 F6000 X29.991 Y18.999
G1 F2400 X-29.99 Y19 E1061.51
G0 F6000 X-29.99 Y19.5
G1 F2400 X29.991 Y19.499 E1064.00368
G0 F6000 X29.991 Y19.999
G1 F2400 X-29.99 Y20 E1066.4974
G0 F6000 X-29.99 Y20.5
G1 F2400 X29.991 Y20.499 E1068.99108
G0 F6000 X29.991 Y20.999
G1 F2400 X-29.99 Y21 E1071.4848
G0 F6000 X-29.99 Y21.5
G1 F2400 X29.991 Y21.499 E1073.97847
G0 F6000 X29.991 Y21.999
G1 F2400 X-29.99 Y22 E1076.47219
G0 F6000 X-29.99 Y22.5
G1 F2400 X29.991 Y22.499 E1078.96587
G0 F6000 X29.991 Y22.999
G1 F2400 X-29.99 Y23 E1081.45959
G0 F6000 X-29.99 Y23.5
G1 F2400 X29.991 Y23.499 E1083.95327
G0 F6000 X29.991 Y23.999
G1 F2400 X-29.99 Y24 E1086.44699
G0 F6000 X-29.99 Y24.5
G1 F2400 X29.991 Y24.499 E1088.94067
G0 F6000 X29.991 Y24.999
G1 F2400 X-29.99 Y25 E1091.43439
G0 F6000 X-29.99 Y25.5
G1 F2400 X29.991 Y25.499 E1093.92807
G0 F6000 X29.991 Y25.999
G1 F2400 X-29.99 Y26 E1096.42179
G0 F6000 X-29.99 Y26.5
G1 F2400 X29.991 Y26.499 E1098.91547
G0 F6000 X29.991 Y26.999
G1 F2400 X-29.99 Y27 E1101.40919
G0 F6000 X-29.978 Y27.5
G1 F2400 X29.979 Y27.499 E1103.90187
G0 F6000 X29.873 Y27.999
G1 F2400 X-29.872 Y28 E1106.38578
G0 F6000 X-29.619 Y28.5
G1 F2400 X29.619 Y28.5 E1108.84857
G0 F6000 X29.129 Y29
G1 F2400 X-29.131 Y29 E1111.27074
G0 F6000 X-29.127 Y-29
G0 X-29.127 Y-29
G1 F2400 X29.124 Y-29 E1113.69249
; LAYER:3
G0 F6000 X29.327 Y-29.089 Z0.9
; TYPE:WALL-INNER
G1 F2400 X29.518 Y-28.922 E1113.70301
G1 X29.717 Y-28.696 E1113.7155
G1 X29.88 Y-28.451 E1113.7277
G1 X30.008 Y-28.191 E1113.73971
G1 X30.102 Y-27.915 E1113.75179
G1 X30.16 Y-27.619 E1113.76429
G1 X30.181 Y-27.309 E1113.77717
G1 X30.181 Y27.311 E1116.04796
G1 X30.161 Y27.62 E1116.06084
G1 X30.102 Y27.917 E1116.07342
G1 X30.009 Y28.19 E1116.08541
G1 X29.878 Y28.454 E1116.09767
G1 X29.716 Y28.697 E1116.10981
G1 X29.521 Y28.919 E1116.12209
G1 X29.296 Y29.117 E1116.13455
G1 X29.063 Y29.273 E1116.14621
G1 X28.765 Y29.415 E1116.15994
G1 X28.482 Y29.508 E1116.17232
G1 X28.196 Y29.561 E1116.18441
G1 X27.912 Y29.58 E1116.19625
G1 X-27.911 Y29.58 E1118.5171
G1 X-28.221 Y29.559 E1118.53006
G1 X-28.511 Y29.502 E1118.54239
G1 X-28.794 Y29.405 E1118.55486
G1 X-29.056 Y29.277 E1118.56702
G1 X-29.298 Y29.116 E1118.57914
G1 X-29.52 Y28.92 E1118.59149
G1 X-29.718 Y28.694 E1118.60401
G1 X-29.879 Y28.453 E1118.61608
G1 X-30.007 Y28.195 E1118.62807
G1 X-30.103 Y27.908 E1118.64067
G1 X-30.16 Y27.623 E1118.65276
G1 X-30.18 Y27.313 E1118.66568
G1 X-30.18 Y-27.314 E1120.9368
G1 X-30.16 Y-27.624 E1120.94976
G1 X-30.103 Y-27.909 E1120.96187
G1 X-30.008 Y-28.192 E1120.97431
G1 X-29.878 Y-28.457 E1120.9866
G1 X-29.719 Y-28.694 E1120.99848
G1 X-29.497 Y-28.942 E1121.01232
G1 X-29.305 Y-29.11 E1121.02292
G1 X-29.032 Y-29.288 E1121.03646
G1 X-28.764 Y-29.416 E1121.04879
G1 X-28.493 Y-29.504 E1121.06061
G1 X-28.188 Y-29.56 E1121.07347
G1 X-27.916 Y-29.578 E1121.08476
G1 X27.914 Y-29.578 E1123.40586
G1 X28.22 Y-29.558 E1123.41861
G1 X28.516 Y-29.5 E1123.43114
G1 X28.793 Y-29.406 E1123.44329
G1 X29.046 Y-29.281 E1123.455
G1 X29.327 Y-29.089 E1123.46913
G0 F6000 X29.632 Y-29.487
; TYPE:WALL-OUTER
G1 F2100 X29.872 Y-29.277 E1123.48236
G1 X30.112 Y-29.004 E1123.49744
G1 X30.313 Y-28.703 E1123.51245
G1 X30.471 Y-28.382 E1123.52729
G1 X30.588 Y-28.038 E1123.54236
G1 X30.657 Y-27.688 E1123.55715
G1 X30.681 Y-27.329 E1123.57207
G1 X30.681 Y27.331 E1125.84452
G1 X30.657 Y27.688 E1125.8594
G1 X30.588 Y28.04 E1125.87431
G1 X30.471 Y28.384 E1125.88942
G1 X30.313 Y28.703 E1125.90422
G1 X30.112 Y29.005 E1125.9193
G1 X29.876 Y29.274 E1125.93418
G1 X29.605 Y29.511 E1125.94915
G1 X29.31 Y29.709 E1125.96392
G1 X28.951 Y29.88 E1125.98045
G1 X28.607 Y29.993 E1125.9955
G1 X28.252 Y30.058 E1126.01051
G1 X27.93 Y30.08 E1126.02393
G1 X-27.929 Y30.08 E1128.34627
G1 X-28.29 Y30.056 E1128.36136
G1 X-28.637 Y29.987 E1128.37611
G1 X-28.99 Y29.867 E1128.39165
G1 X-29.302 Y29.713 E1128.40615
G1 X-29.606 Y29.511 E1128.42136
G1 X-29.876 Y29.274 E1128.43633
G1 X-30.112 Y29.004 E1128.45126
G1 X-30.313 Y28.703 E1128.46633
G1 X-30.471 Y28.383 E1128.48119
G1 X-30.587 Y28.039 E1128.4963
G1 X-30.657 Y27.686 E1128.51127
G1 X-30.68 Y27.33 E1128.5261
G1 X-30.68 Y-27.331 E1130.79864
G1 X-30.657 Y-27.687 E1130.81351
G1 X-30.587 Y-28.04 E1130.82851
G1 X-30.47 Y-28.387 E1130.84376
G1 X-30.315 Y-28.701 E1130.85833
G1 X-30.113 Y-29.003 E1130.87345
G1 X-29.851 Y-29.296 E1130.8898
G1 X-29.605 Y-29.511 E1130.90338
G1 X-29.28 Y-29.723 E1130.9195
G1 X-28.95 Y-29.881 E1130.93469
G1 X-28.611 Y-29.991 E1130.94948
G1 X-28.252 Y-30.057 E1130.96462
G1 X-27.932 Y-30.078 E1130.97791
G1 X27.931 Y-30.078 E1133.30039
G1 X28.289 Y-30.055 E1133.3153
G1 X28.639 Y-29.986 E1133.33012
G1 X28.984 Y-29.869 E1133.34525
G1 X29.307 Y-29.71 E1133.3602
G1 X29.632 Y-29.487 E1133.37657
G0 F6000 X28.187 Y-29.31
; TYPE:FILL
G1 F2400 X28.448 Y-29.259 E1133.38762
G1 X28.698 Y-29.174 E1133.39858
G1 X28.922 Y-29.064 E1133.40894
G1 X29.17 Y-28.894 E1133.42141
G1 X29.341 Y-28.744 E1133.43084
G1 X29.521 Y-28.54 E1133.44212
G1 X29.663 Y-28.326 E1133.45277
G1 X29.774 Y-28.102 E1133.46312
G1 X29.861 Y-27.845 E1133.47436
G1 X29.912 Y-27.586 E1133.4853
G1 X29.931 Y-27.309 E1133.4968
G1 X29.931 Y27.311 E1135.76759
G1 X29.913 Y27.585 E1135.77901
G1 X29.861 Y27.848 E1135.79016
G1 X29.776 Y28.097 E1135.8011
G1 X29.662 Y28.327 E1135.81177
G1 X29.517 Y28.545 E1135.82265
G1 X29.344 Y28.742 E1135.83355
G1 X29.143 Y28.918 E1135.84466
G1 X28.941 Y29.054 E1135.85478
G1 X28.671 Y29.182 E1135.86721
G1 X28.418 Y29.265 E1135.87828
G1 X28.159 Y29.313 E1135.88923
G1 X27.91 Y29.33 E1135.89961
G1 X-27.909 Y29.33 E1138.22029
G1 X-28.188 Y29.311 E1138.23196
G1 X-28.447 Y29.26 E1138.24297
G1 X-28.691 Y29.176 E1138.25374
G1 X-28.937 Y29.057 E1138.26514
G1 X-29.147 Y28.917 E1138.27567
G1 X-29.339 Y28.748 E1138.28633
G1 X-29.519 Y28.542 E1138.29773
G1 X-29.663 Y28.326 E1138.30855
G1 X-29.776 Y28.098 E1138.31915
G1 X-29.861 Y27.844 E1138.3303
G1 X-29.912 Y27.588 E1138.34116
G1 X-29.93 Y27.313 E1138.35262
G1 X-29.93 Y-27.314 E1140.62374
G1 X-29.912 Y-27.589 E1140.63524
G1 X-29.862 Y-27.842 E1140.646
G1 X-29.775 Y-28.101 E1140.65738
G1 X-29.663 Y-28.328 E1140.66792
G1 X-29.52 Y-28.541 E1140.6786
G1 X-29.322 Y-28.763 E1140.69097
G1 X-29.152 Y-28.911 E1140.70034
G1 X-28.913 Y-29.067 E1140.71219
G1 X-28.669 Y-29.184 E1140.72342
G1 X-28.431 Y-29.261 E1140.7338
G1 X-28.153 Y-29.312 E1140.74552
G1 X-27.914 Y-29.328 E1140.75544
G1 X27.913 Y-29.328 E1143.07641
G1 X28.187 Y-29.31 E1143.08782
G0 F6000 X-1.07 Y-0.468
G0 X-1.07 Y-0.468
G1 F2400 X1.071 Y-0.468 E1143.17679
G1 X1.071 Y0.47 E1143.21575
G1 X-1.07 Y0.47 E1143.30476
G1 X-1.07 Y-0.468 E1143.34376
G0 F6000 X-1.625 Y-1.023
G1 F2400 X1.626 Y-1.023 E1143.47888
G1 X1.626 Y1.025 E1143.56398
G1 X-1.625 Y1.025 E1143.69915
G1 X-1.625 Y-1.023 E1143.78429
G0 F6000 X-2.18 Y-1.578
G1 F2400 X2.181 Y-1.578 E1143.96556
G1 X2.181 Y1.58 E1144.09681
G1 X-2.18 Y1.58 E1144.27812
G1 X-2.18 Y-1.578 E1144.40942
G0 F6000 X-2.735 Y-2.133
G1 F2400 X2.736 Y-2.133 E1144.63683
G1 X2.736 Y2.135 E1144.81423
G1 X-2.735 Y2.135 E1145.04169
G1 X-2.735 Y-2.133 E1145.21913
G0 F6000 X-3.29 Y-2.688
G1 F2400 X3.291 Y-2.688 E1145.4927
G1 X3.291 Y2.69 E1145.71625
G1 X-3.29 Y2.69 E1145.98985
G1 X-3.29 Y-2.688 E1146.21345
G0 F6000 X-3.845 Y-3.243
G1 F2400 X3.846 Y-3.243 E1146.53316
G1 X3.846 Y3.245 E1146.80286
G1 X-3.845 Y3.245 E1147.12261
G1 X-3.845 Y-3.243 E1147.39235
G0 F6000 X-4.4 Y-3.798
G1 F2400 X4.401 Y-3.798 E1147.75821
G1 X4.401 Y3.8 E1148.07406
G1 X-4.4 Y3.8 E1148.43996
G1 X-4.4 Y-3.798 E1148.75585
G0 F6000 X-4.955 Y-4.353
G1 F2400 X4.956 Y-4.353 E1149.16786
G1 X4.956 Y4.355 E1149.52985
G1 X-4.955 Y4.355 E1149.94191
G1 X-4.955 Y-4.353 E1150.30394
G0 F6000 X-5.51 Y-4.908
G1 F2400 X5.511 Y-4.908 E1150.7621
G1 X5.511 Y4.91 E1151.17024
G1 X-5.51 Y4.91 E1151.62844
G1 X-5.51 Y-4.908 E1152.03663
G0 F6000 X-6.065 Y-5.463
G1 F2400 X6.066 Y-5.463 E1152.54094
G1 X6.066 Y5.465 E1152.99523
G1 X-6.065 Y5.465 E1153.49958
G1 X-6.065 Y-5.463 E1153.95391
G0 F6000 X-6.62 Y-6.018
G1 F2400 X6.621 Y-6.018 E1154.50437
G1 X6.621 Y6.02 E1155.00481
G1 X-6.62 Y6.02 E1155.5553
G1 X-6.62 Y-6.018 E1156.05578
G0 F6000 X-7.175 Y-6.573
G1 F2400 X7.176 Y-6.573 E1156.65239
G1 X7.176 Y6.575 E1157.19898
G1 X-7.175 Y6.575 E1157.79562
G1 X-7.175 Y-6.573 E1158.34225
G0 F6000 X-7.73 Y-7.128
G1 F2400 X7.731 Y-7.128 E1158.985
G1 X7.731 Y7.13 E1159.57774
G1 X-7.73 Y7.13 E1160.22054
G1 X-7.73 Y-7.128 E1160.81331
G0 F6000 X-8.285 Y-7.683
G1 F2400 X8.286 Y-7.683 E1161.50221
G1 X8.286 Y7.685 E1162.1411
G1 X-8.285 Y7.685 E1162.83004
G1 X-8.285 Y-7.683 E1163.46897
G0 F6000 X-8.84 Y-8.238
G1 F2400 X8.841 Y-8.238 E1164.20402
G1 X8.841 Y8.24 E1164.88905
G1 X-8.84 Y8.24 E1165.62414
G1 X-8.84 Y-8.238 E1166.30922
G0 F6000 X-9.395 Y-8.793
G1 F2400 X9.396 Y-8.793 E1167.09042
G1 X9.396 Y8.795 E1167.8216
G1 X-9.395 Y8.795 E1168.60284
G1 X-9.395 Y-8.793 E1169.33406
G0 F6000 X-9.95 Y-9.348
G1 F2400 X9.951 Y-9.348 E1170.16141
G1 X9.951 Y9.35 E1170.93874
G1 X-9.95 Y9.35 E1171.76613
G1 X-9.95 Y-9.348 E1172.5435
G0 F6000 X-10.505 Y-9.903
G1 F2400 X10.506 Y-9.903 E1173.41699
G1 X10.506 Y9.905 E1174.24047
G1 X-10.505 Y9.905 E1175.11401
G1 X-10.505 Y-9.903 E1175.93753
G0 F6000 X-11.06 Y-10.458
G1 F2400 X11.061 Y-10.458 E1176.85717
G1 X11.061 Y10.46 E1177.7268
G1 X-11.06 Y10.46 E1178.64648
G1 X-11.06 Y-10.458 E1179.51615
G0 F6000 X-11.615 Y-11.013
G1 F2400 X11.616 Y-11.013 E1180.48194
G1 X11.616 Y11.015 E1181.39772
G1 X-11.615 Y11.015 E1182.36355
G1 X-11.615 Y-11.013 E1183.27937
G0 F6000 X-12.17 Y-11.568
G1 F2400 X12.171 Y-11.568 E1184.29131
G1 X12.171 Y11.57 E1185.25324
G1 X-12.17 Y11.57 E1186.26522
G1 X-12.17 Y-11.568 E1187.22718
G0 F6000 X-12.725 Y-12.123
G1 F2400 X12.726 Y-12.123 E1188.28527
G1 X12.726 Y12.125 E1189.29334
G1 X-12.725 Y12.125 E1190.35147
G1 X-12.725 Y-12.123 E1191.35959
G0 F6000 X-13.28 Y-12.678
G1 F2400 X13.281 Y-12.678 E1192.46383
G1 X13.281 Y12.68 E1193.51805
G1 X-13.28 Y12.68 E1194.62232
G1 X-13.28 Y-12.678 E1195.67659
G0 F6000 X-13.835 Y-13.233
G1 F2400 X13.836 Y-13.233 E1196.82697
G1 X13.836 Y13.235 E1197.92734
G1 X-13.835 Y13.235 E1199.07777
G1 X-13.835 Y-13.233 E1200.17818
G0 F6000 X-14.39 Y-13.788
G1 F2400 X14.391 Y-13.788 E1201.37471
G1 X14.391 Y13.79 E1202.52123
G1 X-14.39 Y13.79 E1203.71781
G1 X-14.39 Y-13.788 E1204.86437
G0 F6000 X-14.945 Y-14.343
G1 F2400 X14.946 Y-14.343 E1206.10705
G1 X14.946 Y14.345 E1207.29972
G1 X-14.945 Y14.345 E1208.54244
G1 X-14.945 Y-14.343 E1209.73515
G0 F6000 X-15.5 Y-14.898
G1 F2400 X15.501 Y-14.898 E1211.02398
G1 X15.501 Y14.9 E1212.26279
G1 X-15.5 Y14.9 E1213.55167
G1 X-15.5 Y-14.898 E1214.79052
G0 F6000 X-16.055 Y-15.453
G1 F2400 X16.056 Y-15.453 E1216.1255
G1 X16.056 Y15.455 E1217.41046
G1 X-16.055 Y15.455 E1218.74548
G1 X-16.055 Y-15.453 E1220.03049
G0 F6000 X-16.61 Y-16.008
G1 F2400 X16.611 Y-16.008 E1221.41162
G1 X16.611 Y16.01 E1222.74273
G1 X-16.61 Y16.01 E1224.1239
G1 X-16.61 Y-16.008 E1225.45505
G0 F6000 X-17.165 Y-16.563
G1 F2400 X17.166 Y-16.563 E1226.88233
G1 X17.166 Y16.565 E1228.25959
G1 X-17.165 Y16.565 E1229.68691
G1 X-17.165 Y-16.563 E1231.06421
G0 F6000 X-17.72 Y-17.118
G1 F2400 X17.721 Y-17.118 E1232.53763
G1 X17.721 Y17.12 E1233.96104
G1 X-17.72 Y17.12 E1235.43451
G1 X-17.72 Y-17.118 E1236.85796
G0 F6000 X-18.275 Y-17.673
G1 F2400 X18.276 Y-17.673 E1238.37753
G1 X18.276 Y17.675 E1239.84709
G1 X-18.275 Y17.675 E1241.3667
G1 X-18.275 Y-17.673 E1242.8363
G0 F6000 X-18.83 Y-18.228
G1 F2400 X18.831 Y-18.228 E1244.40202
G1 X18.831 Y18.23 E1245.91773
G1 X-18.83 Y18.23 E1247.48349
G1 X-18.83 Y-18.228 E1248.99924
G0 F6000 X-19.385 Y-18.783
G1 F2400 X19.386 Y-18.783 E1250.61111
G1 X19.386 Y18.785 E1252.17296
G1 X-19.385 Y18.785 E1253.78487
G1 X-19.385 Y-18.783 E1255.34677
G0 F6000 X-19.94 Y-19.338
G1 F2400 X19.941 Y-19.338 E1257.00478
G1 X19.941 Y19.34 E1258.61279
G1 X-19.94 Y19.34 E1260.27085
G1 X-19.94 Y-19.338 E1261.87889
G0 F6000 X-20.495 Y-19.893
G1 F2400 X20.496 Y-19.893 E1263.58306
G1 X20.496 Y19.895 E1265.23721
G1 X-20.495 Y19.895 E1266.94142
G1 X-20.495 Y-19.893 E1268.59561
G0 F6000 X-21.05 Y-20.448
G1 F2400 X21.051 Y-20.448 E1270.34592
G1 X21.051 Y20.45 E1272.04622
G1 X-21.05 Y20.45 E1273.79658
G1 X-21.05 Y-20.448 E1275.49692
G0 F6000 X-21.605 Y-21.003
G1 F2400 X21.606 Y-21.003 E1277.29338
G1 X21.606 Y21.005 E1279.03983
G1 X-21.605 Y21.005 E1280.83634
G1 X-21.605 Y-21.003 E1282.58283
G0 F6000 X-22.16 Y-21.558
G1 F2400 X22.161 Y-21.558 E1284.42544
G1 X22.161 Y21.56 E1286.21803
G1 X-22.16 Y21.56 E1288.06069
G1 X-22.16 Y-21.558 E1289.85333
G0 F6000 X-22.715 Y-22.113
G1 F2400 X22.716 Y-22.113 E1291.74209
G1 X22.716 Y22.115 E1293.58083
G1 X-22.715 Y22.115 E1295.46963
G1 X-22.715 Y-22.113 E1297.30842
G0 F6000 X-23.27 Y-22.668
G1 F2400 X23.271 Y-22.668 E1299.24333
G1 X23.271 Y22.67 E1301.12822
G1 X-23.27 Y22.67 E1303.06317
G1 X-23.27 Y-22.668 E1304.94811
G0 F6000 X-23.825 Y-23.223
G1 F2400 X23.826 Y-23.223 E1306.92916
G1 X23.826 Y23.225 E1308.8602
G1 X-23.825 Y23.225 E1310.8413
G1 X-23.825 Y-23.223 E1312.77239
G0 F6000 X-24.38 Y-23.778
G1 F2400 X24.381 Y-23.778 E1314.79959
G1 X24.381 Y23.78 E1316.77678
G1 X-24.38 Y23.78 E1318.80403
G1 X-24.38 Y-23.778 E1320.78126
G0 F6000 X-24.935 Y-24.333
G1 F2400 X24.936 Y-24.333 E1322.85461
G1 X24.936 Y24.335 E1324.87795
G1 X-24.935 Y24.335 E1326.95135
G1 X-24.935 Y-24.333 E1328.97473
G0 F6000 X-25.49 Y-24.888
G1 F2400 X25.491 Y-24.888 E1331.09423
G1 X25.491 Y24.89 E1333.16372
G1 X-25.49 Y24.89 E1335.28326
G1 X-25.49 Y-24.888 E1337.35279
G0 F6000 X-26.045 Y-25.443
G1 F2400 X26.046 Y-25.443 E1339.51844
G1 X26.046 Y25.445 E1341.63408
G1 X-26.045 Y25.445 E1343.79977
G1 X-26.045 Y-25.443 E1345.91544
G0 F6000 X-26.6 Y-25.998
G1 F2400 X26.601 Y-25.998 E1348.12724
G1 X26.601 Y26 E1350.28903
G1 X-26.6 Y26 E1352.50087
G1 X-26.6 Y-25.998 E1354.66269
G0 F6000 X-27.155 Y-26.553
G1 F2400 X27.156 Y-26.553 E1356.92064
G1 X27.156 Y26.555 E1359.12857
G1 X-27.155 Y26.555 E1361.38656
G1 X-27.155 Y-26.553 E1363.59454
G0 F6000 X-27.71 Y-27.108
G1 F2400 X27.711 Y-27.108 E1365.89863
G1 X27.711 Y27.11 E1368.15271
G1 X-27.71 Y27.11 E1370.45685
G1 X-27.71 Y-27.108 E1372.71097
G0 F6000 X-27.974 Y27.655
G0 X-27.974 Y27.655
G1 F2400 X-28.019 Y27.646 E1372.71292
G1 X-28.052 Y27.635 E1372.71441
G1 X-28.109 Y27.607 E1372.71709
G1 X-28.137 Y27.589 E1372.7185
G1 X-28.157 Y27.571 E1372.71965
G1 X-28.188 Y27.536 E1372.72163
G1 X-28.224 Y27.481 E1372.72438
G1 X-28.231 Y27.467 E1372.72505
G1 X-28.251 Y27.409 E1372.72762
G1 X-28.256 Y27.38 E1372.72885
G1 X-28.265 Y27.249 E1372.73431
G1 X-28.265 Y-27.25 E1375.00012
G1 X-28.256 Y-27.381 E1375.00561
G1 X-28.251 Y-27.408 E1375.00679
G1 X-28.232 Y-27.466 E1375.00935
G1 X-28.217 Y-27.496 E1375.01077
G1 X-28.207 Y-27.511 E1375.01153
G1 X-28.149 Y-27.576 E1375.01516
G1 X-28.082 Y-27.62 E1375.01848
G1 X-28.055 Y-27.633 E1375.01971
G1 X-28.021 Y-27.645 E1375.02118
G1 X-27.959 Y-27.656 E1375.02377
G1 X-27.849 Y-27.663 E1375.02831
G1 X27.847 Y-27.663 E1377.34384
G1 X27.98 Y-27.654 E1377.34938
G1 X28.017 Y-27.647 E1377.35094
G1 X28.059 Y-27.633 E1377.35276
G1 X28.079 Y-27.622 E1377.35369
G1 X28.15 Y-27.574 E1377.35723
G1 X28.162 Y-27.563 E1377.35788
G1 X28.197 Y-27.524 E1377.36003
G1 X28.22 Y-27.489 E1377.36174
G1 X28.228 Y-27.474 E1377.36241
G1 X28.247 Y-27.416 E1377.36491
G1 X28.256 Y-27.37 E1377.36681
G1 X28.266 Y-27.235 E1377.3724
G1 X28.266 Y27.246 E1379.63742
G1 X28.257 Y27.379 E1379.64296
G1 X28.252 Y27.405 E1379.64406
G1 X28.231 Y27.468 E1379.64682
G1 X28.224 Y27.483 E1379.64751
G1 X28.192 Y27.531 E1379.64991
G1 X28.169 Y27.558 E1379.65138
G1 X28.123 Y27.598 E1379.65392
G1 X28.11 Y27.606 E1379.65455
G1 X28.05 Y27.635 E1379.65732
G1 X28.018 Y27.645 E1379.65871
G1 X27.954 Y27.657 E1379.66142
G1 X27.839 Y27.665 E1379.66621
G1 X-27.835 Y27.665 E1381.98087
G1 X-27.974 Y27.655 E1381.98671
G0 F6000 X-28.041 Y28.207
G1 F2400 X-28.162 Y28.184 E1381.99187
G1 X-28.263 Y28.149 E1381.99635
G1 X-28.39 Y28.088 E1382.00225
G1 X-28.47 Y28.035 E1382.00627
G1 X-28.553 Y27.961 E1382.01092
G1 X-28.631 Y27.872 E1382.01587
G1 X-28.707 Y27.758 E1382.02159
G1 X-28.745 Y27.681 E1382.02518
G1 X-28.788 Y27.551 E1382.03089
G1 X-28.808 Y27.452 E1382.03509
G1 X-28.82 Y27.271 E1382.04264
G1 X-28.82 Y-27.272 E1384.31027
G1 X-28.808 Y-27.453 E1384.31785
G1 X-28.789 Y-27.547 E1384.32187
G1 X-28.747 Y-27.675 E1384.3275
G1 X-28.696 Y-27.778 E1384.3323
G1 X-28.642 Y-27.857 E1384.33629
G1 X-28.542 Y-27.97 E1384.34256
G1 X-28.481 Y-28.022 E1384.34589
G1 X-28.36 Y-28.102 E1384.35191
G1 X-28.263 Y-28.149 E1384.35637
G1 X-28.156 Y-28.184 E1384.36103
G1 X-28.022 Y-28.208 E1384.36665
G1 X-27.87 Y-28.218 E1384.37295
G1 X27.87 Y-28.218 E1386.69031
G1 X28.047 Y-28.206 E1386.69768
G1 X28.162 Y-28.184 E1386.70254
G1 X28.268 Y-28.148 E1386.70718
G1 X28.362 Y-28.101 E1386.71153
G1 X28.491 Y-28.013 E1386.718
G1 X28.557 Y-27.955 E1386.72163
G1 X28.638 Y-27.864 E1386.72666
G1 X28.7 Y-27.769 E1386.73134
G1 X28.743 Y-27.683 E1386.7353
G1 X28.785 Y-27.559 E1386.74071
G1 X28.808 Y-27.44 E1386.74571
G1 X28.821 Y-27.261 E1386.75313
G1 X28.821 Y27.268 E1389.02014
G1 X28.809 Y27.449 E1389.02768
G1 X28.788 Y27.555 E1389.03217
G1 X28.748 Y27.675 E1389.03743
G1 X28.701 Y27.768 E1389.04176
G1 X28.635 Y27.867 E1389.04671
G1 X28.563 Y27.95 E1389.05128
G1 X28.461 Y28.039 E1389.0569
G1 X28.385 Y28.09 E1389.06071
G1 X28.259 Y28.15 E1389.06651
G1 X28.152 Y28.185 E1389.07119
G1 X28.021 Y28.209 E1389.07673
G1 X27.864 Y28.22 E1389.08327
G1 X-27.861 Y28.22 E1391.40005
G1 X-28.041 Y28.207 E1391.40759
G0 F6000 X-28.114 Y28.759
G1 F2400 X-28.303 Y28.722 E1391.41564
G1 X-28.478 Y28.662 E1391.42337
G1 X-28.662 Y28.573 E1391.43191
G1 X-28.807 Y28.477 E1391.43917
G1 X-28.948 Y28.352 E1391.44704
G1 X-29.076 Y28.206 E1391.45514
G1 X-29.184 Y28.043 E1391.46329
G1 X-29.262 Y27.887 E1391.47056
G1 X-29.324 Y27.701 E1391.47872
G1 X-29.36 Y27.52 E1391.4864
G1 X-29.375 Y27.292 E1391.49591
G1 X-29.375 Y-27.293 E1393.76529
G1 X-29.36 Y-27.521 E1393.77483
G1 X-29.325 Y-27.697 E1393.78232
G1 X-29.262 Y-27.886 E1393.79063
G1 X-29.18 Y-28.052 E1393.79834
G1 X-29.079 Y-28.202 E1393.80587
G1 X-28.934 Y-28.365 E1393.81495
G1 X-28.816 Y-28.467 E1393.82143
G1 X-28.638 Y-28.584 E1393.83027
G1 X-28.465 Y-28.667 E1393.83823
G1 X-28.296 Y-28.722 E1393.84559
G1 X-28.085 Y-28.76 E1393.85447
G1 X-27.892 Y-28.773 E1393.86248
G1 X27.892 Y-28.773 E1396.18166
G1 X28.115 Y-28.758 E1396.19095
G1 X28.309 Y-28.721 E1396.19916
G1 X28.483 Y-28.661 E1396.2068
G1 X28.639 Y-28.584 E1396.21401
G1 X28.832 Y-28.452 E1396.22371
G1 X28.949 Y-28.35 E1396.23013
G1 X29.08 Y-28.201 E1396.23835
G1 X29.182 Y-28.047 E1396.246
G1 X29.258 Y-27.894 E1396.25306
G1 X29.323 Y-27.702 E1396.26145
G1 X29.36 Y-27.512 E1396.26946
G1 X29.376 Y-27.286 E1396.27884
G1 X29.376 Y27.29 E1398.5478
G1 X29.361 Y27.517 E1398.55726
G1 X29.324 Y27.704 E1398.56518
G1 X29.263 Y27.884 E1398.57308
G1 X29.181 Y28.048 E1398.58071
G1 X29.076 Y28.206 E1398.5886
G1 X28.955 Y28.344 E1398.59623
G1 X28.798 Y28.481 E1398.60489
G1 X28.665 Y28.571 E1398.61157
G1 X28.465 Y28.666 E1398.62077
G1 X28.285 Y28.725 E1398.62865
G1 X28.09 Y28.761 E1398.63689
G1 X27.887 Y28.775 E1398.64535
G1 X-27.886 Y28.775 E1400.96412
G1 X-28.114 Y28.759 E1400.97367
; LAYER:4
G0 F6000 X-28.221 Y29.559 Z1.1
; TYPE:WALL-INNER
G1 F2400 X-28.511 Y29.502 E1400.98599
G1 X-28.794 Y29.405 E1400.99847
G1 X-29.056 Y29.277 E1401.01063
G1 X-29.298 Y29.116 E1401.02275
G1 X-29.52 Y28.92 E1401.03509
G1 X-29.718 Y28.694 E1401.04761
G1 X-29.879 Y28.453 E1401.05969
G1 X-30.007 Y28.195 E1401.07168
G1 X-30.103 Y27.908 E1401.08427
G1 X-30.16 Y27.623 E1401.09637
G1 X-30.18 Y27.313 E1401.10928
G1 X-30.18 Y-27.314 E1403.38041
G1 X-30.16 Y-27.624 E1403.39336
G1 X-30.103 Y-27.909 E1403.40548
G1 X-30.008 Y-28.192 E1403.41792
G1 X-29.878 Y-28.457 E1403.43021
G1 X-29.72 Y-28.693 E1403.44203
G1 X-29.495 Y-28.943 E1403.45601
G1 X-29.299 Y-29.114 E1403.46682
G1 X-29.03 Y-29.288 E1403.48013
G1 X-28.757 Y-29.418 E1403.49268
G1 X-28.481 Y-29.507 E1403.50471
G1 X-28.183 Y-29.561 E1403.51727
G1 X-27.916 Y-29.578 E1403.52836
G1 X27.914 Y-29.578 E1405.84946
G1 X28.22 Y-29.558 E1405.8622
G1 X28.516 Y-29.5 E1405.87473
G1 X28.793 Y-29.406 E1405.88688
G1 X29.047 Y-29.281 E1405.89863
G1 X29.331 Y-29.085 E1405.91296
G1 X29.518 Y-28.922 E1405.92324
G1 X29.717 Y-28.696 E1405.93573
G1 X29.88 Y-28.451 E1405.94793
G1 X30.008 Y-28.191 E1405.95994
G1 X30.102 Y-27.915 E1405.97202
G1 X30.16 Y-27.619 E1405.98452
G1 X30.181 Y-27.309 E1405.9974
G1 X30.181 Y27.311 E1408.26819
G1 X30.161 Y27.62 E1408.28107
G1 X30.102 Y27.917 E1408.29366
G1 X30.009 Y28.19 E1408.30565
G1 X29.878 Y28.454 E1408.3179
G1 X29.716 Y28.697 E1408.33004
G1 X29.521 Y28.919 E1408.34233
G1 X29.296 Y29.117 E1408.35479
G1 X29.061 Y29.275 E1408.36656
G1 X28.765 Y29.415 E1408.38017
G1 X28.477 Y29.508 E1408.39276
G1 X28.182 Y29.562 E1408.40523
G1 X27.912 Y29.58 E1408.41648
G1 X-27.911 Y29.58 E1410.73733
G1 X-28.221 Y29.559 E1410.75029
G0 F6000 X-28.29 Y30.056
; TYPE:WALL-OUTER
G1 F2100 X-28.637 Y29.987 E1410.76504
G1 X-28.99 Y29.867 E1410.78058
G1 X-29.302 Y29.713 E1410.79508
G1 X-29.606 Y29.511 E1410.81029
G1 X-29.876 Y29.274 E1410.82526
G1 X-30.112 Y29.004 E1410.84019
G1 X-30.313 Y28.703 E1410.85526
G1 X-30.471 Y28.383 E1410.87012
G1 X-30.587 Y28.039 E1410.88522
G1 X-30.657 Y27.686 E1410.90019
G1 X-30.68 Y27.33 E1410.91503
G1 X-30.68 Y-27.331 E1413.18757
G1 X-30.657 Y-27.687 E1413.20244
G1 X-30.587 Y-28.04 E1413.21743
G1 X-30.47 Y-28.387 E1413.23269
G1 X-30.315 Y-28.701 E1413.24726
G1 X-30.113 Y-29.003 E1413.26238
G1 X-29.844 Y-29.302 E1413.2791
G1 X-29.607 Y-29.51 E1413.29221
G1 X-29.268 Y-29.73 E1413.309
G1 X-28.945 Y-29.883 E1413.32384
G1 X-28.603 Y-29.993 E1413.33875
G1 X-28.244 Y-30.058 E1413.35388
G1 X-27.933 Y-30.078 E1413.3668
G1 X27.931 Y-30.078 E1415.68932
G1 X28.289 Y-30.055 E1415.70423
G1 X28.639 Y-29.986 E1415.71905
G1 X28.984 Y-29.869 E1415.73418
G1 X29.303 Y-29.712 E1415.74895
G1 X29.642 Y-29.478 E1415.76605
G1 X29.872 Y-29.277 E1415.77872
G1 X30.112 Y-29.004 E1415.7938
G1 X30.313 Y-28.703 E1415.80881
G1 X30.471 Y-28.382 E1415.82365
G1 X30.588 Y-28.038 E1415.83872
G1 X30.657 Y-27.688 E1415.85351
G1 X30.681 Y-27.329 E1415.86843
G1 X30.681 Y27.331 E1418.14088
G1 X30.657 Y27.688 E1418.15576
G1 X30.588 Y28.04 E1418.17067
G1 X30.471 Y28.384 E1418.18578
G1 X30.313 Y28.703 E1418.20058
G1 X30.112 Y29.005 E1418.21566
G1 X29.876 Y29.274 E1418.23054
G1 X29.605 Y29.511 E1418.24551
G1 X29.307 Y29.71 E1418.26041
G1 X28.945 Y29.883 E1418.27709
G1 X28.601 Y29.994 E1418.29211
G1 X28.243 Y30.059 E1418.30724
G1 X27.93 Y30.08 E1418.32028
G1 X-27.929 Y30.08 E1420.64263
G1 X-28.29 Y30.056 E1420.65771
G0 F6000 X-28.114 Y28.759
; TYPE:FILL
G1 F2400 X-28.303 Y28.722 E1420.66576
G1 X-28.478 Y28.662 E1420.67349
G1 X-28.662 Y28.573 E1420.68203
G1 X-28.807 Y28.477 E1420.68929
G1 X-28.948 Y28.352 E1420.69716
G1 X-29.076 Y28.206 E1420.70526
G1 X-29.184 Y28.043 E1420.71341
G1 X-29.262 Y27.887 E1420.72068
G1 X-29.324 Y27.701 E1420.72884
G1 X-29.36 Y27.52 E1420.73652
G1 X-29.375 Y27.292 E1420.74603
G1 X-29.375 Y-27.293 E1423.01541
G1 X-29.36 Y-27.521 E1423.02495
G1 X-29.325 Y-27.697 E1423.03244
G1 X-29.262 Y-27.886 E1423.04075
G1 X-29.18 Y-28.053 E1423.0485
G1 X-29.083 Y-28.197 E1423.05573
G1 X-28.922 Y-28.377 E1423.06578
G1 X-28.821 Y-28.464 E1423.07131
G1 X-28.631 Y-28.587 E1423.08071
G1 X-28.46 Y-28.668 E1423.08856
G1 X-28.285 Y-28.725 E1423.09618
G1 X-28.085 Y-28.761 E1423.1046
G1 X-27.895 Y-28.773 E1423.11248
G1 X27.892 Y-28.773 E1425.43179
G1 X28.115 Y-28.758 E1425.44108
G1 X28.309 Y-28.721 E1425.44928
G1 X28.486 Y-28.66 E1425.45705
G1 X28.634 Y-28.587 E1425.46389
G1 X28.837 Y-28.447 E1425.47412
G1 X28.946 Y-28.352 E1425.48011
G1 X29.083 Y-28.197 E1425.48868
G1 X29.182 Y-28.047 E1425.49611
G1 X29.258 Y-27.894 E1425.50318
G1 X29.323 Y-27.702 E1425.51157
G1 X29.36 Y-27.512 E1425.51957
G1 X29.376 Y-27.286 E1425.52895
G1 X29.376 Y27.29 E1427.79792
G1 X29.361 Y27.517 E1427.80738
G1 X29.324 Y27.704 E1427.8153
G1 X29.263 Y27.884 E1427.8232
G1 X29.181 Y28.048 E1427.83083
G1 X29.076 Y28.206 E1427.83871
G1 X28.951 Y28.349 E1427.84661
G1 X28.8 Y28.482 E1427.85497
G1 X28.669 Y28.569 E1427.86151
G1 X28.462 Y28.667 E1427.87103
G1 X28.282 Y28.725 E1427.8789
G1 X28.079 Y28.762 E1427.88748
G1 X27.888 Y28.775 E1427.89543
G1 X-27.886 Y28.775 E1430.21425
G1 X-28.114 Y28.759 E1430.22379
G0 F6000 X-28.041 Y28.207
G1 F2400 X-28.162 Y28.184 E1430.22895
G1 X-28.263 Y28.149 E1430.23344
G1 X-28.39 Y28.088 E1430.23933
G1 X-28.47 Y28.035 E1430.24336
G1 X-28.553 Y27.961 E1430.24801
G1 X-28.631 Y27.872 E1430.25296
G1 X-28.707 Y27.758 E1430.25868
G1 X-28.745 Y27.681 E1430.26227
G1 X-28.788 Y27.551 E1430.26797
G1 X-28.808 Y27.452 E1430.27218
G1 X-28.82 Y27.271 E1430.27972
G1 X-28.82 Y-27.272 E1432.54736
G1 X-28.808 Y-27.453 E1432.55494
G1 X-28.789 Y-27.547 E1432.55896
G1 X-28.745 Y-27.679 E1432.56477
G1 X-28.698 Y-27.776 E1432.56927
G1 X-28.646 Y-27.852 E1432.57311
G1 X-28.532 Y-27.98 E1432.58024
G1 X-28.488 Y-28.018 E1432.58265
G1 X-28.362 Y-28.1 E1432.58889
G1 X-28.252 Y-28.152 E1432.59393
G1 X-28.145 Y-28.187 E1432.59859
G1 X-28.021 Y-28.209 E1432.60379
G1 X-27.876 Y-28.218 E1432.60979
G1 X27.87 Y-28.218 E1434.9274
G1 X28.047 Y-28.206 E1434.93477
G1 X28.163 Y-28.184 E1434.93967
G1 X28.271 Y-28.147 E1434.9444
G1 X28.354 Y-28.106 E1434.94824
G1 X28.497 Y-28.007 E1434.95544
G1 X28.551 Y-27.96 E1434.95839
G1 X28.643 Y-27.856 E1434.96413
G1 X28.7 Y-27.77 E1434.96839
G1 X28.743 Y-27.683 E1434.97239
G1 X28.785 Y-27.559 E1434.97779
G1 X28.808 Y-27.44 E1434.98279
G1 X28.821 Y-27.261 E1434.99021
G1 X28.821 Y27.268 E1437.25722
G1 X28.809 Y27.449 E1437.26476
G1 X28.788 Y27.555 E1437.26925
G1 X28.748 Y27.675 E1437.27451
G1 X28.701 Y27.768 E1437.27884
G1 X28.635 Y27.867 E1437.28379
G1 X28.556 Y27.958 E1437.2888
G1 X28.461 Y28.041 E1437.29405
G1 X28.398 Y28.083 E1437.29719
G1 X28.254 Y28.151 E1437.30381
G1 X28.149 Y28.185 E1437.3084
G1 X28.012 Y28.21 E1437.31419
G1 X27.865 Y28.22 E1437.32032
G1 X-27.861 Y28.22 E1439.63714
G1 X-28.041 Y28.207 E1439.64468
G0 F6000 X-27.974 Y27.655
G1 F2400 X-28.019 Y27.646 E1439.64663
G1 X-28.052 Y27.635 E1439.64812
G1 X-28.109 Y27.607 E1439.65079
G1 X-28.136 Y27.59 E1439.65215
G1 X-28.157 Y27.571 E1439.65336
G1 X-28.188 Y27.536 E1439.65533
G1 X-28.224 Y27.481 E1439.65809
G1 X-28.231 Y27.467 E1439.65876
G1 X-28.251 Y27.409 E1439.66133
G1 X-28.256 Y27.38 E1439.66256
G1 X-28.265 Y27.249 E1439.66802
G1 X-28.265 Y-27.25 E1441.93382
G1 X-28.256 Y-27.381 E1441.93932
G1 X-28.252 Y-27.4 E1441.94016
G1 X-28.227 Y-27.477 E1441.94356
G1 X-28.217 Y-27.496 E1441.94447
G1 X-28.207 Y-27.511 E1441.94523
G1 X-28.149 Y-27.577 E1441.94889
G1 X-28.092 Y-27.614 E1441.9517
G1 X-28.043 Y-27.637 E1441.95393
G1 X-28.009 Y-27.648 E1441.95539
G1 X-27.959 Y-27.657 E1441.95747
G1 X-27.858 Y-27.663 E1441.96164
G1 X27.847 Y-27.663 E1444.27754
G1 X27.982 Y-27.654 E1444.28317
G1 X28.018 Y-27.647 E1444.28468
G1 X28.054 Y-27.635 E1444.28625
G1 X28.074 Y-27.625 E1444.28716
G1 X28.154 Y-27.57 E1444.29117
G1 X28.157 Y-27.567 E1444.29132
G1 X28.201 Y-27.518 E1444.29403
G1 X28.218 Y-27.492 E1444.29529
G1 X28.229 Y-27.469 E1444.29631
G1 X28.247 Y-27.416 E1444.2986
G1 X28.256 Y-27.371 E1444.30046
G1 X28.266 Y-27.235 E1444.30609
G1 X28.266 Y27.246 E1446.57111
G1 X28.257 Y27.379 E1446.57665
G1 X28.252 Y27.405 E1446.57775
G1 X28.231 Y27.468 E1446.58051
G1 X28.224 Y27.483 E1446.5812
G1 X28.192 Y27.531 E1446.5836
G1 X28.162 Y27.566 E1446.58551
G1 X28.125 Y27.598 E1446.58755
G1 X28.123 Y27.599 E1446.58764
G1 X28.048 Y27.634 E1446.59108
G1 X28.014 Y27.645 E1446.59257
G1 X27.945 Y27.658 E1446.59549
G1 X27.842 Y27.665 E1446.59978
G1 X-27.835 Y27.665 E1448.91456
G1 X-27.974 Y27.655 E1448.92039
G0 F6000 X-1.07 Y-0.468
G0 X-1.07 Y-0.468
G1 F2400 X1.071 Y-0.468 E1449.00937
G1 X1.071 Y0.47 E1449.04832
G1 X-1.07 Y0.47 E1449.13733
G1 X-1.07 Y-0.468 E1449.17633
G0 F6000 X-1.625 Y-1.023
G1 F2400 X1.626 Y-1.023 E1449.31145
G1 X1.626 Y1.025 E1449.39656
G1 X-1.625 Y1.025 E1449.53172
G1 X-1.625 Y-1.023 E1449.61686
G0 F6000 X-2.18 Y-1.578
G1 F2400 X2.181 Y-1.578 E1449.79813
G1 X2.181 Y1.58 E1449.92938
G1 X-2.18 Y1.58 E1450.11069
G1 X-2.18 Y-1.578 E1450.24199
G0 F6000 X-2.735 Y-2.133
G1 F2400 X2.736 Y-2.133 E1450.4694
G1 X2.736 Y2.135 E1450.6468
G1 X-2.735 Y2.135 E1450.87426
G1 X-2.735 Y-2.133 E1451.0517
G0 F6000 X-3.29 Y-2.688
G1 F2400 X3.291 Y-2.688 E1451.32527
G1 X3.291 Y2.69 E1451.54882
G1 X-3.29 Y2.69 E1451.82242
G1 X-3.29 Y-2.688 E1452.04602
G0 F6000 X-3.845 Y-3.243
G1 F2400 X3.846 Y-3.243 E1452.36573
G1 X3.846 Y3.245 E1452.63543
G1 X-3.845 Y3.245 E1452.95518
G1 X-3.845 Y-3.243 E1453.22492
G0 F6000 X-4.4 Y-3.798
G1 F2400 X4.401 Y-3.798 E1453.59078
G1 X4.401 Y3.8 E1453.90663
G1 X-4.4 Y3.8 E1454.27253
G1 X-4.4 Y-3.798 E1454.58842
G0 F6000 X-4.955 Y-4.353
G1 F2400 X4.956 Y-4.353 E1455.00043
G1 X4.956 Y4.355 E1455.36243
G1 X-4.955 Y4.355 E1455.77448
G1 X-4.955 Y-4.353 E1456.13651
G0 F6000 X-5.51 Y-4.908
G1 F2400 X5.511 Y-4.908 E1456.59467
G1 X5.511 Y4.91 E1457.00282
G1 X-5.51 Y4.91 E1457.46102
G1 X-5.51 Y-4.908 E1457.8692
G0 F6000 X-6.065 Y-5.463
G1 F2400 X6.066 Y-5.463 E1458.37351
G1 X6.066 Y5.465 E1458.8278
G1 X-6.065 Y5.465 E1459.33215
G1 X-6.065 Y-5.463 E1459.78648
G0 F6000 X-6.62 Y-6.018
G1 F2400 X6.621 Y-6.018 E1460.33694
G1 X6.621 Y6.02 E1460.83738
G1 X-6.62 Y6.02 E1461.38787
G1 X-6.62 Y-6.018 E1461.88836
G0 F6000 X-7.175 Y-6.573
G1 F2400 X7.176 Y-6.573 E1462.48496
G1 X7.176 Y6.575 E1463.03155
G1 X-7.175 Y6.575 E1463.62819
G1 X-7.175 Y-6.573 E1464.17482
G0 F6000 X-7.73 Y-7.128
G1 F2400 X7.731 Y-7.128 E1464.81758
G1 X7.731 Y7.13 E1465.41031
G1 X-7.73 Y7.13 E1466.05311
G1 X-7.73 Y-7.128 E1466.64588
G0 F6000 X-8.285 Y-7.683
G1 F2400 X8.286 Y-7.683 E1467.33479
G1 X8.286 Y7.685 E1467.97367
G1 X-8.285 Y7.685 E1468.66261
G1 X-8.285 Y-7.683 E1469.30154
G0 F6000 X-8.84 Y-8.238
G1 F2400 X8.841 Y-8.238 E1470.03659
G1 X8.841 Y8.24 E1470.72162
G1 X-8.84 Y8.24 E1471.45671
G1 X-8.84 Y-8.238 E1472.14179
G0 F6000 X-9.395 Y-8.793
G1 F2400 X9.396 Y-8.793 E1472.92299
G1 X9.396 Y8.795 E1473.65417
G1 X-9.395 Y8.795 E1474.43541
G1 X-9.395 Y-8.793 E1475.16663
G0 F6000 X-9.95 Y-9.348
G1 F2400 X9.951 Y-9.348 E1475.99398
G1 X9.951 Y9.35 E1476.77131
G1 X-9.95 Y9.35 E1477.5987
G1 X-9.95 Y-9.348 E1478.37607
G0 F6000 X-10.505 Y-9.903
G1 F2400 X10.506 Y-9.903 E1479.24956
G1 X10.506 Y9.905 E1480.07304
G1 X-10.505 Y9.905 E1480.94658
G1 X-10.505 Y-9.903 E1481.7701
G0 F6000 X-11.06 Y-10.458
G1 F2400 X11.061 Y-10.458 E1482.68974
G1 X11.061 Y10.46 E1483.55937
G1 X-11.06 Y10.46 E1484.47905
G1 X-11.06 Y-10.458 E1485.34872
G0 F6000 X-11.615 Y-11.013
G1 F2400 X11.616 Y-11.013 E1486.31452
G1 X11.616 Y11.015 E1487.23029
G1 X-11.615 Y11.015 E1488.19612
G1 X-11.615 Y-11.013 E1489.11194
G0 F6000 X-12.17 Y-11.568
G1 F2400 X12.171 Y-11.568 E1490.12388
G1 X12.171 Y11.57 E1491.08581
G1 X-12.17 Y11.57 E1492.09779
G1 X-12.17 Y-11.568 E1493.05975
G0 F6000 X-12.725 Y-12.123
G1 F2400 X12.726 Y-12.123 E1494.11784
G1 X12.726 Y12.125 E1495.12591
G1 X-12.725 Y12.125 E1496.18404
G1 X-12.725 Y-12.123 E1497.19216
G0 F6000 X-13.28 Y-12.678
G1 F2400 X13.281 Y-12.678 E1498.2964
G1 X13.281 Y12.68 E1499.35062
G1 X-13.28 Y12.68 E1500.4549
G1 X-13.28 Y-12.678 E1501.50916
G0 F6000 X-13.835 Y-13.233
G1 F2400 X13.836 Y-13.233 E1502.65954
G1 X13.836 Y13.235 E1503.75991
G1 X-13.835 Y13.235 E1504.91034
G1 X-13.835 Y-13.233 E1506.01075
G0 F6000 X-14.39 Y-13.788
G1 F2400 X14.391 Y-13.788 E1507.20728
G1 X14.391 Y13.79 E1508.3538
G1 X-14.39 Y13.79 E1509.55038
G1 X-14.39 Y-13.788 E1510.69694
G0 F6000 X-14.945 Y-14.343
G1 F2400 X14.946 Y-14.343 E1511.93962
G1 X14.946 Y14.345 E1513.13229
G1 X-14.945 Y14.345 E1514.37501
G1 X-14.945 Y-14.343 E1515.56772
G0 F6000 X-15.5 Y-14.898
G1 F2400 X15.501 Y-14.898 E1516.85655
G1 X15.501 Y14.9 E1518.09536
G1 X-15.5 Y14.9 E1519.38424
G1 X-15.5 Y-14.898 E1520.62309
G0 F6000 X-16.055 Y-15.453
G1 F2400 X16.056 Y-15.453 E1521.95807
G1 X16.056 Y15.455 E1523.24304
G1 X-16.055 Y15.455 E1524.57806
G1 X-16.055 Y-15.453 E1525.86306
G0 F6000 X-16.61 Y-16.008
G1 F2400 X16.611 Y-16.008 E1527.24419
G1 X16.611 Y16.01 E1528.5753
G1 X-16.61 Y16.01 E1529.95647
G1 X-16.61 Y-16.008 E1531.28762
G0 F6000 X-17.165 Y-16.563
G1 F2400 X17.166 Y-16.563 E1532.7149
G1 X17.166 Y16.565 E1534.09216
G1 X-17.165 Y16.565 E1535.51948
G1 X-17.165 Y-16.563 E1536.89678
G0 F6000 X-17.72 Y-17.118
G1 F2400 X17.721 Y-17.118 E1538.3702
G1 X17.721 Y17.12 E1539.79361
G1 X-17.72 Y17.12 E1541.26708
G1 X-17.72 Y-17.118 E1542.69053
G0 F6000 X-18.275 Y-17.673
G1 F2400 X18.276 Y-17.673 E1544.2101
G1 X18.276 Y17.675 E1545.67966
G1 X-18.275 Y17.675 E1547.19927
G1 X-18.275 Y-17.673 E1548.66887
G0 F6000 X-18.83 Y-18.228
G1 F2400 X18.831 Y-18.228 E1550.23459
G1 X18.831 Y18.23 E1551.7503
G1 X-18.83 Y18.23 E1553.31606
G1 X-18.83 Y-18.228 E1554.83181
G0 F6000 X-19.385 Y-18.783
G1 F2400 X19.386 Y-18.783 E1556.44368
G1 X19.386 Y18.785 E1558.00553
G1 X-19.385 Y18.785 E1559.61744
G1 X-19.385 Y-18.783 E1561.17934
G0 F6000 X-19.94 Y-19.338
G1 F2400 X19.941 Y-19.338 E1562.83736
G1 X19.941 Y19.34 E1564.44536
G1 X-19.94 Y19.34 E1566.10342
G1 X-19.94 Y-19.338 E1567.71146
G0 F6000 X-20.495 Y-19.893
G1 F2400 X20.496 Y-19.893 E1569.41563
G1 X20.496 Y19.895 E1571.06978
G1 X-20.495 Y19.895 E1572.77399
G1 X-20.495 Y-19.893 E1574.42818
G0 F6000 X-21.05 Y-20.448
G1 F2400 X21.051 Y-20.448 E1576.17849
G1 X21.051 Y20.45 E1577.87879
G1 X-21.05 Y20.45 E1579.62915
G1 X-21.05 Y-20.448 E1581.32949
G0 F6000 X-21.605 Y-21.003
G1 F2400 X21.606 Y-21.003 E1583.12595
G1 X21.606 Y21.005 E1584.8724
G1 X-21.605 Y21.005 E1586.66891
G1 X-21.605 Y-21.003 E1588.4154
G0 F6000 X-22.16 Y-21.558
G1 F2400 X22.161 Y-21.558 E1590.25801
G1 X22.161 Y21.56 E1592.0506
G1 X-22.16 Y21.56 E1593.89326
G1 X-22.16 Y-21.558 E1595.6859
G0 F6000 X-22.715 Y-22.113
G1 F2400 X22.716 Y-22.113 E1597.57466
G1 X22.716 Y22.115 E1599.4134
G1 X-22.715 Y22.115 E1601.3022
G1 X-22.715 Y-22.113 E1603.14099
G0 F6000 X-23.27 Y-22.668
G1 F2400 X23.271 Y-22.668 E1605.0759
G1 X23.271 Y22.67 E1606.96079
G1 X-23.27 Y22.67 E1608.89574
G1 X-23.27 Y-22.668 E1610.78068
G0 F6000 X-23.825 Y-23.223
G1 F2400 X23.826 Y-23.223 E1612.76173
G1 X23.826 Y23.225 E1614.69277
G1 X-23.825 Y23.225 E1616.67387
G1 X-23.825 Y-23.223 E1618.60496
G0 F6000 X-24.38 Y-23.778
G1 F2400 X24.381 Y-23.778 E1620.63216
G1 X24.381 Y23.78 E1622.60935
G1 X-24.38 Y23.78 E1624.6366
G1 X-24.38 Y-23.778 E1626.61383
G0 F6000 X-24.935 Y-24.333
G1 F2400 X24.936 Y-24.333 E1628.68718
G1 X24.936 Y24.335 E1630.71052
G1 X-24.935 Y24.335 E1632.78392
G1 X-24.935 Y-24.333 E1634.8073
G0 F6000 X-25.49 Y-24.888
G1 F2400 X25.491 Y-24.888 E1636.9268
G1 X25.491 Y24.89 E1638.99629
G1 X-25.49 Y24.89 E1641.11583
G1 X-25.49 Y-24.888 E1643.18536
G0 F6000 X-26.045 Y-25.443
G1 F2400 X26.046 Y-25.443 E1645.35101
G1 X26.046 Y25.445 E1647.46665
G1 X-26.045 Y25.445 E1649.63234
G1 X-26.045 Y-25.443 E1651.74802
G0 F6000 X-26.6 Y-25.998
G1 F2400 X26.601 Y-25.998 E1653.95981
G1 X26.601 Y26 E1656.1216
G1 X-26.6 Y26 E1658.33344
G1 X-26.6 Y-25.998 E1660.49526
G0 F6000 X-27.155 Y-26.553
G1 F2400 X27.156 Y-26.553 E1662.75321
G1 X27.156 Y26.555 E1664.96114
G1 X-27.155 Y26.555 E1667.21913
G1 X-27.155 Y-26.553 E1669.42711
G0 F6000 X-27.71 Y-27.108
G1 F2400 X27.711 Y-27.108 E1671.7312
G1 X27.711 Y27.11 E1673.98528
G1 X-27.71 Y27.11 E1676.28942
G1 X-27.71 Y-27.108 E1678.54354
G0 F6000 X28.187 Y-29.31
G0 X28.187 Y-29.31
G1 F2400 X28.448 Y-29.259 E1678.55459
G1 X28.701 Y-29.173 E1678.56569
G1 X28.916 Y-29.067 E1678.57564
G1 X29.183 Y-28.883 E1678.58909
G1 X29.338 Y-28.748 E1678.59761
G1 X29.521 Y-28.54 E1678.6091
G1 X29.663 Y-28.326 E1678.61974
G1 X29.774 Y-28.102 E1678.6301
G1 X29.861 Y-27.845 E1678.64134
G1 X29.912 Y-27.586 E1678.65227
G1 X29.931 Y-27.309 E1678.66378
G1 X29.931 Y27.311 E1680.93457
G1 X29.913 Y27.585 E1680.94599
G1 X29.861 Y27.848 E1680.95713
G1 X29.776 Y28.097 E1680.96807
G1 X29.662 Y28.327 E1680.97874
G1 X29.517 Y28.545 E1680.98963
G1 X29.344 Y28.742 E1681.00053
G1 X29.138 Y28.923 E1681.01193
G1 X28.941 Y29.055 E1681.02179
G1 X28.673 Y29.182 E1681.03412
G1 X28.415 Y29.265 E1681.04539
G1 X28.147 Y29.314 E1681.05671
G1 X27.91 Y29.33 E1681.06659
G1 X-27.909 Y29.33 E1683.38727
G1 X-28.188 Y29.311 E1683.39894
G1 X-28.447 Y29.26 E1683.40996
G1 X-28.691 Y29.176 E1683.42072
G1 X-28.937 Y29.057 E1683.43212
G1 X-29.147 Y28.917 E1683.44265
G1 X-29.339 Y28.748 E1683.45332
G1 X-29.519 Y28.542 E1683.46472
G1 X-29.663 Y28.326 E1683.47553
G1 X-29.776 Y28.098 E1683.48613
G1 X-29.861 Y27.844 E1683.49728
G1 X-29.912 Y27.588 E1683.50814
G1 X-29.93 Y27.313 E1683.5196
G1 X-29.93 Y-27.314 E1685.79073
G1 X-29.912 Y-27.589 E1685.80222
G1 X-29.862 Y-27.842 E1685.81298
G1 X-29.775 Y-28.101 E1685.82436
G1 X-29.663 Y-28.328 E1685.83491
G1 X-29.521 Y-28.54 E1685.84553
G1 X-29.317 Y-28.768 E1685.85825
G1 X-29.152 Y-28.911 E1685.86732
G1 X-28.907 Y-29.07 E1685.87946
G1 X-28.665 Y-29.185 E1685.89057
G1 X-28.42 Y-29.264 E1685.90125
G1 X-28.148 Y-29.313 E1685.91271
G1 X-27.916 Y-29.328 E1685.92233
G1 X27.913 Y-29.328 E1688.24339
G1 X28.187 Y-29.31 E1688.25481
; LAYER:5
G0 F6000 X28.22 Y-29.558 Z1.3
; TYPE:WALL-INNER
G1 F2400 X28.516 Y-29.5 E1688.26734
G1 X28.793 Y-29.406 E1688.27949
G1 X29.045 Y-29.282 E1688.29115
G1 X29.335 Y-29.081 E1688.30579
G1 X29.521 Y-28.918 E1688.31605
G1 X29.717 Y-28.696 E1688.32833
G1 X29.88 Y-28.451 E1688.34053
G1 X30.008 Y-28.191 E1688.35254
G1 X30.102 Y-27.915 E1688.36462
G1 X30.16 Y-27.619 E1688.37712
G1 X30.181 Y-27.309 E1688.39
G1 X30.181 Y27.311 E1690.66079
G1 X30.161 Y27.62 E1690.67366
G1 X30.102 Y27.917 E1690.68625
G1 X30.009 Y28.19 E1690.69824
G1 X29.878 Y28.454 E1690.7105
G1 X29.716 Y28.697 E1690.72264
G1 X29.521 Y28.919 E1690.73492
G1 X29.296 Y29.117 E1690.74738
G1 X29.064 Y29.272 E1690.75898
G1 X28.75 Y29.421 E1690.77343
G1 X28.472 Y29.51 E1690.78557
G1 X28.177 Y29.563 E1690.79803
G1 X27.914 Y29.58 E1690.80899
G1 X-27.911 Y29.58 E1693.12992
G1 X-28.221 Y29.559 E1693.14288
G1 X-28.511 Y29.502 E1693.15521
G1 X-28.794 Y29.405 E1693.16769
G1 X-29.056 Y29.277 E1693.17985
G1 X-29.298 Y29.116 E1693.19197
G1 X-29.52 Y28.92 E1693.20431
G1 X-29.718 Y28.694 E1693.21683
G1 X-29.879 Y28.453 E1693.2289
G1 X-30.007 Y28.195 E1693.24089
G1 X-30.103 Y27.908 E1693.25349
G1 X-30.16 Y27.623 E1693.26558
G1 X-30.18 Y27.313 E1693.2785
G1 X-30.18 Y-27.314 E1695.54963
G1 X-30.16 Y-27.624 E1695.56258
G1 X-30.103 Y-27.909 E1695.5747
G1 X-30.008 Y-28.192 E1695.58713
G1 X-29.878 Y-28.457 E1695.59942
G1 X-29.722 Y-28.689 E1695.61106
G1 X-29.485 Y-28.951 E1695.62575
G1 X-29.303 Y-29.111 E1695.63582
G1 X-29.019 Y-29.294 E1695.64985
G1 X-28.755 Y-29.418 E1695.66196
G1 X-28.474 Y-29.508 E1695.6742
G1 X-28.172 Y-29.561 E1695.68692
G1 X-27.915 Y-29.578 E1695.69759
G1 X27.914 Y-29.578 E1698.01864
G1 X28.22 Y-29.558 E1698.03139
G0 F6000 X28.289 Y-30.055
; TYPE:WALL-OUTER
G1 F2100 X28.639 Y-29.986 E1698.04621
G1 X28.984 Y-29.869 E1698.06135
G1 X29.303 Y-29.712 E1698.07611
G1 X29.644 Y-29.475 E1698.09335
G1 X29.875 Y-29.274 E1698.10605
G1 X30.112 Y-29.004 E1698.12096
G1 X30.313 Y-28.703 E1698.13597
G1 X30.471 Y-28.382 E1698.15081
G1 X30.588 Y-28.038 E1698.16588
G1 X30.657 Y-27.688 E1698.18067
G1 X30.681 Y-27.329 E1698.19558
G1 X30.681 Y27.331 E1700.46804
G1 X30.657 Y27.688 E1700.48292
G1 X30.588 Y28.04 E1700.49783
G1 X30.471 Y28.384 E1700.51294
G1 X30.313 Y28.703 E1700.52774
G1 X30.112 Y29.005 E1700.54282
G1 X29.876 Y29.274 E1700.5577
G1 X29.605 Y29.511 E1700.57267
G1 X29.308 Y29.71 E1700.58753
G1 X28.935 Y29.887 E1700.60469
G1 X28.594 Y29.996 E1700.61958
G1 X28.235 Y30.06 E1700.63474
G1 X27.931 Y30.08 E1700.6474
G1 X-27.929 Y30.08 E1702.96979
G1 X-28.29 Y30.056 E1702.98488
G1 X-28.637 Y29.987 E1702.99963
G1 X-28.99 Y29.867 E1703.01517
G1 X-29.302 Y29.713 E1703.02967
G1 X-29.606 Y29.511 E1703.04488
G1 X-29.876 Y29.274 E1703.05985
G1 X-30.112 Y29.004 E1703.07478
G1 X-30.313 Y28.703 E1703.08985
G1 X-30.471 Y28.383 E1703.10471
G1 X-30.587 Y28.039 E1703.11982
G1 X-30.657 Y27.686 E1703.13479
G1 X-30.68 Y27.33 E1703.14962
G1 X-30.68 Y-27.331 E1705.42216
G1 X-30.657 Y-27.687 E1705.43703
G1 X-30.587 Y-28.04 E1705.45203
G1 X-30.47 Y-28.387 E1705.46728
G1 X-30.315 Y-28.701 E1705.48185
G1 X-30.113 Y-29.003 E1705.49697
G1 X-29.838 Y-29.307 E1705.51402
G1 X-29.607 Y-29.51 E1705.5268
G1 X-29.258 Y-29.735 E1705.54405
G1 X-28.938 Y-29.885 E1705.55872
G1 X-28.594 Y-29.995 E1705.57371
G1 X-28.237 Y-30.058 E1705.58875
G1 X-27.932 Y-30.078 E1705.60142
G1 X27.931 Y-30.078 E1707.92389
G1 X28.289 Y-30.055 E1707.9388
G0 F6000 X28.187 Y-29.31
; TYPE:FILL
G1 F2400 X28.448 Y-29.259 E1707.94985
G1 X28.701 Y-29.173 E1707.96095
G1 X28.919 Y-29.066 E1707.97103
G1 X29.176 Y-28.888 E1707.984
G1 X29.349 Y-28.737 E1707.99352
G1 X29.518 Y-28.545 E1708.00412
G1 X29.663 Y-28.326 E1708.01501
G1 X29.774 Y-28.102 E1708.02536
G1 X29.861 Y-27.845 E1708.0366
G1 X29.912 Y-27.586 E1708.04754
G1 X29.931 Y-27.309 E1708.05904
G1 X29.931 Y27.311 E1710.32983
G1 X29.913 Y27.585 E1710.34125
G1 X29.861 Y27.848 E1710.3524
G1 X29.776 Y28.097 E1710.36334
G1 X29.662 Y28.327 E1710.37401
G1 X29.517 Y28.545 E1710.38489
G1 X29.344 Y28.742 E1710.39579
G1 X29.143 Y28.918 E1710.4069
G1 X28.94 Y29.054 E1710.41706
G1 X28.656 Y29.189 E1710.43013
G1 X28.412 Y29.267 E1710.44078
G1 X28.143 Y29.315 E1710.45214
G1 X27.913 Y29.33 E1710.46173
G1 X-27.909 Y29.33 E1712.78253
G1 X-28.188 Y29.311 E1712.7942
G1 X-28.447 Y29.26 E1712.80522
G1 X-28.691 Y29.176 E1712.81599
G1 X-28.937 Y29.057 E1712.82738
G1 X-29.147 Y28.917 E1712.83791
G1 X-29.339 Y28.748 E1712.84858
G1 X-29.519 Y28.542 E1712.85998
G1 X-29.663 Y28.326 E1712.87079
G1 X-29.776 Y28.098 E1712.88139
G1 X-29.861 Y27.844 E1712.89254
G1 X-29.912 Y27.588 E1712.9034
G1 X-29.93 Y27.313 E1712.91486
G1 X-29.93 Y-27.314 E1715.18599
G1 X-29.912 Y-27.589 E1715.19749
G1 X-29.862 Y-27.842 E1715.20824
G1 X-29.775 Y-28.101 E1715.21963
G1 X-29.661 Y-28.333 E1715.23039
G1 X-29.527 Y-28.532 E1715.24038
G1 X-29.311 Y-28.771 E1715.25377
G1 X-29.149 Y-28.913 E1715.26273
G1 X-28.898 Y-29.075 E1715.27513
G1 X-28.665 Y-29.184 E1715.28581
G1 X-28.413 Y-29.265 E1715.29679
G1 X-28.141 Y-29.313 E1715.30824
G1 X-27.913 Y-29.328 E1715.3177
G1 X27.913 Y-29.328 E1717.63863
G1 X28.187 Y-29.31 E1717.65005
G0 F6000 X27.999 Y-29.128
G1 F2400 X28 Y29.129 E1720.07205
G0 F6000 X27.5 Y29.139
G1 F2400 X27.499 Y-29.138 E1722.49492
G0 F6000 X26.999 Y-29.138
G1 F2400 X27 Y29.139 E1724.91776
G0 F6000 X26.5 Y29.139
G1 F2400 X26.499 Y-29.138 E1727.34064
G0 F6000 X25.999 Y-29.138
G1 F2400 X26 Y29.139 E1729.76347
G0 F6000 X25.5 Y29.139
G1 F2400 X25.499 Y-29.138 E1732.18635
G0 F6000 X24.999 Y-29.138
G1 F2400 X25 Y29.139 E1734.60918
G0 F6000 X24.5 Y29.139
G1 F2400 X24.499 Y-22.503 E1736.75621
G0 F6000 X24.499 Y-22.839
G1 F2400 X24.499 Y-29.138 E1737.01813
G0 F6000 X23.999 Y-29.138
G1 F2400 X23.999 Y-23.648 E1737.24633
G0 F6000 X23.593 Y-23.9
G1 F2400 X23.898 Y-23.791 E1737.25979
G1 X24.169 Y-23.604 E1737.27345
G1 X24.38 Y-23.356 E1737.28696
G1 X24.521 Y-23.06 E1737.30055
G1 X24.58 Y-22.738 E1737.31412
G1 X24.553 Y-22.417 E1737.32747
G1 X24.443 Y-22.108 E1737.34107
G1 X24.255 Y-21.836 E1737.35478
G1 X24.023 Y-21.634 E1737.36754
G1 X23.73 Y-21.492 E1737.38106
G1 X23.39 Y-21.43 E1737.39542
G1 X23.069 Y-21.456 E1737.40882
G1 X22.758 Y-21.567 E1737.42256
G1 X22.501 Y-21.74 E1737.43546
G1 X22.287 Y-21.988 E1737.44911
G1 X22.143 Y-22.283 E1737.4628
G1 X22.081 Y-22.603 E1737.47639
G1 X22.104 Y-22.929 E1737.49002
G1 X22.209 Y-23.232 E1737.50339
G1 X22.404 Y-23.515 E1737.51771
G1 X22.657 Y-23.73 E1737.53154
G1 X22.946 Y-23.867 E1737.54486
G1 X23.271 Y-23.927 E1737.55861
G1 X23.593 Y-23.9 E1737.57204
G0 F6000 X23.499 Y-23.846
G1 F2400 X23.499 Y-29.138 E1737.79209
G0 F6000 X22.999 Y-29.138
G1 F2400 X22.999 Y-23.815 E1738.01336
G0 F6000 X22.499 Y-23.517
G1 F2400 X22.499 Y-29.138 E1738.24709
G0 F6000 X21.999 Y-29.138
G1 F2400 X22 Y22 E1740.37312
G0 F6000 X22.5 Y21.863
G1 F2400 X22.499 Y-21.832 E1742.18975
G0 F6000 X22.999 Y-21.544
G1 F2400 X23 Y21.939 E1743.99752
G0 F6000 X22.958 Y21.853
G1 F2400 X23.255 Y21.995 E1744.01121
G1 X23.49 Y22.192 E1744.02396
G1 X23.68 Y22.462 E1744.03768
G1 X23.792 Y22.767 E1744.05119
G1 X23.82 Y23.093 E1744.06479
G1 X23.764 Y23.417 E1744.07846
G1 X23.628 Y23.709 E1744.09186
G1 X23.407 Y23.968 E1744.10601
G1 X23.136 Y24.154 E1744.11968
G1 X22.829 Y24.263 E1744.13322
G1 X22.501 Y24.288 E1744.1469
G1 X22.179 Y24.228 E1744.16052
G1 X21.896 Y24.097 E1744.17348
G1 X21.648 Y23.89 E1744.18691
G1 X21.46 Y23.622 E1744.20052
G1 X21.347 Y23.311 E1744.21428
G1 X21.318 Y22.989 E1744.22772
G1 X21.375 Y22.664 E1744.24144
G1 X21.51 Y22.375 E1744.2547
G1 X21.735 Y22.111 E1744.26912
G1 X22.003 Y21.927 E1744.28264
G1 X22.309 Y21.818 E1744.29614
G1 X22.634 Y21.794 E1744.30969
G1 X22.958 Y21.853 E1744.32338
G0 F6000 X22.785 Y22.386
G1 F2400 X22.952 Y22.466 E1744.33108
G1 X23.078 Y22.571 E1744.3379
G1 X23.184 Y22.722 E1744.34557
G1 X23.245 Y22.888 E1744.35292
G1 X23.261 Y23.068 E1744.36044
G1 X23.229 Y23.251 E1744.36816
G1 X23.157 Y23.406 E1744.37526
G1 X23.034 Y23.55 E1744.38314
G1 X22.881 Y23.655 E1744.39085
G1 X22.711 Y23.716 E1744.39836
G1 X22.535 Y23.729 E1744.4057
G1 X22.348 Y23.695 E1744.4136
G1 X22.195 Y23.624 E1744.42061
G1 X22.059 Y23.51 E1744.42799
G1 X21.958 Y23.365 E1744.43534
G1 X21.893 Y23.188 E1744.44318
G1 X21.878 Y23.013 E1744.45048
G1 X21.909 Y22.832 E1744.45811
G1 X21.982 Y22.676 E1744.46528
G1 X22.108 Y22.528 E1744.47336
G1 X22.258 Y22.425 E1744.48092
G1 X22.427 Y22.365 E1744.48838
G1 X22.603 Y22.352 E1744.49571
G1 X22.785 Y22.386 E1744.50341
G0 F6000 X22.611 Y22.919
G1 F2400 X22.653 Y22.939 E1744.50535
G1 X22.665 Y22.949 E1744.506
G1 X22.688 Y22.981 E1744.50763
G1 X22.698 Y23.009 E1744.50887
G1 X22.701 Y23.044 E1744.51033
G1 X22.694 Y23.085 E1744.51206
G1 X22.686 Y23.104 E1744.51292
G1 X22.661 Y23.132 E1744.51448
G1 X22.623 Y23.158 E1744.51639
G1 X22.595 Y23.169 E1744.51764
G1 X22.566 Y23.171 E1744.51885
G1 X22.517 Y23.162 E1744.52092
G1 X22.496 Y23.152 E1744.52189
G1 X22.471 Y23.131 E1744.52325
G1 X22.454 Y23.107 E1744.52447
G1 X22.44 Y23.067 E1744.52623
G1 X22.437 Y23.036 E1744.52753
G1 X22.443 Y23 E1744.52904
G1 X22.453 Y22.98 E1744.52997
G1 X22.484 Y22.944 E1744.53195
G1 X22.513 Y22.923 E1744.53344
G1 X22.544 Y22.912 E1744.5348
G1 X22.568 Y22.911 E1744.5358
G1 X22.611 Y22.919 E1744.53762
G0 F6000 X23.5 Y22.311
G1 F2400 X23.499 Y-21.51 E1746.35949
G0 F6000 X23.999 Y-21.692
G1 F2400 X24 Y29.139 E1748.47275
G0 F6000 X23.5 Y29.139
G1 F2400 X23.5 Y23.764 E1748.69622
G0 F6000 X23 Y24.137
G1 F2400 X23 Y29.139 E1748.90418
G0 F6000 X22.5 Y29.139
G1 F2400 X22.5 Y24.225 E1749.10848
G0 F6000 X22 Y24.079
G1 F2400 X22 Y29.139 E1749.31885
G0 F6000 X21.5 Y29.139
G1 F2400 X21.5 Y23.56 E1749.5508
G0 F6000 X21.5 Y22.534
G1 F2400 X21.499 Y-29.138 E1751.69907
G0 F6000 X20.999 Y-29.138
G1 F2400 X21 Y29.139 E1754.1219
G0 F6000 X20.5 Y29.139
G1 F2400 X20.499 Y-29.138 E1756.54478
G0 F6000 X19.999 Y-29.138
G1 F2400 X20 Y29.139 E1758.96761
G0 F6000 X19.5 Y29.139
G1 F2400 X19.499 Y-29.138 E1761.39049
G0 F6000 X18.999 Y-29.138
G1 F2400 X19 Y29.139 E1763.81332
G0 F6000 X18.5 Y29.139
G1 F2400 X18.499 Y-29.138 E1766.2362
G0 F6000 X17.999 Y-29.138
G1 F2400 X18 Y29.139 E1768.65904
G0 F6000 X17.5 Y29.139
G1 F2400 X17.499 Y-29.138 E1771.08191
G0 F6000 X16.999 Y-29.138
G1 F2400 X17 Y29.139 E1773.50475
G0 F6000 X16.5 Y29.139
G1 F2400 X16.499 Y-29.138 E1775.92762
G0 F6000 X15.999 Y-29.138
G1 F2400 X16 Y29.139 E1778.35046
G0 F6000 X15.5 Y29.139
G1 F2400 X15.499 Y-29.138 E1780.77333
G0 F6000 X14.999 Y-29.138
G1 F2400 X15 Y29.139 E1783.19617
G0 F6000 X14.5 Y29.14
G1 F2400 X14.499 Y-29.138 E1785.61908
G0 F6000 X13.999 Y-29.138
G1 F2400 X14 Y29.14 E1788.04196
G0 F6000 X13.5 Y29.14
G1 F2400 X13.499 Y-29.138 E1790.46488
G0 F6000 X12.999 Y-29.138
G1 F2400 X13 Y29.14 E1792.88775
G0 F6000 X12.5 Y29.14
G1 F2400 X12.499 Y-29.138 E1795.31067
G0 F6000 X11.999 Y-29.138
G1 F2400 X12 Y29.14 E1797.73355
G0 F6000 X11.5 Y29.14
G1 F2400 X11.499 Y-22.366 E1799.87492
G0 F6000 X10.999 Y-21.872
G1 F2400 X11 Y29.14 E1801.99571
G0 F6000 X10.5 Y29.14
G1 F2400 X10.499 Y-21.745 E1804.11126
G0 F6000 X9.999 Y-21.838
G1 F2400 X10 Y29.14 E1806.23064
G0 F6000 X9.5 Y29.14
G1 F2400 X9.499 Y-22.239 E1808.36673
G0 F6000 X10.481 Y-23.058
G1 F2400 X10.534 Y-23.033 E1808.36915
G1 X10.552 Y-23.02 E1808.37005
G1 X10.572 Y-22.993 E1808.37141
G1 X10.585 Y-22.957 E1808.37296
G1 X10.589 Y-22.928 E1808.37414
G1 X10.583 Y-22.89 E1808.3757
G1 X10.57 Y-22.859 E1808.37706
G1 X10.556 Y-22.842 E1808.37794
G1 X10.508 Y-22.808 E1808.38036
G1 X10.49 Y-22.8 E1808.38117
G1 X10.453 Y-22.796 E1808.38271
G1 X10.419 Y-22.801 E1808.38415
G1 X10.396 Y-22.811 E1808.38521
G1 X10.359 Y-22.841 E1808.38721
G1 X10.341 Y-22.866 E1808.38853
G1 X10.33 Y-22.897 E1808.38993
G1 X10.326 Y-22.932 E1808.39144
G1 X10.332 Y-22.967 E1808.39296
G1 X10.344 Y-22.993 E1808.39419
G1 X10.376 Y-23.033 E1808.39635
G1 X10.386 Y-23.04 E1808.39688
G1 X10.426 Y-23.055 E1808.39867
G1 X10.469 Y-23.059 E1808.40047
G1 X10.481 Y-23.058 E1808.40097
G0 F6000 X10.64 Y-23.595
G1 F2400 X10.827 Y-23.51 E1808.40949
G1 X10.957 Y-23.406 E1808.41639
G1 X11.061 Y-23.264 E1808.42367
G1 X11.128 Y-23.094 E1808.43123
G1 X11.148 Y-22.917 E1808.4386
G1 X11.121 Y-22.733 E1808.44629
G1 X11.049 Y-22.57 E1808.45366
G1 X10.941 Y-22.435 E1808.46081
G1 X10.776 Y-22.317 E1808.46922
G1 X10.621 Y-22.256 E1808.47613
G1 X10.442 Y-22.236 E1808.48362
G1 X10.265 Y-22.263 E1808.49107
G1 X10.103 Y-22.334 E1808.49844
G1 X9.952 Y-22.457 E1808.50656
G1 X9.848 Y-22.602 E1808.51401
G1 X9.785 Y-22.769 E1808.52147
G1 X9.766 Y-22.949 E1808.52904
G1 X9.795 Y-23.126 E1808.53654
G1 X9.869 Y-23.289 E1808.54402
G1 X9.992 Y-23.439 E1808.55211
G1 X10.116 Y-23.531 E1808.55856
G1 X10.299 Y-23.6 E1808.5667
G1 X10.481 Y-23.618 E1808.57431
G1 X10.64 Y-23.595 E1808.58098
G0 F6000 X10.999 Y-23.975
G1 F2400 X10.999 Y-29.138 E1808.79568
G0 F6000 X10.499 Y-29.138
G1 F2400 X10.499 Y-24.117 E1809.00439
G0 F6000 X10.8 Y-24.132
G1 F2400 X11.118 Y-23.988 E1809.01888
G1 X11.361 Y-23.794 E1809.03178
G1 X11.552 Y-23.534 E1809.04516
G1 X11.672 Y-23.227 E1809.05883
G1 X11.708 Y-22.906 E1809.07222
G1 X11.659 Y-22.579 E1809.08592
G1 X11.528 Y-22.28 E1809.09946
G1 X11.327 Y-22.029 E1809.11279
G1 X11.041 Y-21.824 E1809.1274
G1 X10.756 Y-21.712 E1809.14011
G1 X10.431 Y-21.676 E1809.1537
G1 X10.109 Y-21.725 E1809.16725
G1 X9.811 Y-21.855 E1809.18078
G1 X9.547 Y-22.071 E1809.19499
G1 X9.354 Y-22.339 E1809.20876
G1 X9.24 Y-22.64 E1809.22218
G1 X9.207 Y-22.967 E1809.23588
G1 X9.259 Y-23.287 E1809.2494
G1 X9.393 Y-23.584 E1809.26299
G1 X9.606 Y-23.844 E1809.27699
G1 X9.848 Y-24.023 E1809.28953
G1 X10.169 Y-24.145 E1809.30382
G1 X10.496 Y-24.177 E1809.31749
G1 X10.8 Y-24.132 E1809.33026
G0 F6000 X9.999 Y-24.017
G1 F2400 X9.999 Y-29.138 E1809.54321
G0 F6000 X9.499 Y-29.138
G1 F2400 X9.499 Y-23.621 E1809.77254
G0 F6000 X11.499 Y-23.502
G1 F2400 X11.499 Y-29.138 E1810.00689
G0 F6000 X8.999 Y-29.138
G1 F2400 X9 Y29.14 E1812.42977
G0 F6000 X8.5 Y29.14
G1 F2400 X8.499 Y-29.138 E1814.85269
G0 F6000 X7.999 Y-29.138
G1 F2400 X8 Y29.14 E1817.27556
G0 F6000 X7.5 Y29.14
G1 F2400 X7.499 Y-29.138 E1819.69848
G0 F6000 X6.999 Y-29.138
G1 F2400 X7 Y29.14 E1822.12136
G0 F6000 X6.5 Y29.14
G1 F2400 X6.499 Y-29.138 E1824.54428
G0 F6000 X5.999 Y-29.138
G1 F2400 X6 Y29.14 E1826.96715
G0 F6000 X5.5 Y29.14
G1 F2400 X5.499 Y-29.138 E1829.39007
G0 F6000 X4.999 Y-29.138
G1 F2400 X5 Y29.14 E1831.81295
G0 F6000 X4.5 Y29.14
G1 F2400 X4.499 Y-29.138 E1834.23586
G0 F6000 X3.999 Y-29.138
G1 F2400 X4 Y29.14 E1836.65874
G0 F6000 X3.5 Y29.14
G1 F2400 X3.499 Y-29.138 E1839.08166
G0 F6000 X2.999 Y-29.138
G1 F2400 X3 Y29.14 E1841.50453
G0 F6000 X2.5 Y29.14
G1 F2400 X2.499 Y-29.138 E1843.92745
G0 F6000 X1.999 Y-29.138
G1 F2400 X2 Y29.14 E1846.35033
G0 F6000 X1.5 Y29.14
G1 F2400 X1.5 Y1.087 E1847.51664
G0 F6000 X1 Y1.571
G1 F2400 X1 Y29.14 E1848.66282
G0 F6000 X0.5 Y29.14
G1 F2400 X0.5 Y1.705 E1849.80344
G0 F6000 X0 Y1.607
G1 F2400 X0 Y29.14 E1850.94813
G0 F6000 X-0.499 Y29.139
G1 F2400 X-0.499 Y1.212 E1852.10919
G0 F6000 X0.498 Y0.397
G1 F2400 X0.528 Y0.409 E1852.11054
G1 X0.55 Y0.426 E1852.11169
G1 X0.571 Y0.453 E1852.11312
G1 X0.585 Y0.487 E1852.11464
G1 X0.59 Y0.52 E1852.11603
G1 X0.586 Y0.551 E1852.11733
G1 X0.574 Y0.58 E1852.11864
G1 X0.547 Y0.614 E1852.12044
G1 X0.521 Y0.634 E1852.12181
G1 X0.48 Y0.65 E1852.12364
G1 X0.455 Y0.654 E1852.12469
G1 X0.435 Y0.651 E1852.12553
G1 X0.379 Y0.627 E1852.12806
G1 X0.363 Y0.615 E1852.12889
G1 X0.344 Y0.589 E1852.13023
G1 X0.329 Y0.555 E1852.13178
G1 X0.325 Y0.518 E1852.13332
G1 X0.328 Y0.491 E1852.13445
G1 X0.34 Y0.462 E1852.13576
G1 X0.367 Y0.427 E1852.1376
G1 X0.401 Y0.402 E1852.13935
G1 X0.425 Y0.392 E1852.14043
G1 X0.446 Y0.39 E1852.14131
G1 X0.498 Y0.397 E1852.14349
G0 F6000 X0.647 Y-0.142
G1 F2400 X0.806 Y-0.077 E1852.15062
G1 X0.946 Y0.031 E1852.15794
G1 X1.056 Y0.174 E1852.16544
G1 X1.126 Y0.343 E1852.17305
G1 X1.149 Y0.521 E1852.18051
G1 X1.126 Y0.699 E1852.18797
G1 X1.058 Y0.863 E1852.19535
G1 X0.941 Y1.012 E1852.20323
G1 X0.795 Y1.122 E1852.21083
G1 X0.623 Y1.191 E1852.21853
G1 X0.456 Y1.213 E1852.22554
G1 X0.286 Y1.191 E1852.23266
G1 X0.097 Y1.11 E1852.24121
G1 X-0.032 Y1.011 E1852.24797
G1 X-0.141 Y0.868 E1852.25547
G1 X-0.211 Y0.7 E1852.26306
G1 X-0.235 Y0.521 E1852.27057
G1 X-0.212 Y0.343 E1852.27803
G1 X-0.144 Y0.179 E1852.28539
G1 X-0.025 Y0.028 E1852.29336
G1 X0.124 Y-0.084 E1852.30108
G1 X0.279 Y-0.148 E1852.30806
G1 X0.45 Y-0.17 E1852.31524
G1 X0.647 Y-0.142 E1852.32351
G0 F6000 X0.999 Y-0.531
G1 F2400 X0.999 Y-29.138 E1853.51289
G0 F6000 X0.499 Y-29.138
G1 F2400 X0.499 Y-0.663 E1854.6967
G0 F6000 X0.796 Y-0.681
G1 F2400 X1.084 Y-0.563 E1854.70962
G1 X1.342 Y-0.364 E1854.72314
G1 X1.541 Y-0.105 E1854.73669
G1 X1.666 Y0.197 E1854.75024
G1 X1.709 Y0.521 E1854.76383
G1 X1.666 Y0.845 E1854.77742
G1 X1.542 Y1.145 E1854.79091
G1 X1.332 Y1.412 E1854.80504
G1 X1.071 Y1.609 E1854.81863
G1 X0.764 Y1.732 E1854.83238
G1 X0.456 Y1.772 E1854.84529
G1 X0.137 Y1.731 E1854.85867
G1 X-0.185 Y1.593 E1854.87323
G1 X-0.428 Y1.406 E1854.88601
G1 X-0.625 Y1.149 E1854.8995
G1 X-0.752 Y0.844 E1854.91325
G1 X-0.794 Y0.521 E1854.9268
G1 X-0.752 Y0.198 E1854.94033
G1 X-0.627 Y-0.105 E1854.95395
G1 X-0.418 Y-0.37 E1854.96798
G1 X-0.153 Y-0.57 E1854.98178
G1 X0.133 Y-0.688 E1854.99462
G1 X0.452 Y-0.73 E1855.008
G1 X0.796 Y-0.681 E1855.02244
G0 F6000 X0 Y-0.568
G1 F2400 X0 Y-29.139 E1856.21033
G0 F6000 X-0.5 Y-29.139
G1 F2400 X-0.5 Y-0.168 E1857.41476
G0 F6000 X1.5 Y-0.046
G1 F2400 X1.499 Y-29.138 E1858.62431
G0 F6000 X-1 Y-29.139
G1 F2400 X-0.999 Y29.139 E1861.04718
G0 F6000 X-1.499 Y29.139
G1 F2400 X-1.5 Y-29.139 E1863.4701
G0 F6000 X-2 Y-29.139
G1 F2400 X-1.999 Y29.139 E1865.89298
G0 F6000 X-2.499 Y29.139
G1 F2400 X-2.5 Y-29.139 E1868.3159
G0 F6000 X-3 Y-29.139
G1 F2400 X-2.999 Y29.139 E1870.73877
G0 F6000 X-3.499 Y29.139
G1 F2400 X-3.5 Y-29.139 E1873.16169
G0 F6000 X-4 Y-29.139
G1 F2400 X-3.999 Y29.139 E1875.58457
G0 F6000 X-4.499 Y29.139
G1 F2400 X-4.5 Y-29.139 E1878.00748
G0 F6000 X-5 Y-29.139
G1 F2400 X-4.999 Y29.139 E1880.43036
G0 F6000 X-5.499 Y29.139
G1 F2400 X-5.5 Y-29.139 E1882.85328
G0 F6000 X-6 Y-29.139
G1 F2400 X-5.999 Y29.139 E1885.27615
G0 F6000 X-6.499 Y29.139
G1 F2400 X-6.5 Y-29.139 E1887.69907
G0 F6000 X-7 Y-29.139
G1 F2400 X-6.999 Y29.139 E1890.12195
G0 F6000 X-7.499 Y29.139
G1 F2400 X-7.5 Y-29.139 E1892.54486
G0 F6000 X-8 Y-29.139
G1 F2400 X-7.999 Y29.139 E1894.96774
G0 F6000 X-8.499 Y29.139
G1 F2400 X-8.5 Y-29.139 E1897.39066
G0 F6000 X-9 Y-29.139
G1 F2400 X-8.999 Y29.139 E1899.81353
G0 F6000 X-9.499 Y29.139
G1 F2400 X-9.5 Y-29.139 E1902.23645
G0 F6000 X-10 Y-29.139
G1 F2400 X-9.999 Y29.139 E1904.65933
G0 F6000 X-10.499 Y29.139
G1 F2400 X-10.5 Y-29.139 E1907.08225
G0 F6000 X-11 Y-29.139
G1 F2400 X-10.999 Y29.139 E1909.50512
G0 F6000 X-11.499 Y29.139
G1 F2400 X-11.5 Y-29.139 E1911.92804
G0 F6000 X-12 Y-29.139
G1 F2400 X-11.999 Y29.139 E1914.35092
G0 F6000 X-12.499 Y29.139
G1 F2400 X-12.5 Y-29.139 E1916.77383
G0 F6000 X-13 Y-29.139
G1 F2400 X-12.999 Y29.139 E1919.19671
G0 F6000 X-13.499 Y29.139
G1 F2400 X-13.5 Y-29.139 E1921.61963
G0 F6000 X-14 Y-29.139
G1 F2400 X-13.999 Y29.139 E1924.0425
G0 F6000 X-14.499 Y29.139
G1 F2400 X-14.5 Y-29.139 E1926.46542
G0 F6000 X-15 Y-29.138
G1 F2400 X-14.999 Y29.139 E1928.88826
G0 F6000 X-15.499 Y29.139
G1 F2400 X-15.5 Y-29.138 E1931.31113
G0 F6000 X-16 Y-29.138
G1 F2400 X-15.999 Y29.139 E1933.73397
G0 F6000 X-16.499 Y29.139
G1 F2400 X-16.5 Y-29.138 E1936.15684
G0 F6000 X-17 Y-29.138
G1 F2400 X-16.999 Y29.139 E1938.57968
G0 F6000 X-17.499 Y29.139
G1 F2400 X-17.5 Y-29.138 E1941.00255
G0 F6000 X-18 Y-29.138
G1 F2400 X-17.999 Y29.139 E1943.42539
G0 F6000 X-18.499 Y29.139
G1 F2400 X-18.5 Y-29.138 E1945.84826
G0 F6000 X-19 Y-29.138
G1 F2400 X-18.999 Y29.139 E1948.2711
G0 F6000 X-19.499 Y29.139
G1 F2400 X-19.5 Y-29.138 E1950.69397
G0 F6000 X-20 Y-29.138
G1 F2400 X-19.999 Y29.139 E1953.11681
G0 F6000 X-20.499 Y29.139
G1 F2400 X-20.5 Y-29.138 E1955.53968
G0 F6000 X-21 Y-29.138
G1 F2400 X-20.999 Y29.139 E1957.96252
G0 F6000 X-21.499 Y29.139
G1 F2400 X-21.5 Y-29.138 E1960.3854
G0 F6000 X-22 Y-29.138
G1 F2400 X-22 Y-22.954 E1960.64245
G0 F6000 X-22 Y-22.397
G1 F2400 X-21.999 Y29.139 E1962.78503
G0 F6000 X-22.499 Y29.139
G1 F2400 X-22.499 Y23.263 E1963.02933
G0 F6000 X-22.999 Y23.762
G1 F2400 X-22.999 Y29.139 E1963.25288
G0 F6000 X-23.499 Y29.139
G1 F2400 X-23.499 Y23.88 E1963.47152
G0 F6000 X-23.999 Y23.79
G1 F2400 X-23.999 Y29.139 E1963.69391
G0 F6000 X-24.499 Y29.139
G1 F2400 X-24.499 Y23.393 E1963.9328
G0 F6000 X-23.495 Y22.581
G1 F2400 X-23.46 Y22.599 E1963.9344
G1 X-23.439 Y22.617 E1963.93552
G1 X-23.424 Y22.64 E1963.93663
G1 X-23.411 Y22.676 E1963.93821
G1 X-23.408 Y22.716 E1963.93988
G1 X-23.414 Y22.745 E1963.94112
G1 X-23.428 Y22.773 E1963.94244
G1 X-23.46 Y22.809 E1963.94447
G1 X-23.468 Y22.814 E1963.9449
G1 X-23.52 Y22.831 E1963.94721
G1 X-23.546 Y22.833 E1963.94834
G1 X-23.585 Y22.824 E1963.95004
G1 X-23.622 Y22.805 E1963.95181
G1 X-23.643 Y22.787 E1963.95299
G1 X-23.656 Y22.768 E1963.95397
G1 X-23.669 Y22.727 E1963.95577
G1 X-23.672 Y22.687 E1963.95744
G1 X-23.666 Y22.658 E1963.95867
G1 X-23.657 Y22.64 E1963.95949
G1 X-23.623 Y22.602 E1963.96158
G1 X-23.599 Y22.586 E1963.96274
G1 X-23.565 Y22.575 E1963.96419
G1 X-23.531 Y22.573 E1963.96556
G1 X-23.495 Y22.581 E1963.96706
G0 F6000 X-23.308 Y22.053
G1 F2400 X-23.146 Y22.136 E1963.97459
G1 X-23.019 Y22.247 E1963.98157
G1 X-22.92 Y22.396 E1963.98898
G1 X-22.861 Y22.57 E1963.99661
G1 X-22.85 Y22.755 E1964.00431
G1 X-22.883 Y22.924 E1964.01148
G1 X-22.963 Y23.085 E1964.01897
G1 X-23.095 Y23.233 E1964.02724
G1 X-23.225 Y23.319 E1964.03376
G1 X-23.417 Y23.381 E1964.04219
G1 X-23.59 Y23.391 E1964.04943
G1 X-23.772 Y23.352 E1964.05721
G1 X-23.936 Y23.268 E1964.06491
G1 X-24.064 Y23.156 E1964.07201
G1 X-24.159 Y23.013 E1964.07917
G1 X-24.219 Y22.836 E1964.08696
G1 X-24.23 Y22.65 E1964.0947
G1 X-24.196 Y22.479 E1964.10195
G1 X-24.12 Y22.324 E1964.1091
G1 X-23.986 Y22.176 E1964.11738
G1 X-23.84 Y22.08 E1964.12461
G1 X-23.668 Y22.025 E1964.13207
G1 X-23.487 Y22.015 E1964.13957
G1 X-23.308 Y22.053 E1964.14714
G0 F6000 X-22.999 Y21.653
G1 F2400 X-23 Y-21.501 E1965.94127
G0 F6000 X-23.5 Y-21.55
G1 F2400 X-23.499 Y21.519 E1967.73183
G0 F6000 X-23.123 Y21.525
G1 F2400 X-22.831 Y21.674 E1967.74542
G1 X-22.597 Y21.879 E1967.75833
G1 X-22.417 Y22.151 E1967.77186
G1 X-22.312 Y22.461 E1967.78546
G1 X-22.291 Y22.791 E1967.7992
G1 X-22.354 Y23.106 E1967.81257
G1 X-22.499 Y23.398 E1967.82614
G1 X-22.73 Y23.657 E1967.8406
G1 X-22.983 Y23.824 E1967.85323
G1 X-23.312 Y23.931 E1967.86766
G1 X-23.636 Y23.949 E1967.88119
G1 X-23.957 Y23.88 E1967.89488
G1 X-24.249 Y23.732 E1967.90853
G1 X-24.486 Y23.524 E1967.92167
G1 X-24.662 Y23.258 E1967.93495
G1 X-24.768 Y22.945 E1967.9487
G1 X-24.789 Y22.614 E1967.9625
G1 X-24.726 Y22.299 E1967.97584
G1 X-24.582 Y22.008 E1967.98932
G1 X-24.351 Y21.751 E1968.00366
G1 X-24.083 Y21.576 E1968.01694
G1 X-23.768 Y21.475 E1968.03065
G1 X-23.442 Y21.457 E1968.04418
G1 X-23.123 Y21.525 E1968.0577
G0 F6000 X-22.499 Y22.134
G1 F2400 X-22.5 Y-21.691 E1969.87973
G0 F6000 X-23.104 Y-22.8
G1 F2400 X-23.063 Y-22.777 E1969.88163
G1 X-23.043 Y-22.758 E1969.88272
G1 X-23.032 Y-22.74 E1969.88354
G1 X-23.019 Y-22.698 E1969.88532
G1 X-23.019 Y-22.661 E1969.88681
G1 X-23.023 Y-22.642 E1969.88759
G1 X-23.043 Y-22.604 E1969.88936
G1 X-23.072 Y-22.574 E1969.89109
G1 X-23.097 Y-22.559 E1969.89232
G1 X-23.13 Y-22.55 E1969.89377
G1 X-23.164 Y-22.549 E1969.89523
G1 X-23.201 Y-22.559 E1969.89687
G1 X-23.232 Y-22.576 E1969.8984
G1 X-23.257 Y-22.6 E1969.8999
G1 X-23.269 Y-22.619 E1969.90089
G1 X-23.28 Y-22.657 E1969.90259
G1 X-23.281 Y-22.696 E1969.90425
G1 X-23.274 Y-22.723 E1969.90544
G1 X-23.261 Y-22.748 E1969.90663
G1 X-23.23 Y-22.78 E1969.90849
G1 X-23.2 Y-22.798 E1969.90993
G1 X-23.166 Y-22.807 E1969.91136
G1 X-23.134 Y-22.808 E1969.91265
G1 X-23.104 Y-22.8 E1969.91389
G0 F6000 X-22.896 Y-23.32
G1 F2400 X-22.734 Y-23.229 E1969.92156
G1 X-22.608 Y-23.11 E1969.92871
G1 X-22.519 Y-22.965 E1969.93572
G1 X-22.466 Y-22.784 E1969.94351
G1 X-22.462 Y-22.603 E1969.951
G1 X-22.5 Y-22.443 E1969.95781
G1 X-22.59 Y-22.274 E1969.96575
G1 X-22.724 Y-22.136 E1969.97375
G1 X-22.876 Y-22.045 E1969.98113
G1 X-23.049 Y-21.996 E1969.98863
G1 X-23.229 Y-21.993 E1969.99616
G1 X-23.406 Y-22.038 E1970.0038
G1 X-23.564 Y-22.125 E1970.01135
G1 X-23.692 Y-22.247 E1970.01876
G1 X-23.78 Y-22.392 E1970.02587
G1 X-23.833 Y-22.572 E1970.03373
G1 X-23.838 Y-22.754 E1970.04134
G1 X-23.796 Y-22.926 E1970.04873
G1 X-23.713 Y-23.079 E1970.05598
G1 X-23.577 Y-23.219 E1970.0641
G1 X-23.421 Y-23.312 E1970.07164
G1 X-23.25 Y-23.361 E1970.079
G1 X-23.069 Y-23.364 E1970.08649
G1 X-22.896 Y-23.32 E1970.09386
G0 F6000 X-22.5 Y-23.666
G1 F2400 X-22.5 Y-29.138 E1970.3214
G0 F6000 X-23 Y-29.138
G1 F2400 X-23 Y-23.856 E1970.54096
G0 F6000 X-22.689 Y-23.84
G1 F2400 X-22.402 Y-23.68 E1970.55456
G1 X-22.173 Y-23.463 E1970.56762
G1 X-22.007 Y-23.191 E1970.58081
G1 X-21.913 Y-22.871 E1970.59463
G1 X-21.905 Y-22.544 E1970.60818
G1 X-21.976 Y-22.246 E1970.62089
G1 X-22.138 Y-21.943 E1970.63516
G1 X-22.375 Y-21.698 E1970.64933
G1 X-22.654 Y-21.531 E1970.66286
G1 X-22.97 Y-21.442 E1970.67654
G1 X-23.295 Y-21.437 E1970.69009
G1 X-23.61 Y-21.517 E1970.70366
G1 X-23.897 Y-21.676 E1970.71735
G1 X-24.126 Y-21.894 E1970.73056
G1 X-24.293 Y-22.167 E1970.74392
G1 X-24.386 Y-22.484 E1970.75771
G1 X-24.395 Y-22.811 E1970.77135
G1 X-24.318 Y-23.129 E1970.78498
G1 X-24.165 Y-23.411 E1970.79834
G1 X-23.923 Y-23.66 E1970.81277
G1 X-23.645 Y-23.826 E1970.82622
G1 X-23.332 Y-23.915 E1970.83972
G1 X-23.005 Y-23.92 E1970.85328
G1 X-22.689 Y-23.84 E1970.86678
G0 F6000 X-23.5 Y-23.804
G1 F2400 X-23.5 Y-29.138 E1971.08858
G0 F6000 X-24 Y-29.138
G1 F2400 X-24 Y-23.493 E1971.32323
G0 F6000 X-24 Y-21.856
G1 F2400 X-23.999 Y21.611 E1973.13034
G0 F6000 X-24.499 Y22.005
G1 F2400 X-24.5 Y-29.138 E1975.25662
G0 F6000 X-25 Y-29.138
G1 F2400 X-24.999 Y29.139 E1977.67945
G0 F6000 X-25.499 Y29.139
G1 F2400 X-25.5 Y-29.138 E1980.10233
G0 F6000 X-26 Y-29.138
G1 F2400 X-25.999 Y29.139 E1982.52516
G0 F6000 X-26.499 Y29.139
G1 F2400 X-26.5 Y-29.138 E1984.94804
G0 F6000 X-27 Y-29.138
G1 F2400 X-26.999 Y29.139 E1987.37087
G0 F6000 X-27.499 Y29.139
G1 F2400 X-27.5 Y-29.138 E1989.79375
G0 F6000 X-27.91 Y-29.079
G1 F2400 X-28.374 Y-29.025 E1989.81321
G1 X-28.802 Y-28.851 E1989.83244
G1 X-29.17 Y-28.57 E1989.8517
G1 X-29.446 Y-28.211 E1989.87052
G1 X-29.624 Y-27.786 E1989.88965
G1 X-29.681 Y-27.316 E1989.9093
G1 X-29.681 Y27.307 E1992.18022
G1 X-29.627 Y27.771 E1992.19963
G1 X-29.453 Y28.199 E1992.21883
G1 X-29.174 Y28.565 E1992.23793
G1 X-28.809 Y28.846 E1992.25705
G1 X-28.381 Y29.025 E1992.2763
G1 X-27.91 Y29.08 E1992.29598
G1 X27.911 Y29.08 E1994.6167
G1 X28.382 Y29.025 E1994.63642
G1 X28.803 Y28.849 E1994.65539
G1 X29.169 Y28.57 E1994.67452
G1 X29.444 Y28.212 E1994.69329
G1 X29.624 Y27.789 E1994.7124
G1 X29.681 Y27.317 E1994.73217
G1 X29.681 Y-27.307 E1997.00317
G1 X29.627 Y-27.773 E1997.02271
G1 X29.451 Y-28.199 E1997.04192
G1 X29.176 Y-28.562 E1997.06088
G1 X28.809 Y-28.847 E1997.08023
G1 X28.379 Y-29.024 E1997.09958
G1 X27.909 Y-29.079 E1997.11925
G1 X-27.91 Y-29.079 E1999.43994
G0 F6000 X-28 Y-29.128
G1 F2400 X-27.999 Y29.129 E2001.86194
G0 F6000 X-28.499 Y29.039
G1 F2400 X-28.5 Y-29.037 E2004.27646
G0 F6000 X-29 Y-28.774
G1 F2400 X-28.999 Y28.773 E2006.66895
G0 F6000 X-29.499 Y28.236
G1 F2400 X-29.5 Y-28.233 E2009.01665
G0 F6000 X23.353 Y-22.806
G0 X23.353 Y-22.806
G1 F2400 X23.388 Y-22.794 E2009.01818
G1 X23.417 Y-22.774 E2009.01962
G1 X23.442 Y-22.746 E2009.02115
G1 X23.455 Y-22.718 E2009.0224
G1 X23.461 Y-22.682 E2009.02387
G1 X23.459 Y-22.655 E2009.02496
G1 X23.447 Y-22.62 E2009.02646
G1 X23.419 Y-22.58 E2009.02845
G1 X23.406 Y-22.569 E2009.02913
G1 X23.383 Y-22.557 E2009.03019
G1 X23.332 Y-22.548 E2009.03234
G1 X23.307 Y-22.55 E2009.03339
G1 X23.261 Y-22.567 E2009.03544
G1 X23.246 Y-22.577 E2009.03621
G1 X23.221 Y-22.606 E2009.03784
G1 X23.205 Y-22.638 E2009.03936
G1 X23.199 Y-22.668 E2009.04067
G1 X23.202 Y-22.707 E2009.04234
G1 X23.208 Y-22.724 E2009.04313
G1 X23.237 Y-22.766 E2009.04529
G1 X23.263 Y-22.788 E2009.04673
G1 X23.294 Y-22.803 E2009.04818
G1 X23.325 Y-22.809 E2009.0495
G1 X23.353 Y-22.806 E2009.05067
G0 F6000 X23.472 Y-23.353
G1 F2400 X23.644 Y-23.292 E2009.05824
G1 X23.792 Y-23.19 E2009.06569
G1 X23.911 Y-23.05 E2009.0733
G1 X23.988 Y-22.888 E2009.08072
G1 X24.021 Y-22.71 E2009.08821
G1 X24.006 Y-22.536 E2009.09542
G1 X23.945 Y-22.365 E2009.10293
G1 X23.836 Y-22.207 E2009.11088
G1 X23.713 Y-22.1 E2009.11763
G1 X23.558 Y-22.025 E2009.12477
G1 X23.361 Y-21.989 E2009.13309
G1 X23.189 Y-22.003 E2009.14027
G1 X23.008 Y-22.068 E2009.14828
G1 X22.874 Y-22.158 E2009.15501
G1 X22.754 Y-22.297 E2009.16268
G1 X22.674 Y-22.46 E2009.17026
G1 X22.64 Y-22.638 E2009.17784
G1 X22.653 Y-22.819 E2009.18543
G1 X22.708 Y-22.978 E2009.19246
G1 X22.82 Y-23.14 E2009.20068
G1 X22.958 Y-23.258 E2009.20826
